G21       (units are millimeters)
G94       (feedrate in 'units' per minute)
G17       (working in/on xy-plane)
G64 P0.05 (LinuxCNC, continuous mode with 'p' as tolerance)

G54       (use first WCS)

(DEBUG,CHECK WCS NOW!)
M0        (pause and display message)
G4 P1     (wait for 1 second)

T1 M6     (select first tool)
S8000 M03
G04 P3    (wait for 3 seconds)

G43 H1    (set tool offset)

(DEBUG,CHECK TOOL OFFSET NOW!)
M0        (pause and display message)
G4 P1     (wait for 1 second)

F900

(rapid to: no name)
G00 Z20
G00 X10.000000 Y20.000000
G00 Z0.000000
(no name)
G03 X30.000000 Y20.000000 Z-1.842197 R10.000000
G01  Y64.721360 Z-5.000000
G03 X10.000000 Y64.721360 Z-6.842197 R10.000000
G01  Y20.000000 Z-10.000000
G03 X30.000000 Y20.000000 Z-11.842197 R10.000000
G01  Y64.721360 Z-15.000000
G03 X10.000000 Y64.721360 Z-16.842197 R10.000000
G01  Y20.000000 Z-20.000000
G03 X30.000000 Y20.000000 Z-21.842197 R10.000000
G01  Y64.721360 Z-25.000000
G03 X10.000000 Y64.721360 Z-26.842197 R10.000000
G01  Y20.000000 Z-30.000000
G03 X30.000000 Y20.000000 Z-31.842197 R10.000000
G01  Y64.721360 Z-35.000000
G03 X10.000000 Y64.721360 Z-36.842197 R10.000000
G01  Y20.000000 Z-40.000000
G03 X30.000000 Y20.000000 Z-41.842197 R10.000000
G01  Y64.721360 Z-45.000000
G03 X10.000000 Y64.721360 Z-46.842197 R10.000000
G01  Y20.000000 Z-50.000000
(END)
G00 Z20

M02
