G21       (units are millimeters)
G94       (feedrate in 'units' per minute)
G17       (working in/on xy-plane)
G64 P0.05 (LinuxCNC, continuous mode with 'p' as tolerance)

G54       (use first WCS)

(DEBUG,CHECK WCS NOW!)
M0        (pause and display message)
G4 P1     (wait for 1 second)

T1 M6     (select first tool)
S8000 M03
G04 P3    (wait for 3 seconds)

G43 H1    (set tool offset)

(DEBUG,CHECK TOOL OFFSET NOW!)
M0        (pause and display message)
G4 P1     (wait for 1 second)

F900

(rapid to: no name)
G00 Z20
G00 X15.000000 Y20.000000
G00 Z0.000000
(no name)
G03 X25.000000 Y20.000000 Z0.000000 R5.000000
G01  Y64.721360 
G03 X15.000000 Y64.721360 Z0.000000 R5.000000
G01  Y20.000000 
G02 X14.166667 Y20.000000 Z0.000000 R0.416667
G03 X13.333333 Y20.000000 Z0.000000 R0.416667
  X26.666667 Y20.000000 Z0.000000 R6.666667
G01  Y64.721360 
G03 X13.333333 Y64.721360 Z0.000000 R6.666667
G01  Y20.000000 
G02 X12.500000 Y20.000000 Z0.000000 R0.416667
G03 X11.666667 Y20.000000 Z0.000000 R0.416667
  X28.333333 Y20.000000 Z0.000000 R8.333333
G01  Y64.721360 
G03 X11.666667 Y64.721360 Z0.000000 R8.333333
G01  Y20.000000 
(rapid to: no name)
G00 Z20
G00 X-25.000000 Y20.000000
G00 Z0.000000
(no name)
G02 X-15.000000 Y20.000000 Z0.000000 R5.000000
G01  Y-24.721360 
G02 X-25.000000 Y-24.721360 Z0.000000 R5.000000
G01  Y20.000000 
G03 X-25.833333 Y20.000000 Z0.000000 R0.416667
G02 X-26.666667 Y20.000000 Z0.000000 R0.416667
  X-13.333333 Y20.000000 Z0.000000 R6.666667
G01  Y-24.721360 
G02 X-26.666667 Y-24.721360 Z0.000000 R6.666667
G01  Y20.000000 
G03 X-27.500000 Y20.000000 Z0.000000 R0.416667
G02 X-28.333333 Y20.000000 Z0.000000 R0.416667
  X-11.666667 Y20.000000 Z0.000000 R8.333333
G01  Y-24.721360 
G02 X-28.333333 Y-24.721360 Z0.000000 R8.333333
G01  Y20.000000 
(END)
G00 Z20

M02
