G21       (units are millimeters)
G94       (feedrate in 'units' per minute)
G17       (working in/on xy-plane)
G64 P0.05 (LinuxCNC, continuous mode with 'p' as tolerance)

G54       (use first WCS)

(DEBUG,CHECK WCS NOW!)
M0        (pause and display message)
G4 P1     (wait for 1 second)

T1 M6     (select first tool)
S8000 M03
G04 P3    (wait for 3 seconds)

G43 H1    (set tool offset)

(DEBUG,CHECK TOOL OFFSET NOW!)
M0        (pause and display message)
G4 P1     (wait for 1 second)

F900

(rapid to: no name)
G00 Z5
G00 X-0.500000 Y0.000000
G00 Z0.500000
(no name)
G03 X0.500000 Y0.000000 Z0.375000 R0.500000
  X-0.500000 Y0.000000 Z0.250000 R0.500000
  X0.500000 Y0.000000 Z0.125000 R0.500000
  X-0.500000 Y0.000000 Z0.000000 R0.500000
  X0.500000 Y0.000000 Z-0.125000 R0.500000
  X-0.500000 Y0.000000 Z-0.250000 R0.500000
  X0.500000 Y0.000000 Z-0.375000 R0.500000
  X-0.500000 Y0.000000 Z-0.500000 R0.500000
  X0.500000 Y0.000000 Z-0.500000 R0.500000
  X-0.500000 Y0.000000 Z-0.500000 R0.500000
G02 X-0.625000 Y0.000000 Z-0.500000 R0.062500
G03 X-0.750000 Y0.000000 Z-0.500000 R0.062500
  X0.750000 Y0.000000 Z-0.500000 R0.750000
  X-0.750000 Y0.000000 Z-0.500000 R0.750000
G02 X-0.875000 Y0.000000 Z-0.500000 R0.062500
G03 X-1.000000 Y0.000000 Z-0.500000 R0.062500
  X1.000000 Y0.000000 Z-0.500000 R1.000000
  X-1.000000 Y0.000000 Z-0.500000 R1.000000
G02 X-1.125000 Y0.000000 Z-0.500000 R0.062500
G03 X-1.250000 Y0.000000 Z-0.500000 R0.062500
  X1.250000 Y0.000000 Z-0.500000 R1.250000
  X-1.250000 Y0.000000 Z-0.500000 R1.250000
  X-0.875000 Y0.000000 Z0.000000 R0.187500
G02 X-0.500000 Y0.000000 Z0.000000 R0.187500
G03 X0.500000 Y0.000000 Z-0.125000 R0.500000
  X-0.500000 Y0.000000 Z-0.250000 R0.500000
  X0.500000 Y0.000000 Z-0.375000 R0.500000
  X-0.500000 Y0.000000 Z-0.500000 R0.500000
  X0.500000 Y0.000000 Z-0.625000 R0.500000
  X-0.500000 Y0.000000 Z-0.750000 R0.500000
  X0.500000 Y0.000000 Z-0.875000 R0.500000
  X-0.500000 Y0.000000 Z-1.000000 R0.500000
  X0.500000 Y0.000000 Z-1.000000 R0.500000
  X-0.500000 Y0.000000 Z-1.000000 R0.500000
G02 X-0.625000 Y0.000000 Z-1.000000 R0.062500
G03 X-0.750000 Y0.000000 Z-1.000000 R0.062500
  X0.750000 Y0.000000 Z-1.000000 R0.750000
  X-0.750000 Y0.000000 Z-1.000000 R0.750000
G02 X-0.875000 Y0.000000 Z-1.000000 R0.062500
G03 X-1.000000 Y0.000000 Z-1.000000 R0.062500
  X1.000000 Y0.000000 Z-1.000000 R1.000000
  X-1.000000 Y0.000000 Z-1.000000 R1.000000
G02 X-1.125000 Y0.000000 Z-1.000000 R0.062500
G03 X-1.250000 Y0.000000 Z-1.000000 R0.062500
  X1.250000 Y0.000000 Z-1.000000 R1.250000
  X-1.250000 Y0.000000 Z-1.000000 R1.250000
  X-0.875000 Y0.000000 Z-0.500000 R0.187500
G02 X-0.500000 Y0.000000 Z-0.500000 R0.187500
G03 X0.500000 Y0.000000 Z-0.625000 R0.500000
  X-0.500000 Y0.000000 Z-0.750000 R0.500000
  X0.500000 Y0.000000 Z-0.875000 R0.500000
  X-0.500000 Y0.000000 Z-1.000000 R0.500000
  X0.500000 Y0.000000 Z-1.125000 R0.500000
  X-0.500000 Y0.000000 Z-1.250000 R0.500000
  X0.500000 Y0.000000 Z-1.375000 R0.500000
  X-0.500000 Y0.000000 Z-1.500000 R0.500000
  X0.500000 Y0.000000 Z-1.500000 R0.500000
  X-0.500000 Y0.000000 Z-1.500000 R0.500000
G02 X-0.625000 Y0.000000 Z-1.500000 R0.062500
G03 X-0.750000 Y0.000000 Z-1.500000 R0.062500
  X0.750000 Y0.000000 Z-1.500000 R0.750000
  X-0.750000 Y0.000000 Z-1.500000 R0.750000
G02 X-0.875000 Y0.000000 Z-1.500000 R0.062500
G03 X-1.000000 Y0.000000 Z-1.500000 R0.062500
  X1.000000 Y0.000000 Z-1.500000 R1.000000
  X-1.000000 Y0.000000 Z-1.500000 R1.000000
G02 X-1.125000 Y0.000000 Z-1.500000 R0.062500
G03 X-1.250000 Y0.000000 Z-1.500000 R0.062500
  X1.250000 Y0.000000 Z-1.500000 R1.250000
  X-1.250000 Y0.000000 Z-1.500000 R1.250000
  X-0.875000 Y0.000000 Z-1.000000 R0.187500
G02 X-0.500000 Y0.000000 Z-1.000000 R0.187500
G03 X0.500000 Y0.000000 Z-1.125000 R0.500000
  X-0.500000 Y0.000000 Z-1.250000 R0.500000
  X0.500000 Y0.000000 Z-1.375000 R0.500000
  X-0.500000 Y0.000000 Z-1.500000 R0.500000
  X0.500000 Y0.000000 Z-1.625000 R0.500000
  X-0.500000 Y0.000000 Z-1.750000 R0.500000
  X0.500000 Y0.000000 Z-1.875000 R0.500000
  X-0.500000 Y0.000000 Z-2.000000 R0.500000
  X0.500000 Y0.000000 Z-2.000000 R0.500000
  X-0.500000 Y0.000000 Z-2.000000 R0.500000
G02 X-0.625000 Y0.000000 Z-2.000000 R0.062500
G03 X-0.750000 Y0.000000 Z-2.000000 R0.062500
  X0.750000 Y0.000000 Z-2.000000 R0.750000
  X-0.750000 Y0.000000 Z-2.000000 R0.750000
G02 X-0.875000 Y0.000000 Z-2.000000 R0.062500
G03 X-1.000000 Y0.000000 Z-2.000000 R0.062500
  X1.000000 Y0.000000 Z-2.000000 R1.000000
  X-1.000000 Y0.000000 Z-2.000000 R1.000000
G02 X-1.125000 Y0.000000 Z-2.000000 R0.062500
G03 X-1.250000 Y0.000000 Z-2.000000 R0.062500
  X1.250000 Y0.000000 Z-2.000000 R1.250000
  X-1.250000 Y0.000000 Z-2.000000 R1.250000
  X-0.875000 Y0.000000 Z-1.500000 R0.187500
G02 X-0.500000 Y0.000000 Z-1.500000 R0.187500
G03 X0.500000 Y0.000000 Z-1.625000 R0.500000
  X-0.500000 Y0.000000 Z-1.750000 R0.500000
  X0.500000 Y0.000000 Z-1.875000 R0.500000
  X-0.500000 Y0.000000 Z-2.000000 R0.500000
  X0.500000 Y0.000000 Z-2.125000 R0.500000
  X-0.500000 Y0.000000 Z-2.250000 R0.500000
  X0.500000 Y0.000000 Z-2.375000 R0.500000
  X-0.500000 Y0.000000 Z-2.500000 R0.500000
  X0.500000 Y0.000000 Z-2.500000 R0.500000
  X-0.500000 Y0.000000 Z-2.500000 R0.500000
G02 X-0.625000 Y0.000000 Z-2.500000 R0.062500
G03 X-0.750000 Y0.000000 Z-2.500000 R0.062500
  X0.750000 Y0.000000 Z-2.500000 R0.750000
  X-0.750000 Y0.000000 Z-2.500000 R0.750000
G02 X-0.875000 Y0.000000 Z-2.500000 R0.062500
G03 X-1.000000 Y0.000000 Z-2.500000 R0.062500
  X1.000000 Y0.000000 Z-2.500000 R1.000000
  X-1.000000 Y0.000000 Z-2.500000 R1.000000
G02 X-1.125000 Y0.000000 Z-2.500000 R0.062500
G03 X-1.250000 Y0.000000 Z-2.500000 R0.062500
  X1.250000 Y0.000000 Z-2.500000 R1.250000
  X-1.250000 Y0.000000 Z-2.500000 R1.250000
  X-0.875000 Y0.000000 Z-2.000000 R0.187500
G02 X-0.500000 Y0.000000 Z-2.000000 R0.187500
G03 X0.500000 Y0.000000 Z-2.125000 R0.500000
  X-0.500000 Y0.000000 Z-2.250000 R0.500000
  X0.500000 Y0.000000 Z-2.375000 R0.500000
  X-0.500000 Y0.000000 Z-2.500000 R0.500000
  X0.500000 Y0.000000 Z-2.625000 R0.500000
  X-0.500000 Y0.000000 Z-2.750000 R0.500000
  X0.500000 Y0.000000 Z-2.875000 R0.500000
  X-0.500000 Y0.000000 Z-3.000000 R0.500000
  X0.500000 Y0.000000 Z-3.000000 R0.500000
  X-0.500000 Y0.000000 Z-3.000000 R0.500000
G02 X-0.625000 Y0.000000 Z-3.000000 R0.062500
G03 X-0.750000 Y0.000000 Z-3.000000 R0.062500
  X0.750000 Y0.000000 Z-3.000000 R0.750000
  X-0.750000 Y0.000000 Z-3.000000 R0.750000
G02 X-0.875000 Y0.000000 Z-3.000000 R0.062500
G03 X-1.000000 Y0.000000 Z-3.000000 R0.062500
  X1.000000 Y0.000000 Z-3.000000 R1.000000
  X-1.000000 Y0.000000 Z-3.000000 R1.000000
G02 X-1.125000 Y0.000000 Z-3.000000 R0.062500
G03 X-1.250000 Y0.000000 Z-3.000000 R0.062500
  X1.250000 Y0.000000 Z-3.000000 R1.250000
  X-1.250000 Y0.000000 Z-3.000000 R1.250000
  X-0.875000 Y0.000000 Z-2.500000 R0.187500
G02 X-0.500000 Y0.000000 Z-2.500000 R0.187500
G03 X0.500000 Y0.000000 Z-2.625000 R0.500000
  X-0.500000 Y0.000000 Z-2.750000 R0.500000
  X0.500000 Y0.000000 Z-2.875000 R0.500000
  X-0.500000 Y0.000000 Z-3.000000 R0.500000
  X0.500000 Y0.000000 Z-3.125000 R0.500000
  X-0.500000 Y0.000000 Z-3.250000 R0.500000
  X0.500000 Y0.000000 Z-3.375000 R0.500000
  X-0.500000 Y0.000000 Z-3.500000 R0.500000
  X0.500000 Y0.000000 Z-3.500000 R0.500000
  X-0.500000 Y0.000000 Z-3.500000 R0.500000
G02 X-0.625000 Y0.000000 Z-3.500000 R0.062500
G03 X-0.750000 Y0.000000 Z-3.500000 R0.062500
  X0.750000 Y0.000000 Z-3.500000 R0.750000
  X-0.750000 Y0.000000 Z-3.500000 R0.750000
G02 X-0.875000 Y0.000000 Z-3.500000 R0.062500
G03 X-1.000000 Y0.000000 Z-3.500000 R0.062500
  X1.000000 Y0.000000 Z-3.500000 R1.000000
  X-1.000000 Y0.000000 Z-3.500000 R1.000000
G02 X-1.125000 Y0.000000 Z-3.500000 R0.062500
G03 X-1.250000 Y0.000000 Z-3.500000 R0.062500
  X1.250000 Y0.000000 Z-3.500000 R1.250000
  X-1.250000 Y0.000000 Z-3.500000 R1.250000
  X-0.875000 Y0.000000 Z-3.000000 R0.187500
G02 X-0.500000 Y0.000000 Z-3.000000 R0.187500
G03 X0.500000 Y0.000000 Z-3.125000 R0.500000
  X-0.500000 Y0.000000 Z-3.250000 R0.500000
  X0.500000 Y0.000000 Z-3.375000 R0.500000
  X-0.500000 Y0.000000 Z-3.500000 R0.500000
  X0.500000 Y0.000000 Z-3.625000 R0.500000
  X-0.500000 Y0.000000 Z-3.750000 R0.500000
  X0.500000 Y0.000000 Z-3.875000 R0.500000
  X-0.500000 Y0.000000 Z-4.000000 R0.500000
  X0.500000 Y0.000000 Z-4.000000 R0.500000
  X-0.500000 Y0.000000 Z-4.000000 R0.500000
G02 X-0.625000 Y0.000000 Z-4.000000 R0.062500
G03 X-0.750000 Y0.000000 Z-4.000000 R0.062500
  X0.750000 Y0.000000 Z-4.000000 R0.750000
  X-0.750000 Y0.000000 Z-4.000000 R0.750000
G02 X-0.875000 Y0.000000 Z-4.000000 R0.062500
G03 X-1.000000 Y0.000000 Z-4.000000 R0.062500
  X1.000000 Y0.000000 Z-4.000000 R1.000000
  X-1.000000 Y0.000000 Z-4.000000 R1.000000
G02 X-1.125000 Y0.000000 Z-4.000000 R0.062500
G03 X-1.250000 Y0.000000 Z-4.000000 R0.062500
  X1.250000 Y0.000000 Z-4.000000 R1.250000
  X-1.250000 Y0.000000 Z-4.000000 R1.250000
  X-0.875000 Y0.000000 Z-3.500000 R0.187500
G02 X-0.500000 Y0.000000 Z-3.500000 R0.187500
G03 X0.500000 Y0.000000 Z-3.625000 R0.500000
  X-0.500000 Y0.000000 Z-3.750000 R0.500000
  X0.500000 Y0.000000 Z-3.875000 R0.500000
  X-0.500000 Y0.000000 Z-4.000000 R0.500000
  X0.500000 Y0.000000 Z-4.125000 R0.500000
  X-0.500000 Y0.000000 Z-4.250000 R0.500000
  X0.500000 Y0.000000 Z-4.375000 R0.500000
  X-0.500000 Y0.000000 Z-4.500000 R0.500000
  X0.500000 Y0.000000 Z-4.500000 R0.500000
  X-0.500000 Y0.000000 Z-4.500000 R0.500000
G02 X-0.625000 Y0.000000 Z-4.500000 R0.062500
G03 X-0.750000 Y0.000000 Z-4.500000 R0.062500
  X0.750000 Y0.000000 Z-4.500000 R0.750000
  X-0.750000 Y0.000000 Z-4.500000 R0.750000
G02 X-0.875000 Y0.000000 Z-4.500000 R0.062500
G03 X-1.000000 Y0.000000 Z-4.500000 R0.062500
  X1.000000 Y0.000000 Z-4.500000 R1.000000
  X-1.000000 Y0.000000 Z-4.500000 R1.000000
G02 X-1.125000 Y0.000000 Z-4.500000 R0.062500
G03 X-1.250000 Y0.000000 Z-4.500000 R0.062500
  X1.250000 Y0.000000 Z-4.500000 R1.250000
  X-1.250000 Y0.000000 Z-4.500000 R1.250000
  X-0.875000 Y0.000000 Z-4.000000 R0.187500
G02 X-0.500000 Y0.000000 Z-4.000000 R0.187500
G03 X0.500000 Y0.000000 Z-4.125000 R0.500000
  X-0.500000 Y0.000000 Z-4.250000 R0.500000
  X0.500000 Y0.000000 Z-4.375000 R0.500000
  X-0.500000 Y0.000000 Z-4.500000 R0.500000
  X0.500000 Y0.000000 Z-4.625000 R0.500000
  X-0.500000 Y0.000000 Z-4.750000 R0.500000
  X0.500000 Y0.000000 Z-4.875000 R0.500000
  X-0.500000 Y0.000000 Z-5.000000 R0.500000
  X0.500000 Y0.000000 Z-5.000000 R0.500000
  X-0.500000 Y0.000000 Z-5.000000 R0.500000
G02 X-0.625000 Y0.000000 Z-5.000000 R0.062500
G03 X-0.750000 Y0.000000 Z-5.000000 R0.062500
  X0.750000 Y0.000000 Z-5.000000 R0.750000
  X-0.750000 Y0.000000 Z-5.000000 R0.750000
G02 X-0.875000 Y0.000000 Z-5.000000 R0.062500
G03 X-1.000000 Y0.000000 Z-5.000000 R0.062500
  X1.000000 Y0.000000 Z-5.000000 R1.000000
  X-1.000000 Y0.000000 Z-5.000000 R1.000000
G02 X-1.125000 Y0.000000 Z-5.000000 R0.062500
G03 X-1.250000 Y0.000000 Z-5.000000 R0.062500
  X1.250000 Y0.000000 Z-5.000000 R1.250000
  X-1.250000 Y0.000000 Z-5.000000 R1.250000
  X-0.875000 Y0.000000 Z-4.500000 R0.187500
G02 X-0.500000 Y0.000000 Z-4.500000 R0.187500
G03 X0.500000 Y0.000000 Z-4.625000 R0.500000
  X-0.500000 Y0.000000 Z-4.750000 R0.500000
  X0.500000 Y0.000000 Z-4.875000 R0.500000
  X-0.500000 Y0.000000 Z-5.000000 R0.500000
  X0.500000 Y0.000000 Z-5.125000 R0.500000
  X-0.500000 Y0.000000 Z-5.250000 R0.500000
  X0.500000 Y0.000000 Z-5.375000 R0.500000
  X-0.500000 Y0.000000 Z-5.500000 R0.500000
  X0.500000 Y0.000000 Z-5.500000 R0.500000
  X-0.500000 Y0.000000 Z-5.500000 R0.500000
G02 X-0.625000 Y0.000000 Z-5.500000 R0.062500
G03 X-0.750000 Y0.000000 Z-5.500000 R0.062500
  X0.750000 Y0.000000 Z-5.500000 R0.750000
  X-0.750000 Y0.000000 Z-5.500000 R0.750000
G02 X-0.875000 Y0.000000 Z-5.500000 R0.062500
G03 X-1.000000 Y0.000000 Z-5.500000 R0.062500
  X1.000000 Y0.000000 Z-5.500000 R1.000000
  X-1.000000 Y0.000000 Z-5.500000 R1.000000
G02 X-1.125000 Y0.000000 Z-5.500000 R0.062500
G03 X-1.250000 Y0.000000 Z-5.500000 R0.062500
  X1.250000 Y0.000000 Z-5.500000 R1.250000
  X-1.250000 Y0.000000 Z-5.500000 R1.250000
  X-0.500000 Y0.000000 Z0.500000 R0.375000
(END)
G00 Z5

M02
