G21       (units are millimeters)
G94       (feedrate in 'units' per minute)
G17       (working in/on xy-plane)
G64 P0.05 (LinuxCNC, continuous mode with 'p' as tolerance)

G54       (use first WCS)

(DEBUG,CHECK WCS NOW!)
M0        (pause and display message)
G4 P1     (wait for 1 second)

T1 M6     (select first tool)
S8000 M03
G04 P3    (wait for 3 seconds)

G43 H1    (set tool offset)

(DEBUG,CHECK TOOL OFFSET NOW!)
M0        (pause and display message)
G4 P1     (wait for 1 second)

F900

(rapid to: no name)
G00 Z20
G00 X27.574644 Y29.701425
G00 Z0.000000
(no name)
G03 X32.425356 Y10.298575 Z-2.162232 R10.000000
G01 X72.425356 Y20.298575 Z-5.000000
G03 X67.574644 Y39.701425 Z-7.162232 R10.000000
G01 X27.574644 Y29.701425 Z-10.000000
G03 X32.425356 Y10.298575 Z-12.162232 R10.000000
G01 X72.425356 Y20.298575 Z-15.000000
G03 X67.574644 Y39.701425 Z-17.162232 R10.000000
G01 X27.574644 Y29.701425 Z-20.000000
G03 X32.425356 Y10.298575 Z-22.162232 R10.000000
G01 X72.425356 Y20.298575 Z-25.000000
G03 X67.574644 Y39.701425 Z-27.162232 R10.000000
G01 X27.574644 Y29.701425 Z-30.000000
G03 X32.425356 Y10.298575 Z-32.162232 R10.000000
G01 X72.425356 Y20.298575 Z-35.000000
G03 X67.574644 Y39.701425 Z-37.162232 R10.000000
G01 X27.574644 Y29.701425 Z-40.000000
G03 X32.425356 Y10.298575 Z-42.162232 R10.000000
G01 X72.425356 Y20.298575 Z-45.000000
G03 X67.574644 Y39.701425 Z-47.162232 R10.000000
G01 X27.574644 Y29.701425 Z-50.000000
G03 X32.425356 Y10.298575 Z-50.000000 R10.000000
G01 X72.425356 Y20.298575 
G03 X67.574644 Y39.701425 Z-50.000000 R10.000000
G01 X27.574644 Y29.701425 
(rapid to: no name)
G00 Z20
G00 X24.452998 Y28.320503
G00 Z0.000000
(no name)
G03 X35.547002 Y11.679497 Z-2.328091 R10.000000
G01 X65.547002 Y31.679497 Z-5.000000
G03 X54.452998 Y48.320503 Z-7.328091 R10.000000
G01 X24.452998 Y28.320503 Z-10.000000
G03 X35.547002 Y11.679497 Z-12.328091 R10.000000
G01 X65.547002 Y31.679497 Z-15.000000
G03 X54.452998 Y48.320503 Z-17.328091 R10.000000
G01 X24.452998 Y28.320503 Z-20.000000
G03 X35.547002 Y11.679497 Z-22.328091 R10.000000
G01 X65.547002 Y31.679497 Z-25.000000
G03 X54.452998 Y48.320503 Z-27.328091 R10.000000
G01 X24.452998 Y28.320503 Z-30.000000
G03 X35.547002 Y11.679497 Z-32.328091 R10.000000
G01 X65.547002 Y31.679497 Z-35.000000
G03 X54.452998 Y48.320503 Z-37.328091 R10.000000
G01 X24.452998 Y28.320503 Z-40.000000
G03 X35.547002 Y11.679497 Z-42.328091 R10.000000
G01 X65.547002 Y31.679497 Z-45.000000
G03 X54.452998 Y48.320503 Z-47.328091 R10.000000
G01 X24.452998 Y28.320503 Z-50.000000
G03 X35.547002 Y11.679497 Z-50.000000 R10.000000
G01 X65.547002 Y31.679497 
G03 X54.452998 Y48.320503 Z-50.000000 R10.000000
G01 X24.452998 Y28.320503 
(rapid to: no name)
G00 Z20
G00 X22.000000 Y26.000000
G00 Z0.000000
(no name)
G03 X38.000000 Y14.000000 Z-1.929348 R10.000000
G01 X68.000000 Y54.000000 Z-5.000000
G03 X52.000000 Y66.000000 Z-6.929348 R10.000000
G01 X22.000000 Y26.000000 Z-10.000000
G03 X38.000000 Y14.000000 Z-11.929348 R10.000000
G01 X68.000000 Y54.000000 Z-15.000000
G03 X52.000000 Y66.000000 Z-16.929348 R10.000000
G01 X22.000000 Y26.000000 Z-20.000000
G03 X38.000000 Y14.000000 Z-21.929348 R10.000000
G01 X68.000000 Y54.000000 Z-25.000000
G03 X52.000000 Y66.000000 Z-26.929348 R10.000000
G01 X22.000000 Y26.000000 Z-30.000000
G03 X38.000000 Y14.000000 Z-31.929348 R10.000000
G01 X68.000000 Y54.000000 Z-35.000000
G03 X52.000000 Y66.000000 Z-36.929348 R10.000000
G01 X22.000000 Y26.000000 Z-40.000000
G03 X38.000000 Y14.000000 Z-41.929348 R10.000000
G01 X68.000000 Y54.000000 Z-45.000000
G03 X52.000000 Y66.000000 Z-46.929348 R10.000000
G01 X22.000000 Y26.000000 Z-50.000000
G03 X38.000000 Y14.000000 Z-50.000000 R10.000000
G01 X68.000000 Y54.000000 
G03 X52.000000 Y66.000000 Z-50.000000 R10.000000
G01 X22.000000 Y26.000000 
(rapid to: no name)
G00 Z20
G00 X27.830695 Y29.761871
G00 Z0.000000
(no name)
G03 X32.169305 Y10.238129 Z-1.270754 R10.000000
G01 X122.169305 Y30.238129 Z-5.000000
G03 X117.830695 Y49.761871 Z-6.270754 R10.000001
G01 X27.830695 Y29.761871 Z-10.000000
G03 X32.169305 Y10.238129 Z-11.270754 R10.000001
G01 X122.169305 Y30.238129 Z-15.000000
G03 X117.830695 Y49.761871 Z-16.270754 R10.000001
G01 X27.830695 Y29.761871 Z-20.000000
G03 X32.169305 Y10.238129 Z-21.270754 R10.000001
G01 X122.169305 Y30.238129 Z-25.000000
G03 X117.830695 Y49.761871 Z-26.270754 R10.000001
G01 X27.830695 Y29.761871 Z-30.000000
G03 X32.169305 Y10.238129 Z-31.270754 R10.000001
G01 X122.169305 Y30.238129 Z-35.000000
G03 X117.830695 Y49.761871 Z-36.270754 R10.000001
G01 X27.830695 Y29.761871 Z-40.000000
G03 X32.169305 Y10.238129 Z-41.270754 R10.000001
G01 X122.169305 Y30.238129 Z-45.000000
G03 X117.830695 Y49.761871 Z-46.270754 R10.000001
G01 X27.830695 Y29.761871 Z-50.000000
G03 X32.169305 Y10.238129 Z-50.000000 R10.000001
G01 X122.169305 Y30.238129 
G03 X117.830695 Y49.761871 Z-50.000000 R10.000001
G01 X27.830695 Y29.761871 
(rapid to: no name)
G00 Z20
G00 X32.169305 Y10.238129
G00 Z0.000000
(no name)
G02 X27.830695 Y29.761871 Z-1.270754 R10.000000
G01 X117.830695 Y49.761871 Z-5.000000
G02 X122.169305 Y30.238129 Z-6.270754 R10.000001
G01 X32.169305 Y10.238129 Z-10.000000
G02 X27.830695 Y29.761871 Z-11.270754 R10.000001
G01 X117.830695 Y49.761871 Z-15.000000
G02 X122.169305 Y30.238129 Z-16.270754 R10.000001
G01 X32.169305 Y10.238129 Z-20.000000
G02 X27.830695 Y29.761871 Z-21.270754 R10.000001
G01 X117.830695 Y49.761871 Z-25.000000
G02 X122.169305 Y30.238129 Z-26.270754 R10.000001
G01 X32.169305 Y10.238129 Z-30.000000
G02 X27.830695 Y29.761871 Z-31.270754 R10.000001
G01 X117.830695 Y49.761871 Z-35.000000
G02 X122.169305 Y30.238129 Z-36.270754 R10.000001
G01 X32.169305 Y10.238129 Z-40.000000
G02 X27.830695 Y29.761871 Z-41.270754 R10.000001
G01 X117.830695 Y49.761871 Z-45.000000
G02 X122.169305 Y30.238129 Z-46.270754 R10.000001
G01 X32.169305 Y10.238129 Z-50.000000
G02 X27.830695 Y29.761871 Z-50.000000 R10.000001
G01 X117.830695 Y49.761871 
G02 X122.169305 Y30.238129 Z-50.000000 R10.000001
G01 X32.169305 Y10.238129 
(rapid to: no name)
G00 Z20
G00 X-67.071068 Y12.928932
G00 Z0.000000
(no name)
G03 X-52.928932 Y27.071068 Z-2.631141 R10.000000
G01 X-72.928932 Y47.071068 Z-5.000000
G03 X-87.071068 Y32.928932 Z-7.631141 R10.000001
G01 X-67.071068 Y12.928932 Z-10.000000
G03 X-52.928932 Y27.071068 Z-12.631141 R10.000001
G01 X-72.928932 Y47.071068 Z-15.000000
G03 X-87.071068 Y32.928932 Z-17.631141 R10.000001
G01 X-67.071068 Y12.928932 Z-20.000000
G03 X-52.928932 Y27.071068 Z-22.631141 R10.000001
G01 X-72.928932 Y47.071068 Z-25.000000
G03 X-87.071068 Y32.928932 Z-27.631141 R10.000001
G01 X-67.071068 Y12.928932 Z-30.000000
G03 X-52.928932 Y27.071068 Z-32.631141 R10.000001
G01 X-72.928932 Y47.071068 Z-35.000000
G03 X-87.071068 Y32.928932 Z-37.631141 R10.000001
G01 X-67.071068 Y12.928932 Z-40.000000
G03 X-52.928932 Y27.071068 Z-42.631141 R10.000001
G01 X-72.928932 Y47.071068 Z-45.000000
G03 X-87.071068 Y32.928932 Z-47.631141 R10.000001
G01 X-67.071068 Y12.928932 Z-50.000000
G03 X-52.928932 Y27.071068 Z-50.000000 R10.000001
G01 X-72.928932 Y47.071068 
G03 X-87.071068 Y32.928932 Z-50.000000 R10.000001
G01 X-67.071068 Y12.928932 
(rapid to: no name)
G00 Z20
G00 X-24.472136 Y-11.055728
G00 Z0.000000
(no name)
G02 X-15.527864 Y-28.944272 Z-0.206311 R10.000000
G01 X-55.527864 Y-48.944272 Z-0.500000
G02 X-64.472136 Y-31.055728 Z-0.706311 R10.000000
G01 X-24.472136 Y-11.055728 Z-1.000000
G02 X-15.527864 Y-28.944272 Z-1.206311 R10.000000
G01 X-55.527864 Y-48.944272 Z-1.500000
G02 X-64.472136 Y-31.055728 Z-1.706311 R10.000000
G01 X-24.472136 Y-11.055728 Z-2.000000
G02 X-15.527864 Y-28.944272 Z-2.206311 R10.000000
G01 X-55.527864 Y-48.944272 Z-2.500000
G02 X-64.472136 Y-31.055728 Z-2.706311 R10.000000
G01 X-24.472136 Y-11.055728 Z-3.000000
G02 X-15.527864 Y-28.944272 Z-3.206311 R10.000000
G01 X-55.527864 Y-48.944272 Z-3.500000
G02 X-64.472136 Y-31.055728 Z-3.706311 R10.000000
G01 X-24.472136 Y-11.055728 Z-4.000000
G02 X-15.527864 Y-28.944272 Z-4.206311 R10.000000
G01 X-55.527864 Y-48.944272 Z-4.500000
G02 X-64.472136 Y-31.055728 Z-4.706311 R10.000000
G01 X-24.472136 Y-11.055728 Z-5.000000
G02 X-15.527864 Y-28.944272 Z-5.206311 R10.000000
G01 X-55.527864 Y-48.944272 Z-5.500000
G02 X-64.472136 Y-31.055728 Z-5.706311 R10.000000
G01 X-24.472136 Y-11.055728 Z-6.000000
G02 X-15.527864 Y-28.944272 Z-6.206311 R10.000000
G01 X-55.527864 Y-48.944272 Z-6.500000
G02 X-64.472136 Y-31.055728 Z-6.706311 R10.000000
G01 X-24.472136 Y-11.055728 Z-7.000000
G02 X-15.527864 Y-28.944272 Z-7.206311 R10.000000
G01 X-55.527864 Y-48.944272 Z-7.500000
G02 X-64.472136 Y-31.055728 Z-7.706311 R10.000000
G01 X-24.472136 Y-11.055728 Z-8.000000
G02 X-15.527864 Y-28.944272 Z-8.206311 R10.000000
G01 X-55.527864 Y-48.944272 Z-8.500000
G02 X-64.472136 Y-31.055728 Z-8.706311 R10.000000
G01 X-24.472136 Y-11.055728 Z-9.000000
G02 X-15.527864 Y-28.944272 Z-9.206311 R10.000000
G01 X-55.527864 Y-48.944272 Z-9.500000
G02 X-64.472136 Y-31.055728 Z-9.706311 R10.000000
G01 X-24.472136 Y-11.055728 Z-10.000000
G02 X-15.527864 Y-28.944272 Z-10.206311 R10.000000
G01 X-55.527864 Y-48.944272 Z-10.500000
G02 X-64.472136 Y-31.055728 Z-10.706311 R10.000000
G01 X-24.472136 Y-11.055728 Z-11.000000
G02 X-15.527864 Y-28.944272 Z-11.206311 R10.000000
G01 X-55.527864 Y-48.944272 Z-11.500000
G02 X-64.472136 Y-31.055728 Z-11.706311 R10.000000
G01 X-24.472136 Y-11.055728 Z-12.000000
G02 X-15.527864 Y-28.944272 Z-12.206311 R10.000000
G01 X-55.527864 Y-48.944272 Z-12.500000
G02 X-64.472136 Y-31.055728 Z-12.706311 R10.000000
G01 X-24.472136 Y-11.055728 Z-13.000000
G02 X-15.527864 Y-28.944272 Z-13.206311 R10.000000
G01 X-55.527864 Y-48.944272 Z-13.500000
G02 X-64.472136 Y-31.055728 Z-13.706311 R10.000000
G01 X-24.472136 Y-11.055728 Z-14.000000
G02 X-15.527864 Y-28.944272 Z-14.206311 R10.000000
G01 X-55.527864 Y-48.944272 Z-14.500000
G02 X-64.472136 Y-31.055728 Z-14.706311 R10.000000
G01 X-24.472136 Y-11.055728 Z-15.000000
G02 X-15.527864 Y-28.944272 Z-15.206311 R10.000000
G01 X-55.527864 Y-48.944272 Z-15.500000
G02 X-64.472136 Y-31.055728 Z-15.706311 R10.000000
G01 X-24.472136 Y-11.055728 Z-16.000000
G02 X-15.527864 Y-28.944272 Z-16.206311 R10.000000
G01 X-55.527864 Y-48.944272 Z-16.500000
G02 X-64.472136 Y-31.055728 Z-16.706311 R10.000000
G01 X-24.472136 Y-11.055728 Z-17.000000
G02 X-15.527864 Y-28.944272 Z-17.206311 R10.000000
G01 X-55.527864 Y-48.944272 Z-17.500000
G02 X-64.472136 Y-31.055728 Z-17.706311 R10.000000
G01 X-24.472136 Y-11.055728 Z-18.000000
G02 X-15.527864 Y-28.944272 Z-18.206311 R10.000000
G01 X-55.527864 Y-48.944272 Z-18.500000
G02 X-64.472136 Y-31.055728 Z-18.706311 R10.000000
G01 X-24.472136 Y-11.055728 Z-19.000000
G02 X-15.527864 Y-28.944272 Z-19.206311 R10.000000
G01 X-55.527864 Y-48.944272 Z-19.500000
G02 X-64.472136 Y-31.055728 Z-19.706311 R10.000000
G01 X-24.472136 Y-11.055728 Z-20.000000
G02 X-15.527864 Y-28.944272 Z-20.000000 R10.000000
G01 X-55.527864 Y-48.944272 
G02 X-64.472136 Y-31.055728 Z-20.000000 R10.000000
G01 X-24.472136 Y-11.055728 
(rapid to: no name)
G00 Z20
G00 X-15.527864 Y-28.944272
G00 Z0.000000
(no name)
G03 X-24.472136 Y-11.055728 Z-0.206311 R10.000000
G01 X-64.472136 Y-31.055728 Z-0.500000
G03 X-55.527864 Y-48.944272 Z-0.706311 R10.000000
G01 X-15.527864 Y-28.944272 Z-1.000000
G03 X-24.472136 Y-11.055728 Z-1.206311 R10.000000
G01 X-64.472136 Y-31.055728 Z-1.500000
G03 X-55.527864 Y-48.944272 Z-1.706311 R10.000000
G01 X-15.527864 Y-28.944272 Z-2.000000
G03 X-24.472136 Y-11.055728 Z-2.206311 R10.000000
G01 X-64.472136 Y-31.055728 Z-2.500000
G03 X-55.527864 Y-48.944272 Z-2.706311 R10.000000
G01 X-15.527864 Y-28.944272 Z-3.000000
G03 X-24.472136 Y-11.055728 Z-3.206311 R10.000000
G01 X-64.472136 Y-31.055728 Z-3.500000
G03 X-55.527864 Y-48.944272 Z-3.706311 R10.000000
G01 X-15.527864 Y-28.944272 Z-4.000000
G03 X-24.472136 Y-11.055728 Z-4.206311 R10.000000
G01 X-64.472136 Y-31.055728 Z-4.500000
G03 X-55.527864 Y-48.944272 Z-4.706311 R10.000000
G01 X-15.527864 Y-28.944272 Z-5.000000
G03 X-24.472136 Y-11.055728 Z-5.206311 R10.000000
G01 X-64.472136 Y-31.055728 Z-5.500000
G03 X-55.527864 Y-48.944272 Z-5.706311 R10.000000
G01 X-15.527864 Y-28.944272 Z-6.000000
G03 X-24.472136 Y-11.055728 Z-6.206311 R10.000000
G01 X-64.472136 Y-31.055728 Z-6.500000
G03 X-55.527864 Y-48.944272 Z-6.706311 R10.000000
G01 X-15.527864 Y-28.944272 Z-7.000000
G03 X-24.472136 Y-11.055728 Z-7.206311 R10.000000
G01 X-64.472136 Y-31.055728 Z-7.500000
G03 X-55.527864 Y-48.944272 Z-7.706311 R10.000000
G01 X-15.527864 Y-28.944272 Z-8.000000
G03 X-24.472136 Y-11.055728 Z-8.206311 R10.000000
G01 X-64.472136 Y-31.055728 Z-8.500000
G03 X-55.527864 Y-48.944272 Z-8.706311 R10.000000
G01 X-15.527864 Y-28.944272 Z-9.000000
G03 X-24.472136 Y-11.055728 Z-9.206311 R10.000000
G01 X-64.472136 Y-31.055728 Z-9.500000
G03 X-55.527864 Y-48.944272 Z-9.706311 R10.000000
G01 X-15.527864 Y-28.944272 Z-10.000000
G03 X-24.472136 Y-11.055728 Z-10.206311 R10.000000
G01 X-64.472136 Y-31.055728 Z-10.500000
G03 X-55.527864 Y-48.944272 Z-10.706311 R10.000000
G01 X-15.527864 Y-28.944272 Z-11.000000
G03 X-24.472136 Y-11.055728 Z-11.206311 R10.000000
G01 X-64.472136 Y-31.055728 Z-11.500000
G03 X-55.527864 Y-48.944272 Z-11.706311 R10.000000
G01 X-15.527864 Y-28.944272 Z-12.000000
G03 X-24.472136 Y-11.055728 Z-12.206311 R10.000000
G01 X-64.472136 Y-31.055728 Z-12.500000
G03 X-55.527864 Y-48.944272 Z-12.706311 R10.000000
G01 X-15.527864 Y-28.944272 Z-13.000000
G03 X-24.472136 Y-11.055728 Z-13.206311 R10.000000
G01 X-64.472136 Y-31.055728 Z-13.500000
G03 X-55.527864 Y-48.944272 Z-13.706311 R10.000000
G01 X-15.527864 Y-28.944272 Z-14.000000
G03 X-24.472136 Y-11.055728 Z-14.206311 R10.000000
G01 X-64.472136 Y-31.055728 Z-14.500000
G03 X-55.527864 Y-48.944272 Z-14.706311 R10.000000
G01 X-15.527864 Y-28.944272 Z-15.000000
G03 X-24.472136 Y-11.055728 Z-15.206311 R10.000000
G01 X-64.472136 Y-31.055728 Z-15.500000
G03 X-55.527864 Y-48.944272 Z-15.706311 R10.000000
G01 X-15.527864 Y-28.944272 Z-16.000000
G03 X-24.472136 Y-11.055728 Z-16.206311 R10.000000
G01 X-64.472136 Y-31.055728 Z-16.500000
G03 X-55.527864 Y-48.944272 Z-16.706311 R10.000000
G01 X-15.527864 Y-28.944272 Z-17.000000
G03 X-24.472136 Y-11.055728 Z-17.206311 R10.000000
G01 X-64.472136 Y-31.055728 Z-17.500000
G03 X-55.527864 Y-48.944272 Z-17.706311 R10.000000
G01 X-15.527864 Y-28.944272 Z-18.000000
G03 X-24.472136 Y-11.055728 Z-18.206311 R10.000000
G01 X-64.472136 Y-31.055728 Z-18.500000
G03 X-55.527864 Y-48.944272 Z-18.706311 R10.000000
G01 X-15.527864 Y-28.944272 Z-19.000000
G03 X-24.472136 Y-11.055728 Z-19.206311 R10.000000
G01 X-64.472136 Y-31.055728 Z-19.500000
G03 X-55.527864 Y-48.944272 Z-19.706311 R10.000000
G01 X-15.527864 Y-28.944272 Z-20.000000
G03 X-24.472136 Y-11.055728 Z-20.000000 R10.000000
G01 X-64.472136 Y-31.055728 
G03 X-55.527864 Y-48.944272 Z-20.000000 R10.000000
G01 X-15.527864 Y-28.944272 
(END)
G00 Z20

M02
