G21       (units are millimeters)
G94       (feedrate in 'units' per minute)
G17       (working in/on xy-plane)
G64 P0.05 (LinuxCNC, continuous mode with 'p' as tolerance)

G54       (use first WCS)

(DEBUG,CHECK WCS NOW!)
M0        (pause and display message)
G4 P1     (wait for 1 second)

T1 M6     (select first tool)
S8000 M03
G04 P3    (wait for 3 seconds)

G43 H1    (set tool offset)

(DEBUG,CHECK TOOL OFFSET NOW!)
M0        (pause and display message)
G4 P1     (wait for 1 second)

F900

(rapid to: no name)
G00 Z20
G00 X10.000000 Y30.000000
G00 Z0.000000
(no name)
G01  Y50.000000 
  X50.000000  
   Y30.000000 
  X10.000000  
  X10.570000 Y30.030000 
  X11.080000 Y30.120000 
  X11.530000 Y30.270000 
  X11.920000 Y30.480000 
  X12.250000 Y30.750000 
  X12.520000 Y31.080000 
  X12.730000 Y31.470000 
  X12.880000 Y31.920000 
  X12.970000 Y32.430000 
  X13.000000 Y33.000000 
   Y47.000000 
  X47.000000  
   Y33.000000 
  X13.000000  
  X13.570000 Y33.020000 
  X14.080000 Y33.080000 
  X14.530000 Y33.180000 
  X14.920000 Y33.320000 
  X15.250000 Y33.500000 
  X15.520000 Y33.720000 
  X15.730000 Y33.980000 
  X15.880000 Y34.280000 
  X15.970000 Y34.620000 
  X16.000000 Y35.000000 
   Y45.000000 
  X44.000000  
   Y35.000000 
  X16.000000  
  X16.570000 Y35.000000 
  X17.080000  
  X17.530000 Y35.000000 
  X17.920000  
  X18.250000  
  X18.520000  
  X18.730000  
  X18.880000  
  X18.970000  
  X19.000000  
   Y45.000000 
  X41.000000  
   Y35.000000 
  X19.000000  
  X19.190000 Y35.000000 
  X19.360000  
  X19.510000 Y35.000000 
  X19.640000  
  X19.750000  
  X19.840000  
  X19.910000  
  X19.960000  
  X19.990000  
  X20.000000  
   Y45.000000 
  X40.000000  
   Y35.000000 
  X20.000000  
(rapid to: no name)
G00 Z20
G00 X20.000000 Y-20.000000
G00 Z0.000000
(no name)
G01  Y20.000000 
  X40.000000  
   Y-20.000000 
  X20.000000  
  X20.570000 Y-19.970000 
  X21.080000 Y-19.880000 
  X21.530000 Y-19.730000 
  X21.920000 Y-19.520000 
  X22.250000 Y-19.250000 
  X22.520000 Y-18.920000 
  X22.730000 Y-18.530000 
  X22.880000 Y-18.080000 
  X22.970000 Y-17.570000 
  X23.000000 Y-17.000000 
   Y17.000000 
  X37.000000  
   Y-17.000000 
  X23.000000  
  X23.570000 Y-16.970000 
  X24.080000 Y-16.880000 
  X24.530000 Y-16.730000 
  X24.920000 Y-16.520000 
  X25.250000 Y-16.250000 
  X25.520000 Y-15.920000 
  X25.730000 Y-15.530000 
  X25.880000 Y-15.080000 
  X25.970000 Y-14.570000 
  X26.000000 Y-14.000000 
   Y14.000000 
  X34.000000  
   Y-14.000000 
  X26.000000  
  X26.380000 Y-13.980000 
  X26.720000 Y-13.920000 
  X27.020000 Y-13.820000 
  X27.280000 Y-13.680000 
  X27.500000 Y-13.500000 
  X27.680000 Y-13.280000 
  X27.820000 Y-13.020000 
  X27.920000 Y-12.720000 
  X27.980000 Y-12.380000 
  X28.000000 Y-12.000000 
   Y12.000000 
  X32.000000  
   Y-12.000000 
  X28.000000  
(rapid to: no name)
G00 Z20
G00 X20.000000 Y-70.000000
G00 Z0.000000
(no name)
G01  Y-30.000000 
  X40.000000  
   Y-70.000000 
  X20.000000  
  X20.570000 Y-69.970000 
  X21.080000 Y-69.880000 
  X21.530000 Y-69.730000 
  X21.920000 Y-69.520000 
  X22.250000 Y-69.250000 
  X22.520000 Y-68.920000 
  X22.730000 Y-68.530000 
  X22.880000 Y-68.080000 
  X22.970000 Y-67.570000 
  X23.000000 Y-67.000000 
   Y-33.000000 
  X37.000000  
   Y-67.000000 
  X23.000000  
  X23.380000 Y-66.970000 
  X23.720000 Y-66.880000 
  X24.020000 Y-66.730000 
  X24.280000 Y-66.520000 
  X24.500000 Y-66.250000 
  X24.680000 Y-65.920000 
  X24.820000 Y-65.530000 
  X24.920000 Y-65.080000 
  X24.980000 Y-64.570000 
  X25.000000 Y-64.000000 
   Y-36.000000 
  X35.000000  
   Y-64.000000 
  X25.000000  
   Y-63.970000 
  X25.000000 Y-63.880000 
  X25.000000 Y-63.730000 
   Y-63.520000 
   Y-63.250000 
   Y-62.920000 
   Y-62.530000 
   Y-62.080000 
   Y-61.570000 
   Y-61.000000 
   Y-39.000000 
  X35.000000  
   Y-61.000000 
  X25.000000  
   Y-60.990000 
  X25.000000 Y-60.960000 
  X25.000000 Y-60.910000 
   Y-60.840000 
   Y-60.750000 
   Y-60.640000 
   Y-60.510000 
   Y-60.360000 
   Y-60.190000 
   Y-60.000000 
   Y-40.000000 
  X35.000000  
   Y-60.000000 
  X25.000000  
(rapid to: no name)
G00 Z20
G00 X60.000000 Y30.000000
G00 Z0.000000
(no name)
G01 X100.000000  
   Y50.000000 
  X60.000000  
   Y30.000000 
  X60.030000 Y30.570000 
  X60.120000 Y31.080000 
  X60.270000 Y31.530000 
  X60.480000 Y31.920000 
  X60.750000 Y32.250000 
  X61.080000 Y32.520000 
  X61.470000 Y32.730000 
  X61.920000 Y32.880000 
  X62.430000 Y32.970000 
  X63.000000 Y33.000000 
  X97.000000  
   Y47.000000 
  X63.000000  
   Y33.000000 
  X63.030000 Y33.380000 
  X63.120000 Y33.720000 
  X63.270000 Y34.020000 
  X63.480000 Y34.280000 
  X63.750000 Y34.500000 
  X64.080000 Y34.680000 
  X64.470000 Y34.820000 
  X64.920000 Y34.920000 
  X65.430000 Y34.980000 
  X66.000000 Y35.000000 
  X94.000000  
   Y45.000000 
  X66.000000  
   Y35.000000 
  X66.030000 Y35.000000 
  X66.120000  
  X66.270000 Y35.000000 
  X66.480000  
  X66.750000  
  X67.080000  
  X67.470000  
  X67.920000  
  X68.430000  
  X69.000000  
  X91.000000  
   Y45.000000 
  X69.000000  
   Y35.000000 
  X69.010000 Y35.000000 
  X69.040000  
  X69.090000 Y35.000000 
  X69.160000  
  X69.250000  
  X69.360000  
  X69.490000  
  X69.640000  
  X69.810000  
  X70.000000  
  X90.000000  
   Y45.000000 
  X70.000000  
   Y35.000000 
(rapid to: no name)
G00 Z20
G00 X70.000000 Y-20.000000
G00 Z0.000000
(no name)
G01 X90.000000  
   Y20.000000 
  X70.000000  
   Y-20.000000 
  X70.030000 Y-19.430000 
  X70.120000 Y-18.920000 
  X70.270000 Y-18.470000 
  X70.480000 Y-18.080000 
  X70.750000 Y-17.750000 
  X71.080000 Y-17.480000 
  X71.470000 Y-17.270000 
  X71.920000 Y-17.120000 
  X72.430000 Y-17.030000 
  X73.000000 Y-17.000000 
  X87.000000  
   Y17.000000 
  X73.000000  
   Y-17.000000 
  X73.030000 Y-16.430000 
  X73.120000 Y-15.920000 
  X73.270000 Y-15.470000 
  X73.480000 Y-15.080000 
  X73.750000 Y-14.750000 
  X74.080000 Y-14.480000 
  X74.470000 Y-14.270000 
  X74.920000 Y-14.120000 
  X75.430000 Y-14.030000 
  X76.000000 Y-14.000000 
  X84.000000  
   Y14.000000 
  X76.000000  
   Y-14.000000 
  X76.020000 Y-13.620000 
  X76.080000 Y-13.280000 
  X76.180000 Y-12.980000 
  X76.320000 Y-12.720000 
  X76.500000 Y-12.500000 
  X76.720000 Y-12.320000 
  X76.980000 Y-12.180000 
  X77.280000 Y-12.080000 
  X77.620000 Y-12.020000 
  X78.000000 Y-12.000000 
  X82.000000  
   Y12.000000 
  X78.000000  
   Y-12.000000 
(rapid to: no name)
G00 Z20
G00 X70.000000 Y-70.000000
G00 Z0.000000
(no name)
G01 X90.000000  
   Y-30.000000 
  X70.000000  
   Y-70.000000 
  X70.030000 Y-69.430000 
  X70.120000 Y-68.920000 
  X70.270000 Y-68.470000 
  X70.480000 Y-68.080000 
  X70.750000 Y-67.750000 
  X71.080000 Y-67.480000 
  X71.470000 Y-67.270000 
  X71.920000 Y-67.120000 
  X72.430000 Y-67.030000 
  X73.000000 Y-67.000000 
  X87.000000  
   Y-33.000000 
  X73.000000  
   Y-67.000000 
  X73.020000 Y-66.430000 
  X73.080000 Y-65.920000 
  X73.180000 Y-65.470000 
  X73.320000 Y-65.080000 
  X73.500000 Y-64.750000 
  X73.720000 Y-64.480000 
  X73.980000 Y-64.270000 
  X74.280000 Y-64.120000 
  X74.620000 Y-64.030000 
  X75.000000 Y-64.000000 
  X85.000000  
   Y-36.000000 
  X75.000000  
   Y-64.000000 
  X75.000000 Y-63.430000 
   Y-62.920000 
  X75.000000 Y-62.470000 
   Y-62.080000 
   Y-61.750000 
   Y-61.480000 
   Y-61.270000 
   Y-61.120000 
   Y-61.030000 
   Y-61.000000 
  X85.000000  
   Y-39.000000 
  X75.000000  
   Y-61.000000 
  X75.000000 Y-60.810000 
   Y-60.640000 
  X75.000000 Y-60.490000 
   Y-60.360000 
   Y-60.250000 
   Y-60.160000 
   Y-60.090000 
   Y-60.040000 
   Y-60.010000 
   Y-60.000000 
  X85.000000  
   Y-40.000000 
  X75.000000  
   Y-60.000000 
(rapid to: no name)
G00 Z20
G00 X-10.000000 Y30.000000
G00 Z0.000000
(no name)
G01 X-50.000000  
   Y50.000000 
  X-10.000000  
   Y30.000000 
  X-10.030000 Y29.430000 
  X-10.120000 Y28.920000 
  X-10.270000 Y28.470000 
  X-10.480000 Y28.080000 
  X-10.750000 Y27.750000 
  X-11.080000 Y27.480000 
  X-11.470000 Y27.270000 
  X-11.920000 Y27.120000 
  X-12.430000 Y27.030000 
  X-13.000000 Y27.000000 
  X-47.000000  
   Y53.000000 
  X-13.000000  
   Y27.000000 
  X-13.030000 Y26.620000 
  X-13.120000 Y26.280000 
  X-13.270000 Y25.980000 
  X-13.480000 Y25.720000 
  X-13.750000 Y25.500000 
  X-14.080000 Y25.320000 
  X-14.470000 Y25.180000 
  X-14.920000 Y25.080000 
  X-15.430000 Y25.020000 
  X-16.000000 Y25.000000 
  X-44.000000  
   Y55.000000 
  X-16.000000  
   Y25.000000 
  X-16.030000  
  X-16.120000 Y25.000000 
  X-16.270000 Y25.000000 
  X-16.480000  
  X-16.750000  
  X-17.080000  
  X-17.470000  
  X-17.920000  
  X-18.430000  
  X-19.000000  
  X-41.000000  
   Y55.000000 
  X-19.000000  
   Y25.000000 
  X-19.010000  
  X-19.040000 Y25.000000 
  X-19.090000 Y25.000000 
  X-19.160000  
  X-19.250000  
  X-19.360000  
  X-19.490000  
  X-19.640000  
  X-19.810000  
  X-20.000000  
  X-40.000000  
   Y55.000000 
  X-20.000000  
   Y25.000000 
(rapid to: no name)
G00 Z20
G00 X-20.000000 Y-20.000000
G00 Z0.000000
(no name)
G01 X-40.000000  
   Y20.000000 
  X-20.000000  
   Y-20.000000 
  X-19.970000 Y-19.430000 
  X-19.880000 Y-18.920000 
  X-19.730000 Y-18.470000 
  X-19.520000 Y-18.080000 
  X-19.250000 Y-17.750000 
  X-18.920000 Y-17.480000 
  X-18.530000 Y-17.270000 
  X-18.080000 Y-17.120000 
  X-17.570000 Y-17.030000 
  X-17.000000 Y-17.000000 
  X-43.000000  
   Y17.000000 
  X-17.000000  
   Y-17.000000 
  X-16.970000 Y-16.430000 
  X-16.880000 Y-15.920000 
  X-16.730000 Y-15.470000 
  X-16.520000 Y-15.080000 
  X-16.250000 Y-14.750000 
  X-15.920000 Y-14.480000 
  X-15.530000 Y-14.270000 
  X-15.080000 Y-14.120000 
  X-14.570000 Y-14.030000 
  X-14.000000 Y-14.000000 
  X-46.000000  
   Y14.000000 
  X-14.000000  
   Y-14.000000 
  X-13.980000 Y-13.620000 
  X-13.920000 Y-13.280000 
  X-13.820000 Y-12.980000 
  X-13.680000 Y-12.720000 
  X-13.500000 Y-12.500000 
  X-13.280000 Y-12.320000 
  X-13.020000 Y-12.180000 
  X-12.720000 Y-12.080000 
  X-12.380000 Y-12.020000 
  X-12.000000 Y-12.000000 
  X-48.000000  
   Y12.000000 
  X-12.000000  
   Y-12.000000 
(rapid to: no name)
G00 Z20
G00 X-20.000000 Y-70.000000
G00 Z0.000000
(no name)
G01 X-40.000000  
   Y-30.000000 
  X-20.000000  
   Y-70.000000 
  X-19.970000 Y-69.430000 
  X-19.880000 Y-68.920000 
  X-19.730000 Y-68.470000 
  X-19.520000 Y-68.080000 
  X-19.250000 Y-67.750000 
  X-18.920000 Y-67.480000 
  X-18.530000 Y-67.270000 
  X-18.080000 Y-67.120000 
  X-17.570000 Y-67.030000 
  X-17.000000 Y-67.000000 
  X-43.000000  
   Y-33.000000 
  X-17.000000  
   Y-67.000000 
  X-16.980000 Y-66.430000 
  X-16.920000 Y-65.920000 
  X-16.820000 Y-65.470000 
  X-16.680000 Y-65.080000 
  X-16.500000 Y-64.750000 
  X-16.280000 Y-64.480000 
  X-16.020000 Y-64.270000 
  X-15.720000 Y-64.120000 
  X-15.380000 Y-64.030000 
  X-15.000000 Y-64.000000 
  X-45.000000  
   Y-36.000000 
  X-15.000000  
   Y-64.000000 
  X-15.000000 Y-63.430000 
   Y-62.920000 
  X-15.000000 Y-62.470000 
   Y-62.080000 
  X-15.000000 Y-61.750000 
   Y-61.480000 
   Y-61.270000 
   Y-61.120000 
   Y-61.030000 
   Y-61.000000 
  X-45.000000  
   Y-39.000000 
  X-15.000000  
   Y-61.000000 
  X-15.000000 Y-60.810000 
   Y-60.640000 
  X-15.000000 Y-60.490000 
   Y-60.360000 
  X-15.000000 Y-60.250000 
   Y-60.160000 
   Y-60.090000 
   Y-60.040000 
   Y-60.010000 
   Y-60.000000 
  X-45.000000  
   Y-40.000000 
  X-15.000000  
   Y-60.000000 
(rapid to: no name)
G00 Z20
G00 X55.000000 Y-90.000000
G00 Z0.000000
(no name)
G01  Y-50.000000 
   Y-90.000000 
  X55.570000 Y-89.970000 
  X56.080000 Y-89.880000 
  X56.530000 Y-89.730000 
  X56.920000 Y-89.520000 
  X57.250000 Y-89.250000 
  X57.520000 Y-88.920000 
  X57.730000 Y-88.530000 
  X57.880000 Y-88.080000 
  X57.970000 Y-87.570000 
  X58.000000 Y-87.000000 
   Y-53.000000 
  X52.000000  
   Y-87.000000 
  X58.000000  
  X58.380000 Y-86.970000 
  X58.720000 Y-86.880000 
  X59.020000 Y-86.730000 
  X59.280000 Y-86.520000 
  X59.500000 Y-86.250000 
  X59.680000 Y-85.920000 
  X59.820000 Y-85.530000 
  X59.920000 Y-85.080000 
  X59.980000 Y-84.570000 
  X60.000000 Y-84.000000 
   Y-56.000000 
  X50.000000  
   Y-84.000000 
  X60.000000  
  X60.000000 Y-83.970000 
   Y-83.880000 
  X60.000000 Y-83.730000 
   Y-83.520000 
  X60.000000 Y-83.250000 
   Y-82.920000 
   Y-82.530000 
   Y-82.080000 
   Y-81.570000 
   Y-81.000000 
   Y-59.000000 
  X50.000000  
   Y-81.000000 
  X60.000000  
  X60.000000 Y-80.990000 
   Y-80.960000 
  X60.000000 Y-80.910000 
   Y-80.840000 
  X60.000000 Y-80.750000 
   Y-80.640000 
   Y-80.510000 
   Y-80.360000 
   Y-80.190000 
   Y-80.000000 
   Y-60.000000 
  X50.000000  
   Y-80.000000 
  X60.000000  
(END)
G00 Z20

M02
