G21 (units are millimeters)
G94 (feedrate in 'units' per minute)
G64P0.05 (LinuxCNC, continuous mode with 'p' as tolerance)
G17 (working in/on xy-plane)
T1M06
G00X0Y0 S6000 M03
F900
(rapid to: )
G00 Z10
G00 X-90.000000 Y0.000000
G00 Z0.000000
()
G01   Z-2.000000
  X-80.000000 Y10.000000 
  X-50.000000 Y0.000000 
    Z-4.000000
  X-80.000000 Y10.000000 
  X-90.000000 Y0.000000 
    Z-6.000000
  X-80.000000 Y10.000000 
  X-50.000000 Y0.000000 
    Z-8.000000
  X-80.000000 Y10.000000 
  X-90.000000 Y0.000000 
    Z-10.000000
  X-80.000000 Y10.000000 
  X-50.000000 Y0.000000 
(rapid to: )
G00 Z10
G00 X-30.000000 Y0.000000
G00 Z0.000000
()
G01 X-10.000000 Y10.000000 Z-4.000000
  X-30.000000 Y0.000000 
  X-10.000000 Y10.000000 
  X10.000000 Y-10.000000 
  X30.000000 Y0.000000 
  X10.000000 Y-10.000000 Z-8.000000
  X30.000000 Y0.000000 
  X10.000000 Y-10.000000 
  X-10.000000 Y10.000000 
  X-30.000000 Y0.000000 
  X-10.000000 Y10.000000 Z-10.000000
  X-30.000000 Y0.000000 
  X-10.000000 Y10.000000 
  X10.000000 Y-10.000000 
  X30.000000 Y0.000000 
(rapid to: )
G00 Z10
G00 X40.000000 Y60.000000
G00 Z0.000000
()
G01 X80.000000  Z-5.000000
   Y20.000000 
  X40.000000  
   Y60.000000 
  X80.000000  Z-10.000000
   Y20.000000 
  X40.000000  
   Y60.000000 
  X80.000000  Z-15.000000
   Y20.000000 
  X40.000000  
   Y60.000000 
  X80.000000  
(rapid to: )
G00 Z10
G00 X40.000000 Y0.000000
G00 Z0.000000
()
G01   Z-5.000000
  X80.000000  
   Y-40.000000 
  X40.000000  
   Y0.000000 
    Z-10.000000
  X80.000000  
   Y-40.000000 
  X40.000000  
   Y0.000000 
    Z-15.000000
  X80.000000  
   Y-40.000000 
  X40.000000  
   Y0.000000 
  X80.000000  
(rapid to: )
G00 Z10
G00 X-50.000000 Y-50.000000
G00 Z0.000000
()
G01   Z-5.000000
  X50.000000  
    Z-10.000000
  X-50.000000  
    Z-15.000000
  X50.000000  
    Z-20.000000
  X-50.000000  
(rapid to: )
G00 Z10
G00 X-50.000000 Y-80.000000
G00 Z0.000000
()
G01 X50.000000  Z-2.500000
  X-50.000000  Z-5.000000
  X50.000000  Z-7.500000
  X-50.000000  Z-10.000000
  X50.000000  Z-12.500000
  X-50.000000  Z-15.000000
  X50.000000  Z-17.500000
  X-50.000000  Z-20.000000
  X50.000000  
