G21       (units are millimeters)
G94       (feedrate in 'units' per minute)
G17       (working in/on xy-plane)
G64 P0.05 (LinuxCNC, continuous mode with 'p' as tolerance)

G54       (use first WCS)

(DEBUG,CHECK WCS NOW!)
M0        (pause and display message)
G4 P1     (wait for 1 second)

T1 M6     (select first tool)
S8000 M03
G04 P3    (wait for 3 seconds)

G43 H1    (set tool offset)

(DEBUG,CHECK TOOL OFFSET NOW!)
M0        (pause and display message)
G4 P1     (wait for 1 second)

F900

(rapid to: no name)
G00 Z20
G00 X21.819017 Y12.723931
G00 Z0.000000
(no name)
G02 X18.180983 Y27.276069 Z0.000000 R7.500000
G01 X58.180983 Y37.276069 
G02 X61.819017 Y22.723931 Z0.000000 R7.500000
G01 X21.819017 Y12.723931 
G03 X21.879651 Y12.481396 Z0.000000 R0.125000
G02 X21.940285 Y12.238860 Z0.000000 R0.125000
  X18.059715 Y27.761140 Z0.000000 R8.000000
G01 X58.059715 Y37.761140 
G02 X61.940285 Y22.238860 Z0.000000 R8.000000
G01 X21.940285 Y12.238860 
G03 X22.000919 Y11.996324 Z0.000000 R0.125000
G02 X22.061553 Y11.753789 Z0.000000 R0.125000
  X17.938447 Y28.246211 Z0.000000 R8.500000
G01 X57.938447 Y38.246211 
G02 X62.061553 Y21.753789 Z0.000000 R8.500000
G01 X22.061553 Y11.753789 
G03 X22.122187 Y11.511253 Z0.000000 R0.125000
G02 X22.182821 Y11.268717 Z0.000000 R0.125000
  X17.817179 Y28.731283 Z0.000000 R9.000001
G01 X57.817179 Y38.731283 
G02 X62.182821 Y21.268717 Z0.000000 R9.000001
G01 X22.182821 Y11.268717 
G03 X22.243455 Y11.026182 Z0.000000 R0.125000
G02 X22.304088 Y10.783646 Z0.000000 R0.125000
  X17.695912 Y29.216354 Z0.000000 R9.500000
G01 X57.695912 Y39.216354 
G02 X62.304088 Y20.783646 Z0.000000 R9.500000
G01 X22.304088 Y10.783646 
G03 X22.364722 Y10.541111 Z0.000000 R0.125000
G02 X22.425356 Y10.298575 Z0.000000 R0.125000
  X17.574644 Y29.701425 Z0.000000 R10.000000
G01 X57.574644 Y39.701425 
G02 X62.425356 Y20.298575 Z0.000000 R10.000000
G01 X22.425356 Y10.298575 
G03 X22.485990 Y10.056039 Z0.000000 R0.125000
G02 X22.546624 Y9.813504 Z0.000000 R0.125000
  X17.453376 Y30.186496 Z0.000000 R10.500000
G01 X57.453376 Y40.186496 
G02 X62.546624 Y19.813504 Z0.000000 R10.500000
G01 X22.546624 Y9.813504 
G03 X22.607258 Y9.570968 Z0.000000 R0.125000
G02 X22.667892 Y9.328432 Z0.000000 R0.125000
  X17.332108 Y30.671568 Z0.000000 R11.000001
G01 X57.332108 Y40.671568 
G02 X62.667892 Y19.328432 Z0.000000 R11.000001
G01 X22.667892 Y9.328432 
G03 X22.728526 Y9.085897 Z0.000000 R0.125000
G02 X22.789160 Y8.843361 Z0.000000 R0.125000
  X17.210840 Y31.156639 Z0.000000 R11.500001
G01 X57.210840 Y41.156639 
G02 X62.789160 Y18.843361 Z0.000000 R11.500001
G01 X22.789160 Y8.843361 
G03 X22.849794 Y8.600826 Z0.000000 R0.125000
G02 X22.910428 Y8.358290 Z0.000000 R0.125000
  X17.089572 Y31.641710 Z0.000000 R12.000000
G01 X57.089572 Y41.641710 
G02 X62.910428 Y18.358290 Z0.000000 R12.000000
G01 X22.910428 Y8.358290 
G03 X22.971061 Y8.115754 Z0.000000 R0.125000
G02 X23.031695 Y7.873219 Z0.000000 R0.125000
  X16.968305 Y32.126781 Z0.000000 R12.500000
G01 X56.968305 Y42.126781 
G02 X63.031695 Y17.873219 Z0.000000 R12.500000
G01 X23.031695 Y7.873219 
G03 X23.092329 Y7.630683 Z0.000000 R0.125000
G02 X23.152963 Y7.388147 Z0.000000 R0.125000
  X16.847037 Y32.611853 Z0.000000 R13.000001
G01 X56.847037 Y42.611853 
G02 X63.152963 Y17.388147 Z0.000000 R13.000001
G01 X23.152963 Y7.388147 
G03 X23.213597 Y7.145612 Z0.000000 R0.125000
G02 X23.274231 Y6.903076 Z0.000000 R0.125000
  X16.725769 Y33.096924 Z0.000000 R13.500001
G01 X56.725769 Y43.096924 
G02 X63.274231 Y16.903076 Z0.000000 R13.500001
G01 X23.274231 Y6.903076 
G03 X23.334865 Y6.660541 Z0.000000 R0.125000
G02 X23.395499 Y6.418005 Z0.000000 R0.125000
  X16.604501 Y33.581995 Z0.000000 R14.000000
G01 X56.604501 Y43.581995 
G02 X63.395499 Y16.418005 Z0.000000 R14.000000
G01 X23.395499 Y6.418005 
G03 X23.456133 Y6.175469 Z0.000000 R0.125000
G02 X23.516767 Y5.932934 Z0.000000 R0.125000
  X16.483233 Y34.067066 Z0.000000 R14.500000
G01 X56.483233 Y44.067066 
G02 X63.516767 Y15.932934 Z0.000000 R14.500000
G01 X23.516767 Y5.932934 
(rapid to: no name)
G00 Z20
G00 X21.819017 Y67.276069
G00 Z0.000000
(no name)
G03 X18.180983 Y52.723931 Z0.000000 R7.500000
G01 X58.180983 Y42.723931 
G03 X61.819017 Y57.276069 Z0.000000 R7.500000
G01 X21.819017 Y67.276069 
G02 X21.879651 Y67.518604 Z0.000000 R0.125000
G03 X21.940285 Y67.761140 Z0.000000 R0.125000
  X18.059715 Y52.238860 Z0.000000 R8.000000
G01 X58.059715 Y42.238860 
G03 X61.940285 Y57.761140 Z0.000000 R8.000000
G01 X21.940285 Y67.761140 
G02 X22.000919 Y68.003676 Z0.000000 R0.125000
G03 X22.061553 Y68.246211 Z0.000000 R0.125000
  X17.938447 Y51.753789 Z0.000000 R8.500000
G01 X57.938447 Y41.753789 
G03 X62.061553 Y58.246211 Z0.000000 R8.500000
G01 X22.061553 Y68.246211 
G02 X22.122187 Y68.488747 Z0.000000 R0.125000
G03 X22.182821 Y68.731283 Z0.000000 R0.125000
  X17.817179 Y51.268717 Z0.000000 R9.000001
G01 X57.817179 Y41.268717 
G03 X62.182821 Y58.731283 Z0.000000 R9.000001
G01 X22.182821 Y68.731283 
G02 X22.243455 Y68.973818 Z0.000000 R0.125000
G03 X22.304088 Y69.216354 Z0.000000 R0.125000
  X17.695912 Y50.783646 Z0.000000 R9.500000
G01 X57.695912 Y40.783646 
G03 X62.304088 Y59.216354 Z0.000000 R9.500000
G01 X22.304088 Y69.216354 
G02 X22.364722 Y69.458889 Z0.000000 R0.125000
G03 X22.425356 Y69.701425 Z0.000000 R0.125000
  X17.574644 Y50.298575 Z0.000000 R10.000000
G01 X57.574644 Y40.298575 
G03 X62.425356 Y59.701425 Z0.000000 R10.000000
G01 X22.425356 Y69.701425 
G02 X22.485990 Y69.943961 Z0.000000 R0.125000
G03 X22.546624 Y70.186496 Z0.000000 R0.125000
  X17.453376 Y49.813504 Z0.000000 R10.500000
G01 X57.453376 Y39.813504 
G03 X62.546624 Y60.186496 Z0.000000 R10.500000
G01 X22.546624 Y70.186496 
G02 X22.607258 Y70.429032 Z0.000000 R0.125000
G03 X22.667892 Y70.671568 Z0.000000 R0.125000
  X17.332108 Y49.328432 Z0.000000 R11.000001
G01 X57.332108 Y39.328432 
G03 X62.667892 Y60.671568 Z0.000000 R11.000001
G01 X22.667892 Y70.671568 
G02 X22.728526 Y70.914103 Z0.000000 R0.125000
G03 X22.789160 Y71.156639 Z0.000000 R0.125000
  X17.210840 Y48.843361 Z0.000000 R11.500001
G01 X57.210840 Y38.843361 
G03 X62.789160 Y61.156639 Z0.000000 R11.500001
G01 X22.789160 Y71.156639 
G02 X22.849794 Y71.399174 Z0.000000 R0.125000
G03 X22.910428 Y71.641710 Z0.000000 R0.125000
  X17.089572 Y48.358290 Z0.000000 R12.000000
G01 X57.089572 Y38.358290 
G03 X62.910428 Y61.641710 Z0.000000 R12.000000
G01 X22.910428 Y71.641710 
G02 X22.971061 Y71.884246 Z0.000000 R0.125000
G03 X23.031695 Y72.126781 Z0.000000 R0.125000
  X16.968305 Y47.873219 Z0.000000 R12.500000
G01 X56.968305 Y37.873219 
G03 X63.031695 Y62.126781 Z0.000000 R12.500000
G01 X23.031695 Y72.126781 
G02 X23.092329 Y72.369317 Z0.000000 R0.125000
G03 X23.152963 Y72.611853 Z0.000000 R0.125000
  X16.847037 Y47.388147 Z0.000000 R13.000001
G01 X56.847037 Y37.388147 
G03 X63.152963 Y62.611853 Z0.000000 R13.000001
G01 X23.152963 Y72.611853 
G02 X23.213597 Y72.854388 Z0.000000 R0.125000
G03 X23.274231 Y73.096924 Z0.000000 R0.125000
  X16.725769 Y46.903076 Z0.000000 R13.500001
G01 X56.725769 Y36.903076 
G03 X63.274231 Y63.096924 Z0.000000 R13.500001
G01 X23.274231 Y73.096924 
G02 X23.334865 Y73.339459 Z0.000000 R0.125000
G03 X23.395499 Y73.581995 Z0.000000 R0.125000
  X16.604501 Y46.418005 Z0.000000 R14.000000
G01 X56.604501 Y36.418005 
G03 X63.395499 Y63.581995 Z0.000000 R14.000000
G01 X23.395499 Y73.581995 
G02 X23.456133 Y73.824531 Z0.000000 R0.125000
G03 X23.516767 Y74.067066 Z0.000000 R0.125000
  X16.483233 Y45.932934 Z0.000000 R14.500000
G01 X56.483233 Y35.932934 
G03 X63.516767 Y64.067066 Z0.000000 R14.500000
G01 X23.516767 Y74.067066 
(rapid to: no name)
G00 Z20
G00 X-45.419213 Y82.004094
G00 Z0.000000
(no name)
G03 X-54.580787 Y77.995906 Z0.000000 R5.000000
G01 X15.419213 Y-82.004094 
G03 X24.580787 Y-77.995906 Z0.000000 R5.000000
G01 X-45.419213 Y82.004094 
G02 X-44.655749 Y82.338110 Z0.000000 R0.416667
G03 X-43.892284 Y82.672126 Z0.000000 R0.416667
  X-56.107716 Y77.327874 Z0.000000 R6.666667
G01 X13.892284 Y-82.672126 
G03 X26.107716 Y-77.327874 Z0.000000 R6.666667
G01 X-43.892284 Y82.672126 
G02 X-43.128820 Y83.006141 Z0.000000 R0.416667
G03 X-42.365356 Y83.340157 Z0.000000 R0.416667
  X-57.634644 Y76.659843 Z0.000000 R8.333333
G01 X12.365356 Y-83.340157 
G03 X27.634644 Y-76.659843 Z0.000000 R8.333333
G01 X-42.365356 Y83.340157 
(END)
G00 Z20

M02
