G21       (units are millimeters)
G94       (feedrate in 'units' per minute)
G17       (working in/on xy-plane)
G64 P0.05 (LinuxCNC, continuous mode with 'p' as tolerance)

G54       (use first WCS)

(DEBUG,CHECK WCS NOW!)
M0        (pause and display message)
G4 P1     (wait for 1 second)

T1 M6     (select first tool)
S8000 M03
G04 P3    (wait for 3 seconds)

G43 H1    (set tool offset)

(DEBUG,CHECK TOOL OFFSET NOW!)
M0        (pause and display message)
G4 P1     (wait for 1 second)

F900

(rapid to: no name)
G00 Z20
G00 X0.000000 Y0.000000
G00 Z0.000000
(no name)
G01 X3.568750 Y0.072500 
  X6.800000 Y0.280000 
  X9.731250 Y0.607500 
  X12.400000 Y1.040000 
  X14.843750 Y1.562500 
  X17.100000 Y2.160000 
  X19.206250 Y2.817500 
  X21.200000 Y3.520000 
  X23.118750 Y4.252500 
  X25.000000 Y5.000000 
  X26.881250 Y5.747500 
  X28.800000 Y6.480000 
  X30.793750 Y7.182500 
  X32.900000 Y7.840000 
  X35.156250 Y8.437500 
  X37.600000 Y8.960000 
  X40.268750 Y9.392500 
  X43.200000 Y9.720000 
  X46.431250 Y9.927500 
  X50.000000 Y10.000000 
(rapid to: no name)
G00 Z20
G00 X0.000000 Y0.000000
G00 Z0.000000
(no name)
G01 X7.128750 Y0.215000 
  X13.530000 Y0.820000 
  X19.226250 Y1.755000 
  X24.240000 Y2.960000 
  X28.593750 Y4.375000 
  X32.310000 Y5.940000 
  X35.411250 Y7.595000 
  X37.920000 Y9.280000 
  X39.858750 Y10.935000 
  X41.250000 Y12.500000 
  X42.116250 Y13.915000 
  X42.480000 Y15.120000 
  X42.363750 Y16.055000 
  X41.790000 Y16.660000 
  X40.781250 Y16.875000 
  X39.360000 Y16.640000 
  X37.548750 Y15.895000 
  X35.370000 Y14.580000 
  X32.846250 Y12.635000 
  X30.000000 Y10.000000 
(END)
G00 Z10.0

M02
