G21       (units are millimeters)
G94       (feedrate in 'units' per minute)
G17       (working in/on xy-plane)
G64 P0.05 (LinuxCNC, continuous mode with 'p' as tolerance)

G54       (use first WCS)

(DEBUG,CHECK WCS NOW!)
M0        (pause and display message)
G4 P1     (wait for 1 second)

T1 M6     (select first tool)
S8000 M03
G04 P3    (wait for 3 seconds)

G43 H1    (set tool offset)

(DEBUG,CHECK TOOL OFFSET NOW!)
M0        (pause and display message)
G4 P1     (wait for 1 second)

F900

(rapid to: no name)
G00 Z20
G00 X-3.675445 Y-8.973666
G00 Z10.000000
(no name)
G02 X-16.324555 Y28.973666 Z6.015740 R20.000000
G01 X73.675445 Y58.973666 Z0.000000
G02 X86.324555 Y21.026334 Z-3.984260 R20.000000
G01 X-3.675445 Y-8.973666 Z-10.000000
G02 X-16.324555 Y28.973666 Z-10.000000 R20.000000
G01 X73.675445 Y58.973666 
G02 X86.324555 Y21.026334 Z-10.000000 R20.000000
G01 X-3.675445 Y-8.973666 
G03 X-2.094306 Y-13.717082 Z-10.000000 R2.500000
G02 X-0.513167 Y-18.460499 Z-10.000000 R2.500001
  X-19.486833 Y38.460499 Z-10.000000 R30.000000
G01 X70.513167 Y68.460499 
G02 X89.486833 Y11.539501 Z-10.000000 R30.000000
G01 X-0.513167 Y-18.460499 
G02 X-2.094306 Y-13.717082 Z-7.500000 R2.500001
G03 X-3.675445 Y-8.973666 Z-5.000000 R2.500000
G02 X-16.324555 Y28.973666 Z-8.984260 R20.000000
G01 X73.675445 Y58.973666 Z-15.000000
G02 X86.324555 Y21.026334 Z-18.984260 R20.000000
G01 X-3.675445 Y-8.973666 Z-25.000000
G02 X-16.324555 Y28.973666 Z-25.000000 R20.000000
G01 X73.675445 Y58.973666 
G02 X86.324555 Y21.026334 Z-25.000000 R20.000000
G01 X-3.675445 Y-8.973666 
G03 X-2.094306 Y-13.717082 Z-25.000000 R2.500000
G02 X-0.513167 Y-18.460499 Z-25.000000 R2.500001
  X-19.486833 Y38.460499 Z-25.000000 R30.000000
G01 X70.513167 Y68.460499 
G02 X89.486833 Y11.539501 Z-25.000000 R30.000000
G01 X-0.513167 Y-18.460499 
G02 X-2.094306 Y-13.717082 Z-22.500000 R2.500001
G03 X-3.675445 Y-8.973666 Z-20.000000 R2.500000
G02 X-16.324555 Y28.973666 Z-23.984260 R20.000000
G01 X73.675445 Y58.973666 Z-30.000000
G02 X86.324555 Y21.026334 Z-33.984260 R20.000000
G01 X-3.675445 Y-8.973666 Z-40.000000
G02 X-16.324555 Y28.973666 Z-40.000000 R20.000000
G01 X73.675445 Y58.973666 
G02 X86.324555 Y21.026334 Z-40.000000 R20.000000
G01 X-3.675445 Y-8.973666 
G03 X-2.094306 Y-13.717082 Z-40.000000 R2.500000
G02 X-0.513167 Y-18.460499 Z-40.000000 R2.500001
  X-19.486833 Y38.460499 Z-40.000000 R30.000000
G01 X70.513167 Y68.460499 
G02 X89.486833 Y11.539501 Z-40.000000 R30.000000
G01 X-0.513167 Y-18.460499 
(END)
G00 Z20

M02
