G21       (units are millimeters)
G94       (feedrate in 'units' per minute)
G17       (working in/on xy-plane)
G64 P0.05 (LinuxCNC, continuous mode with 'p' as tolerance)

G54       (use first WCS)

(DEBUG,CHECK WCS NOW!)
M0        (pause and display message)
G4 P1     (wait for 1 second)

T1 M6     (select first tool)
S8000 M03
G04 P3    (wait for 3 seconds)

G43 H1    (set tool offset)

(DEBUG,CHECK TOOL OFFSET NOW!)
M0        (pause and display message)
G4 P1     (wait for 1 second)

F900

(rapid to: no name)
G00 Z5
G00 X14.635919 Y-1.873033
G00 Z0.000000
(no name)
G01 X18.543677 Y-7.492132 
  X16.960962 Y-10.598385 
  X14.240240 Y-2.649596 
  X13.715724 Y-3.345653 
  X14.862897 Y-13.382612 
  X12.313230 Y-15.760215 
  X13.078307 Y-3.940054 
  X12.347358 Y-4.414738 
  X9.389431 Y-17.658952 
  X6.180340 Y-19.021130 
  X11.545085 Y-4.755283 
  X10.695866 Y-4.951340 
  X2.783462 Y-19.805361 
  X-0.697990 Y-19.987817 
  X9.825503 Y-4.996954 
  X8.960442 Y-4.890738 
  X-4.158234 Y-19.562952 
  X-7.492132 Y-18.543677 
  X8.126967 Y-4.635919 
  X7.350404 Y-4.240240 
  X-10.598385 Y-16.960962 
  X-13.382612 Y-14.862897 
  X6.654347 Y-3.715724 
  X6.059946 Y-3.078307 
  X-15.760215 Y-12.313230 
  X-17.658952 Y-9.389431 
  X5.585262 Y-2.347358 
  X5.244717 Y-1.545085 
  X-19.021130 Y-6.180340 
  X-19.805361 Y-2.783462 
  X5.048660 Y-0.695866 
  X5.003046 Y0.174497 
  X-19.987817 Y0.697990 
  X-19.562952 Y4.158234 
  X5.109262 Y1.039558 
(rapid to: no name)
G00 Z5
G00 X-20.000000 Y30.000000
G00 Z0.000000
(no name)
G01 X-15.000000  
  X-15.227884 Y27.395277 
  X-20.151922 Y28.263518 
  X-20.603074 Y26.579799 
  X-15.904611 Y24.869698 
  X-17.009619 Y22.500000 
  X-21.339746 Y25.000000 
  X-22.339556 Y23.572124 
  X-18.509333 Y20.358186 
  X-20.358186 Y18.509333 
  X-23.572124 Y22.339556 
  X-25.000000 Y21.339746 
  X-22.500000 Y17.009619 
  X-24.869698 Y15.904611 
  X-26.579799 Y20.603074 
  X-28.263518 Y20.151922 
  X-27.395277 Y15.227884 
  X-30.000000 Y15.000000 
   Y20.000000 
  X-31.736482 Y20.151922 
  X-32.604723 Y15.227884 
  X-35.130302 Y15.904611 
  X-33.420201 Y20.603074 
  X-35.000000 Y21.339746 
  X-37.500000 Y17.009619 
  X-39.641814 Y18.509333 
  X-36.427876 Y22.339556 
  X-37.660444 Y23.572124 
  X-41.490667 Y20.358186 
  X-42.990381 Y22.500000 
  X-38.660254 Y25.000000 
  X-39.396926 Y26.579799 
  X-44.095389 Y24.869698 
  X-44.772116 Y27.395277 
  X-39.848078 Y28.263518 
  X-40.000000 Y30.000000 
  X-45.000000 Y30.000000 
  X-44.772116 Y32.604723 
  X-39.848078 Y31.736482 
  X-39.396926 Y33.420201 
  X-44.095389 Y35.130302 
  X-42.990381 Y37.500000 
  X-38.660254 Y35.000000 
  X-37.660444 Y36.427876 
  X-41.490667 Y39.641814 
  X-39.641814 Y41.490667 
  X-36.427876 Y37.660444 
  X-35.000000 Y38.660254 
  X-37.500000 Y42.990381 
  X-35.130302 Y44.095389 
  X-33.420201 Y39.396926 
  X-31.736482 Y39.848078 
  X-32.604723 Y44.772116 
  X-30.000000 Y45.000000 
   Y40.000000 
  X-28.263518 Y39.848078 
  X-27.395277 Y44.772116 
  X-24.869698 Y44.095389 
  X-26.579799 Y39.396926 
  X-25.000000 Y38.660254 
  X-22.500000 Y42.990381 
  X-20.358186 Y41.490667 
  X-23.572124 Y37.660444 
  X-22.339556 Y36.427876 
  X-18.509333 Y39.641814 
  X-17.009619 Y37.500000 
  X-21.339746 Y35.000000 
  X-20.603074 Y33.420201 
  X-15.904611 Y35.130302 
  X-15.227884 Y32.604723 
  X-20.151922 Y31.736482 
(rapid to: no name)
G00 Z5
G00 X10.000000 Y30.000000
G00 Z0.000000
(no name)
G01 X15.000000  Z10.000000
  X14.772116 Y27.395277 
  X9.848078 Y28.263518 Z0.000000
  X9.396926 Y26.579799 
  X14.095389 Y24.869698 Z10.000000
  X12.990381 Y22.500000 
  X8.660254 Y25.000000 Z0.000000
  X7.660444 Y23.572124 
  X11.490667 Y20.358186 Z10.000000
  X9.641814 Y18.509333 
  X6.427876 Y22.339556 Z0.000000
  X5.000000 Y21.339746 
  X7.500000 Y17.009619 Z10.000000
  X5.130302 Y15.904611 
  X3.420201 Y20.603074 Z0.000000
  X1.736482 Y20.151922 
  X2.604723 Y15.227884 Z10.000000
  X0.000000 Y15.000000 
  X0.000000 Y20.000000 Z0.000000
  X-1.736482 Y20.151922 
  X-2.604723 Y15.227884 Z10.000000
  X-5.130302 Y15.904611 
  X-3.420201 Y20.603074 Z0.000000
  X-5.000000 Y21.339746 
  X-7.500000 Y17.009619 Z10.000000
  X-9.641814 Y18.509333 
  X-6.427876 Y22.339556 Z0.000000
  X-7.660444 Y23.572124 
  X-11.490667 Y20.358186 Z10.000000
  X-12.990381 Y22.500000 
  X-8.660254 Y25.000000 Z0.000000
  X-9.396926 Y26.579799 
  X-14.095389 Y24.869698 Z10.000000
  X-14.772116 Y27.395277 
  X-9.848078 Y28.263518 Z0.000000
  X-10.000000 Y30.000000 
  X-15.000000 Y30.000000 Z10.000000
  X-14.772116 Y32.604723 
  X-9.848078 Y31.736482 Z0.000000
  X-9.396926 Y33.420201 
  X-14.095389 Y35.130302 Z10.000000
  X-12.990381 Y37.500000 
  X-8.660254 Y35.000000 Z0.000000
  X-7.660444 Y36.427876 
  X-11.490667 Y39.641814 Z10.000000
  X-9.641814 Y41.490667 
  X-6.427876 Y37.660444 Z0.000000
  X-5.000000 Y38.660254 
  X-7.500000 Y42.990381 Z10.000000
  X-5.130302 Y44.095389 
  X-3.420201 Y39.396926 Z0.000000
  X-1.736482 Y39.848078 
  X-2.604723 Y44.772116 Z10.000000
  X-0.000000 Y45.000000 
  X-0.000000 Y40.000000 Z0.000000
  X1.736482 Y39.848078 
  X2.604723 Y44.772116 Z10.000000
  X5.130302 Y44.095389 
  X3.420201 Y39.396926 Z0.000000
  X5.000000 Y38.660254 
  X7.500000 Y42.990381 Z10.000000
  X9.641814 Y41.490667 
  X6.427876 Y37.660444 Z0.000000
  X7.660444 Y36.427876 
  X11.490667 Y39.641814 Z10.000000
  X12.990381 Y37.500000 
  X8.660254 Y35.000000 Z0.000000
  X9.396926 Y33.420201 
  X14.095389 Y35.130302 Z10.000000
  X14.772116 Y32.604723 
  X9.848078 Y31.736482 Z0.000000
(rapid to: no name)
G00 Z5
G00 X40.000000 Y30.000000
G00 Z0.000000
(no name)
G01 X35.000000  Z-10.000000
  X34.924039 Y29.131759 
  X39.848078 Y28.263518 Z0.000000
  X39.396926 Y26.579799 
  X34.698463 Y28.289899 Z-10.000000
  X34.330127 Y27.500000 
  X38.660254 Y25.000000 Z0.000000
  X37.660444 Y23.572124 
  X33.830222 Y26.786062 Z-10.000000
  X33.213938 Y26.169778 
  X36.427876 Y22.339556 Z0.000000
  X35.000000 Y21.339746 
  X32.500000 Y25.669873 Z-10.000000
  X31.710101 Y25.301537 
  X33.420201 Y20.603074 Z0.000000
  X31.736482 Y20.151922 
  X30.868241 Y25.075961 Z-10.000000
  X30.000000 Y25.000000 
   Y20.000000 Z0.000000
  X28.263518 Y20.151922 
  X29.131759 Y25.075961 Z-10.000000
  X28.289899 Y25.301537 
  X26.579799 Y20.603074 Z0.000000
  X25.000000 Y21.339746 
  X27.500000 Y25.669873 Z-10.000000
  X26.786062 Y26.169778 
  X23.572124 Y22.339556 Z0.000000
  X22.339556 Y23.572124 
  X26.169778 Y26.786062 Z-10.000000
  X25.669873 Y27.500000 
  X21.339746 Y25.000000 Z0.000000
  X20.603074 Y26.579799 
  X25.301537 Y28.289899 Z-10.000000
  X25.075961 Y29.131759 
  X20.151922 Y28.263518 Z0.000000
  X20.000000 Y30.000000 
  X25.000000  Z-10.000000
  X25.075961 Y30.868241 
  X20.151922 Y31.736482 Z0.000000
  X20.603074 Y33.420201 
  X25.301537 Y31.710101 Z-10.000000
  X25.669873 Y32.500000 
  X21.339746 Y35.000000 Z0.000000
  X22.339556 Y36.427876 
  X26.169778 Y33.213938 Z-10.000000
  X26.786062 Y33.830222 
  X23.572124 Y37.660444 Z0.000000
  X25.000000 Y38.660254 
  X27.500000 Y34.330127 Z-10.000000
  X28.289899 Y34.698463 
  X26.579799 Y39.396926 Z0.000000
  X28.263518 Y39.848078 
  X29.131759 Y34.924039 Z-10.000000
  X30.000000 Y35.000000 
  X30.000000 Y40.000000 Z0.000000
  X31.736482 Y39.848078 
  X30.868241 Y34.924039 Z-10.000000
  X31.710101 Y34.698463 
  X33.420201 Y39.396926 Z0.000000
  X35.000000 Y38.660254 
  X32.500000 Y34.330127 Z-10.000000
  X33.213938 Y33.830222 
  X36.427876 Y37.660444 Z0.000000
  X37.660444 Y36.427876 
  X33.830222 Y33.213938 Z-10.000000
  X34.330127 Y32.500000 
  X38.660254 Y35.000000 Z0.000000
  X39.396926 Y33.420201 
  X34.698463 Y31.710101 Z-10.000000
  X34.924039 Y30.868241 
  X39.848078 Y31.736482 Z0.000000
(rapid to: no name)
G00 Z5
G00 X-20.000000 Y-30.000000
G00 Z0.000000
(no name)
G01 X-15.000000  
  X-20.151922 Y-31.736482 
  X-15.227884 Y-32.604723 
  X-20.603074 Y-33.420201 
  X-15.904611 Y-35.130302 
  X-21.339746 Y-35.000000 
  X-17.009619 Y-37.500000 
  X-22.339556 Y-36.427876 
  X-18.509333 Y-39.641814 
  X-23.572124 Y-37.660444 
  X-20.358186 Y-41.490667 
  X-25.000000 Y-38.660254 
  X-22.500000 Y-42.990381 
  X-26.579799 Y-39.396926 
  X-24.869698 Y-44.095389 
  X-28.263518 Y-39.848078 
  X-27.395277 Y-44.772116 
  X-30.000000 Y-40.000000 
   Y-45.000000 
  X-31.736482 Y-39.848078 
  X-32.604723 Y-44.772116 
  X-33.420201 Y-39.396926 
  X-35.130302 Y-44.095389 
  X-35.000000 Y-38.660254 
  X-37.500000 Y-42.990381 
  X-36.427876 Y-37.660444 
  X-39.641814 Y-41.490667 
  X-37.660444 Y-36.427876 
  X-41.490667 Y-39.641814 
  X-38.660254 Y-35.000000 
  X-42.990381 Y-37.500000 
  X-39.396926 Y-33.420201 
  X-44.095389 Y-35.130302 
  X-39.848078 Y-31.736482 
  X-44.772116 Y-32.604723 
  X-40.000000 Y-30.000000 
  X-45.000000 Y-30.000000 
  X-39.848078 Y-28.263518 
  X-44.772116 Y-27.395277 
  X-39.396926 Y-26.579799 
  X-44.095389 Y-24.869698 
  X-38.660254 Y-25.000000 
  X-42.990381 Y-22.500000 
  X-37.660444 Y-23.572124 
  X-41.490667 Y-20.358186 
  X-36.427876 Y-22.339556 
  X-39.641814 Y-18.509333 
  X-35.000000 Y-21.339746 
  X-37.500000 Y-17.009619 
  X-33.420201 Y-20.603074 
  X-35.130302 Y-15.904611 
  X-31.736482 Y-20.151922 
  X-32.604723 Y-15.227884 
  X-30.000000 Y-20.000000 
   Y-15.000000 
  X-28.263518 Y-20.151922 
  X-27.395277 Y-15.227884 
  X-26.579799 Y-20.603074 
  X-24.869698 Y-15.904611 
  X-25.000000 Y-21.339746 
  X-22.500000 Y-17.009619 
  X-23.572124 Y-22.339556 
  X-20.358186 Y-18.509333 
  X-22.339556 Y-23.572124 
  X-18.509333 Y-20.358186 
  X-21.339746 Y-25.000000 
  X-17.009619 Y-22.500000 
  X-20.603074 Y-26.579799 
  X-15.904611 Y-24.869698 
  X-20.151922 Y-28.263518 
  X-15.227884 Y-27.395277 
(rapid to: no name)
G00 Z5
G00 X10.000000 Y-30.000000
G00 Z0.000000
(no name)
G01 X7.500000  Z5.000000
  X9.848078 Y-31.736482 Z0.000000
  X7.386058 Y-31.302361 Z5.000000
  X9.396926 Y-33.420201 Z0.000000
  X7.047695 Y-32.565151 Z5.000000
  X8.660254 Y-35.000000 Z0.000000
  X6.495191 Y-33.750000 Z5.000000
  X7.660444 Y-36.427876 Z0.000000
  X5.745333 Y-34.820907 Z5.000000
  X6.427876 Y-37.660444 Z0.000000
  X4.820907 Y-35.745333 Z5.000000
  X5.000000 Y-38.660254 Z0.000000
  X3.750000 Y-36.495191 Z5.000000
  X3.420201 Y-39.396926 Z0.000000
  X2.565151 Y-37.047695 Z5.000000
  X1.736482 Y-39.848078 Z0.000000
  X1.302361 Y-37.386058 Z5.000000
  X0.000000 Y-40.000000 Z0.000000
  X0.000000 Y-37.500000 Z5.000000
  X-1.736482 Y-39.848078 Z0.000000
  X-1.302361 Y-37.386058 Z5.000000
  X-3.420201 Y-39.396926 Z0.000000
  X-2.565151 Y-37.047695 Z5.000000
  X-5.000000 Y-38.660254 Z0.000000
  X-3.750000 Y-36.495191 Z5.000000
  X-6.427876 Y-37.660444 Z0.000000
  X-4.820907 Y-35.745333 Z5.000000
  X-7.660444 Y-36.427876 Z0.000000
  X-5.745333 Y-34.820907 Z5.000000
  X-8.660254 Y-35.000000 Z0.000000
  X-6.495191 Y-33.750000 Z5.000000
  X-9.396926 Y-33.420201 Z0.000000
  X-7.047695 Y-32.565151 Z5.000000
  X-9.848078 Y-31.736482 Z0.000000
  X-7.386058 Y-31.302361 Z5.000000
  X-10.000000 Y-30.000000 Z0.000000
  X-7.500000  Z5.000000
  X-9.848078 Y-28.263518 Z0.000000
  X-7.386058 Y-28.697639 Z5.000000
  X-9.396926 Y-26.579799 Z0.000000
  X-7.047695 Y-27.434849 Z5.000000
  X-8.660254 Y-25.000000 Z0.000000
  X-6.495191 Y-26.250000 Z5.000000
  X-7.660444 Y-23.572124 Z0.000000
  X-5.745333 Y-25.179093 Z5.000000
  X-6.427876 Y-22.339556 Z0.000000
  X-4.820907 Y-24.254667 Z5.000000
  X-5.000000 Y-21.339746 Z0.000000
  X-3.750000 Y-23.504809 Z5.000000
  X-3.420201 Y-20.603074 Z0.000000
  X-2.565151 Y-22.952305 Z5.000000
  X-1.736482 Y-20.151922 Z0.000000
  X-1.302361 Y-22.613942 Z5.000000
  X-0.000000 Y-20.000000 Z0.000000
  X-0.000000 Y-22.500000 Z5.000000
  X1.736482 Y-20.151922 Z0.000000
  X1.302361 Y-22.613942 Z5.000000
  X3.420201 Y-20.603074 Z0.000000
  X2.565151 Y-22.952305 Z5.000000
  X5.000000 Y-21.339746 Z0.000000
  X3.750000 Y-23.504809 Z5.000000
  X6.427876 Y-22.339556 Z0.000000
  X4.820907 Y-24.254667 Z5.000000
  X7.660444 Y-23.572124 Z0.000000
  X5.745333 Y-25.179093 Z5.000000
  X8.660254 Y-25.000000 Z0.000000
  X6.495191 Y-26.250000 Z5.000000
  X9.396926 Y-26.579799 Z0.000000
  X7.047695 Y-27.434849 Z5.000000
  X9.848078 Y-28.263518 Z0.000000
  X7.386058 Y-28.697639 Z5.000000
(rapid to: no name)
G00 Z5
G00 X40.000000 Y-30.000000
G00 Z0.000000
(no name)
G01 X35.000000  Z-5.000000
  X35.024735 Y-30.008860 Z-4.642857
  X35.098940 Y-30.035438 Z-4.285714
  X35.222616 Y-30.079736 Z-3.928571
  X35.395761 Y-30.141754 Z-3.571429
  X35.618377 Y-30.221490 Z-3.214286
  X35.890463 Y-30.318946 Z-2.857143
  X36.212019 Y-30.434120 Z-2.500000
  X36.583046 Y-30.567014 Z-2.142857
  X37.003542 Y-30.717628 Z-1.785714
  X37.473509 Y-30.885960 Z-1.428571
  X37.992946 Y-31.072012 Z-1.071429
  X38.561853 Y-31.275783 Z-0.714286
  X39.180230 Y-31.497273 Z-0.357143
  X39.848078 Y-31.736482 Z0.000000
  X34.924039 Y-30.868241 Z-5.000000
  X34.946860 Y-30.881261 Z-4.642857
  X35.015322 Y-30.920322 Z-4.285714
  X35.129426 Y-30.985423 Z-3.928571
  X35.289172 Y-31.076564 Z-3.571429
  X35.494560 Y-31.193746 Z-3.214286
  X35.745590 Y-31.336968 Z-2.857143
  X36.042261 Y-31.506231 Z-2.500000
  X36.384573 Y-31.701534 Z-2.142857
  X36.772528 Y-31.922878 Z-1.785714
  X37.206124 Y-32.170262 Z-1.428571
  X37.685362 Y-32.443686 Z-1.071429
  X38.210242 Y-32.743151 Z-0.714286
  X38.780763 Y-33.068656 Z-0.357143
  X39.396926 Y-33.420201 Z0.000000
  X34.698463 Y-31.710101 Z-5.000000
  X34.718676 Y-31.726886 Z-4.642857
  X34.779316 Y-31.777242 Z-4.285714
  X34.880382 Y-31.861168 Z-3.928571
  X35.021875 Y-31.978664 Z-3.571429
  X35.203794 Y-32.129731 Z-3.214286
  X35.426139 Y-32.314368 Z-2.857143
  X35.688911 Y-32.532576 Z-2.500000
  X35.992109 Y-32.784354 Z-2.142857
  X36.335734 Y-33.069702 Z-1.785714
  X36.719785 Y-33.388621 Z-1.428571
  X37.144263 Y-33.741110 Z-1.071429
  X37.609167 Y-34.127170 Z-0.714286
  X38.114497 Y-34.546800 Z-0.357143
  X38.660254 Y-35.000000 Z0.000000
  X34.330127 Y-32.500000 Z-5.000000
  X34.347118 Y-32.520040 Z-4.642857
  X34.398093 Y-32.580161 Z-4.285714
  X34.483050 Y-32.680362 Z-3.928571
  X34.601990 Y-32.820643 Z-3.571429
  X34.754912 Y-33.001005 Z-3.214286
  X34.941818 Y-33.221447 Z-2.857143
  X35.162706 Y-33.481969 Z-2.500000
  X35.417578 Y-33.782572 Z-2.142857
  X35.706432 Y-34.123255 Z-1.785714
  X36.029269 Y-34.504018 Z-1.428571
  X36.386088 Y-34.924862 Z-1.071429
  X36.776891 Y-35.385787 Z-0.714286
  X37.201676 Y-35.886791 Z-0.357143
  X37.660444 Y-36.427876 Z0.000000
  X33.830222 Y-33.213938 Z-5.000000
  X33.843476 Y-33.236624 Z-4.642857
  X33.883236 Y-33.304683 Z-4.285714
  X33.949502 Y-33.418114 Z-3.928571
  X34.042276 Y-33.576918 Z-3.571429
  X34.161556 Y-33.781094 Z-3.214286
  X34.307342 Y-34.030643 Z-2.857143
  X34.479636 Y-34.325565 Z-2.500000
  X34.678436 Y-34.665858 Z-2.142857
  X34.903742 Y-35.051525 Z-1.785714
  X35.155556 Y-35.482564 Z-1.428571
  X35.433876 Y-35.958975 Z-1.071429
  X35.738703 Y-36.480759 Z-0.714286
  X36.070036 Y-37.047915 Z-0.357143
  X36.427876 Y-37.660444 Z0.000000
  X33.213938 Y-33.830222 Z-5.000000
  X33.223051 Y-33.854865 Z-4.642857
  X33.250388 Y-33.928794 Z-4.285714
  X33.295951 Y-34.052009 Z-3.928571
  X33.359739 Y-34.224511 Z-3.571429
  X33.441752 Y-34.446298 Z-3.214286
  X33.541990 Y-34.717371 Z-2.857143
  X33.660454 Y-35.037730 Z-2.500000
  X33.797142 Y-35.407375 Z-2.142857
  X33.952055 Y-35.826307 Z-1.785714
  X34.125194 Y-36.294524 Z-1.428571
  X34.316558 Y-36.812028 Z-1.071429
  X34.526147 Y-37.378817 Z-0.714286
  X34.753961 Y-37.994893 Z-0.357143
  X35.000000 Y-38.660254 Z0.000000
  X32.500000 Y-34.330127 Z-5.000000
  X32.504695 Y-34.355978 Z-4.642857
  X32.518780 Y-34.433531 Z-4.285714
  X32.542254 Y-34.562786 Z-3.928571
  X32.575118 Y-34.743743 Z-3.571429
  X32.617373 Y-34.976402 Z-3.214286
  X32.669017 Y-35.260764 Z-2.857143
  X32.730050 Y-35.596827 Z-2.500000
  X32.800474 Y-35.984592 Z-2.142857
  X32.880287 Y-36.424059 Z-1.785714
  X32.969491 Y-36.915229 Z-1.428571
  X33.068084 Y-37.458100 Z-1.071429
  X33.176066 Y-38.052673 Z-0.714286
  X33.293439 Y-38.698949 Z-0.357143
  X33.420201 Y-39.396926 Z0.000000
  X31.710101 Y-34.698463 Z-5.000000
  X31.710235 Y-34.724737 Z-4.642857
  X31.710639 Y-34.803557 Z-4.285714
  X31.711312 Y-34.934925 Z-3.928571
  X31.712254 Y-35.118840 Z-3.571429
  X31.713466 Y-35.355302 Z-3.214286
  X31.714946 Y-35.644311 Z-2.857143
  X31.716696 Y-35.985867 Z-2.500000
  X31.718715 Y-36.379970 Z-2.142857
  X31.721003 Y-36.826620 Z-1.785714
  X31.723560 Y-37.325817 Z-1.428571
  X31.726387 Y-37.877562 Z-1.071429
  X31.729483 Y-38.481853 Z-0.714286
  X31.732848 Y-39.138692 Z-0.357143
  X31.736482 Y-39.848078 Z0.000000
  X30.868241 Y-34.924039 Z-5.000000
  X30.863811 Y-34.949937 Z-4.642857
  X30.850522 Y-35.027630 Z-4.285714
  X30.828373 Y-35.157119 Z-3.928571
  X30.797364 Y-35.338403 Z-3.571429
  X30.757496 Y-35.571483 Z-3.214286
  X30.708768 Y-35.856358 Z-2.857143
  X30.651181 Y-36.193029 Z-2.500000
  X30.584734 Y-36.581495 Z-2.142857
  X30.509427 Y-37.021757 Z-1.785714
  X30.425261 Y-37.513815 Z-1.428571
  X30.332235 Y-38.057668 Z-1.071429
  X30.230350 Y-38.653316 Z-0.714286
  X30.119605 Y-39.300760 Z-0.357143
  X30.000000 Y-40.000000 Z0.000000
   Y-35.000000 Z-5.000000
  X29.991140 Y-35.024735 Z-4.642857
  X29.964562 Y-35.098940 Z-4.285714
  X29.920264 Y-35.222616 Z-3.928571
  X29.858246 Y-35.395761 Z-3.571429
  X29.778510 Y-35.618377 Z-3.214286
  X29.681054 Y-35.890463 Z-2.857143
  X29.565880 Y-36.212019 Z-2.500000
  X29.432986 Y-36.583046 Z-2.142857
  X29.282372 Y-37.003542 Z-1.785714
  X29.114040 Y-37.473509 Z-1.428571
  X28.927988 Y-37.992946 Z-1.071429
  X28.724217 Y-38.561853 Z-0.714286
  X28.502727 Y-39.180230 Z-0.357143
  X28.263518 Y-39.848078 Z0.000000
  X29.131759 Y-34.924039 Z-5.000000
  X29.118739 Y-34.946860 Z-4.642857
  X29.079678 Y-35.015322 Z-4.285714
  X29.014577 Y-35.129426 Z-3.928571
  X28.923436 Y-35.289172 Z-3.571429
  X28.806254 Y-35.494560 Z-3.214286
  X28.663032 Y-35.745590 Z-2.857143
  X28.493769 Y-36.042261 Z-2.500000
  X28.298466 Y-36.384573 Z-2.142857
  X28.077122 Y-36.772528 Z-1.785714
  X27.829738 Y-37.206124 Z-1.428571
  X27.556314 Y-37.685362 Z-1.071429
  X27.256849 Y-38.210242 Z-0.714286
  X26.931344 Y-38.780763 Z-0.357143
  X26.579799 Y-39.396926 Z0.000000
  X28.289899 Y-34.698463 Z-5.000000
  X28.273114 Y-34.718676 Z-4.642857
  X28.222758 Y-34.779316 Z-4.285714
  X28.138832 Y-34.880382 Z-3.928571
  X28.021336 Y-35.021875 Z-3.571429
  X27.870269 Y-35.203794 Z-3.214286
  X27.685632 Y-35.426139 Z-2.857143
  X27.467424 Y-35.688911 Z-2.500000
  X27.215646 Y-35.992109 Z-2.142857
  X26.930298 Y-36.335734 Z-1.785714
  X26.611379 Y-36.719785 Z-1.428571
  X26.258890 Y-37.144263 Z-1.071429
  X25.872830 Y-37.609167 Z-0.714286
  X25.453200 Y-38.114497 Z-0.357143
  X25.000000 Y-38.660254 Z0.000000
  X27.500000 Y-34.330127 Z-5.000000
  X27.479960 Y-34.347118 Z-4.642857
  X27.419839 Y-34.398093 Z-4.285714
  X27.319638 Y-34.483050 Z-3.928571
  X27.179357 Y-34.601990 Z-3.571429
  X26.998995 Y-34.754912 Z-3.214286
  X26.778553 Y-34.941818 Z-2.857143
  X26.518031 Y-35.162706 Z-2.500000
  X26.217428 Y-35.417578 Z-2.142857
  X25.876745 Y-35.706432 Z-1.785714
  X25.495982 Y-36.029269 Z-1.428571
  X25.075138 Y-36.386088 Z-1.071429
  X24.614213 Y-36.776891 Z-0.714286
  X24.113209 Y-37.201676 Z-0.357143
  X23.572124 Y-37.660444 Z0.000000
  X26.786062 Y-33.830222 Z-5.000000
  X26.763376 Y-33.843476 Z-4.642857
  X26.695317 Y-33.883236 Z-4.285714
  X26.581886 Y-33.949502 Z-3.928571
  X26.423082 Y-34.042276 Z-3.571429
  X26.218906 Y-34.161556 Z-3.214286
  X25.969357 Y-34.307342 Z-2.857143
  X25.674435 Y-34.479636 Z-2.500000
  X25.334142 Y-34.678436 Z-2.142857
  X24.948475 Y-34.903742 Z-1.785714
  X24.517436 Y-35.155556 Z-1.428571
  X24.041025 Y-35.433876 Z-1.071429
  X23.519241 Y-35.738703 Z-0.714286
  X22.952085 Y-36.070036 Z-0.357143
  X22.339556 Y-36.427876 Z0.000000
  X26.169778 Y-33.213938 Z-5.000000
  X26.145135 Y-33.223051 Z-4.642857
  X26.071206 Y-33.250388 Z-4.285714
  X25.947991 Y-33.295951 Z-3.928571
  X25.775489 Y-33.359739 Z-3.571429
  X25.553702 Y-33.441752 Z-3.214286
  X25.282629 Y-33.541990 Z-2.857143
  X24.962270 Y-33.660454 Z-2.500000
  X24.592625 Y-33.797142 Z-2.142857
  X24.173693 Y-33.952055 Z-1.785714
  X23.705476 Y-34.125194 Z-1.428571
  X23.187972 Y-34.316558 Z-1.071429
  X22.621183 Y-34.526147 Z-0.714286
  X22.005107 Y-34.753961 Z-0.357143
  X21.339746 Y-35.000000 Z0.000000
  X25.669873 Y-32.500000 Z-5.000000
  X25.644022 Y-32.504695 Z-4.642857
  X25.566469 Y-32.518780 Z-4.285714
  X25.437214 Y-32.542254 Z-3.928571
  X25.256257 Y-32.575118 Z-3.571429
  X25.023598 Y-32.617373 Z-3.214286
  X24.739236 Y-32.669017 Z-2.857143
  X24.403173 Y-32.730050 Z-2.500000
  X24.015408 Y-32.800474 Z-2.142857
  X23.575941 Y-32.880287 Z-1.785714
  X23.084771 Y-32.969491 Z-1.428571
  X22.541900 Y-33.068084 Z-1.071429
  X21.947327 Y-33.176066 Z-0.714286
  X21.301051 Y-33.293439 Z-0.357143
  X20.603074 Y-33.420201 Z0.000000
  X25.301537 Y-31.710101 Z-5.000000
  X25.275263 Y-31.710235 Z-4.642857
  X25.196443 Y-31.710639 Z-4.285714
  X25.065075 Y-31.711312 Z-3.928571
  X24.881160 Y-31.712254 Z-3.571429
  X24.644698 Y-31.713466 Z-3.214286
  X24.355689 Y-31.714946 Z-2.857143
  X24.014133 Y-31.716696 Z-2.500000
  X23.620030 Y-31.718715 Z-2.142857
  X23.173380 Y-31.721003 Z-1.785714
  X22.674183 Y-31.723560 Z-1.428571
  X22.122438 Y-31.726387 Z-1.071429
  X21.518147 Y-31.729483 Z-0.714286
  X20.861308 Y-31.732848 Z-0.357143
  X20.151922 Y-31.736482 Z0.000000
  X25.075961 Y-30.868241 Z-5.000000
  X25.050063 Y-30.863811 Z-4.642857
  X24.972370 Y-30.850522 Z-4.285714
  X24.842881 Y-30.828373 Z-3.928571
  X24.661597 Y-30.797364 Z-3.571429
  X24.428517 Y-30.757496 Z-3.214286
  X24.143642 Y-30.708768 Z-2.857143
  X23.806971 Y-30.651181 Z-2.500000
  X23.418505 Y-30.584734 Z-2.142857
  X22.978243 Y-30.509427 Z-1.785714
  X22.486185 Y-30.425261 Z-1.428571
  X21.942332 Y-30.332235 Z-1.071429
  X21.346684 Y-30.230350 Z-0.714286
  X20.699240 Y-30.119605 Z-0.357143
  X20.000000 Y-30.000000 Z0.000000
  X25.000000  Z-5.000000
  X24.975265 Y-29.991140 Z-4.642857
  X24.901060 Y-29.964562 Z-4.285714
  X24.777384 Y-29.920264 Z-3.928571
  X24.604239 Y-29.858246 Z-3.571429
  X24.381623 Y-29.778510 Z-3.214286
  X24.109537 Y-29.681054 Z-2.857143
  X23.787981 Y-29.565880 Z-2.500000
  X23.416954 Y-29.432986 Z-2.142857
  X22.996458 Y-29.282372 Z-1.785714
  X22.526491 Y-29.114040 Z-1.428571
  X22.007054 Y-28.927988 Z-1.071429
  X21.438147 Y-28.724217 Z-0.714286
  X20.819770 Y-28.502727 Z-0.357143
  X20.151922 Y-28.263518 Z0.000000
  X25.075961 Y-29.131759 Z-5.000000
  X25.053140 Y-29.118739 Z-4.642857
  X24.984678 Y-29.079678 Z-4.285714
  X24.870574 Y-29.014577 Z-3.928571
  X24.710828 Y-28.923436 Z-3.571429
  X24.505440 Y-28.806254 Z-3.214286
  X24.254410 Y-28.663032 Z-2.857143
  X23.957739 Y-28.493769 Z-2.500000
  X23.615427 Y-28.298466 Z-2.142857
  X23.227472 Y-28.077122 Z-1.785714
  X22.793876 Y-27.829738 Z-1.428571
  X22.314638 Y-27.556314 Z-1.071429
  X21.789758 Y-27.256849 Z-0.714286
  X21.219237 Y-26.931344 Z-0.357143
  X20.603074 Y-26.579799 Z0.000000
  X25.301537 Y-28.289899 Z-5.000000
  X25.281324 Y-28.273114 Z-4.642857
  X25.220684 Y-28.222758 Z-4.285714
  X25.119618 Y-28.138832 Z-3.928571
  X24.978125 Y-28.021336 Z-3.571429
  X24.796206 Y-27.870269 Z-3.214286
  X24.573861 Y-27.685632 Z-2.857143
  X24.311089 Y-27.467424 Z-2.500000
  X24.007891 Y-27.215646 Z-2.142857
  X23.664266 Y-26.930298 Z-1.785714
  X23.280215 Y-26.611379 Z-1.428571
  X22.855737 Y-26.258890 Z-1.071429
  X22.390833 Y-25.872830 Z-0.714286
  X21.885503 Y-25.453200 Z-0.357143
  X21.339746 Y-25.000000 Z0.000000
  X25.669873 Y-27.500000 Z-5.000000
  X25.652882 Y-27.479960 Z-4.642857
  X25.601907 Y-27.419839 Z-4.285714
  X25.516950 Y-27.319638 Z-3.928571
  X25.398010 Y-27.179357 Z-3.571429
  X25.245088 Y-26.998995 Z-3.214286
  X25.058182 Y-26.778553 Z-2.857143
  X24.837294 Y-26.518031 Z-2.500000
  X24.582422 Y-26.217428 Z-2.142857
  X24.293568 Y-25.876745 Z-1.785714
  X23.970731 Y-25.495982 Z-1.428571
  X23.613912 Y-25.075138 Z-1.071429
  X23.223109 Y-24.614213 Z-0.714286
  X22.798324 Y-24.113209 Z-0.357143
  X22.339556 Y-23.572124 Z0.000000
  X26.169778 Y-26.786062 Z-5.000000
  X26.156524 Y-26.763376 Z-4.642857
  X26.116764 Y-26.695317 Z-4.285714
  X26.050498 Y-26.581886 Z-3.928571
  X25.957724 Y-26.423082 Z-3.571429
  X25.838444 Y-26.218906 Z-3.214286
  X25.692658 Y-25.969357 Z-2.857143
  X25.520364 Y-25.674435 Z-2.500000
  X25.321564 Y-25.334142 Z-2.142857
  X25.096258 Y-24.948475 Z-1.785714
  X24.844444 Y-24.517436 Z-1.428571
  X24.566124 Y-24.041025 Z-1.071429
  X24.261297 Y-23.519241 Z-0.714286
  X23.929964 Y-22.952085 Z-0.357143
  X23.572124 Y-22.339556 Z0.000000
  X26.786062 Y-26.169778 Z-5.000000
  X26.776949 Y-26.145135 Z-4.642857
  X26.749612 Y-26.071206 Z-4.285714
  X26.704049 Y-25.947991 Z-3.928571
  X26.640261 Y-25.775489 Z-3.571429
  X26.558248 Y-25.553702 Z-3.214286
  X26.458010 Y-25.282629 Z-2.857143
  X26.339546 Y-24.962270 Z-2.500000
  X26.202858 Y-24.592625 Z-2.142857
  X26.047945 Y-24.173693 Z-1.785714
  X25.874806 Y-23.705476 Z-1.428571
  X25.683442 Y-23.187972 Z-1.071429
  X25.473853 Y-22.621183 Z-0.714286
  X25.246039 Y-22.005107 Z-0.357143
  X25.000000 Y-21.339746 Z0.000000
  X27.500000 Y-25.669873 Z-5.000000
  X27.495305 Y-25.644022 Z-4.642857
  X27.481220 Y-25.566469 Z-4.285714
  X27.457746 Y-25.437214 Z-3.928571
  X27.424882 Y-25.256257 Z-3.571429
  X27.382627 Y-25.023598 Z-3.214286
  X27.330983 Y-24.739236 Z-2.857143
  X27.269950 Y-24.403173 Z-2.500000
  X27.199526 Y-24.015408 Z-2.142857
  X27.119713 Y-23.575941 Z-1.785714
  X27.030509 Y-23.084771 Z-1.428571
  X26.931916 Y-22.541900 Z-1.071429
  X26.823934 Y-21.947327 Z-0.714286
  X26.706561 Y-21.301051 Z-0.357143
  X26.579799 Y-20.603074 Z0.000000
  X28.289899 Y-25.301537 Z-5.000000
  X28.289765 Y-25.275263 Z-4.642857
  X28.289361 Y-25.196443 Z-4.285714
  X28.288688 Y-25.065075 Z-3.928571
  X28.287746 Y-24.881160 Z-3.571429
  X28.286534 Y-24.644698 Z-3.214286
  X28.285054 Y-24.355689 Z-2.857143
  X28.283304 Y-24.014133 Z-2.500000
  X28.281285 Y-23.620030 Z-2.142857
  X28.278997 Y-23.173380 Z-1.785714
  X28.276440 Y-22.674183 Z-1.428571
  X28.273613 Y-22.122438 Z-1.071429
  X28.270517 Y-21.518147 Z-0.714286
  X28.267152 Y-20.861308 Z-0.357143
  X28.263518 Y-20.151922 Z0.000000
  X29.131759 Y-25.075961 Z-5.000000
  X29.136189 Y-25.050063 Z-4.642857
  X29.149478 Y-24.972370 Z-4.285714
  X29.171627 Y-24.842881 Z-3.928571
  X29.202636 Y-24.661597 Z-3.571429
  X29.242504 Y-24.428517 Z-3.214286
  X29.291232 Y-24.143642 Z-2.857143
  X29.348819 Y-23.806971 Z-2.500000
  X29.415266 Y-23.418505 Z-2.142857
  X29.490573 Y-22.978243 Z-1.785714
  X29.574739 Y-22.486185 Z-1.428571
  X29.667765 Y-21.942332 Z-1.071429
  X29.769650 Y-21.346684 Z-0.714286
  X29.880395 Y-20.699240 Z-0.357143
  X30.000000 Y-20.000000 Z0.000000
  X30.000000 Y-25.000000 Z-5.000000
  X30.008860 Y-24.975265 Z-4.642857
  X30.035438 Y-24.901060 Z-4.285714
  X30.079736 Y-24.777384 Z-3.928571
  X30.141754 Y-24.604239 Z-3.571429
  X30.221490 Y-24.381623 Z-3.214286
  X30.318946 Y-24.109537 Z-2.857143
  X30.434120 Y-23.787981 Z-2.500000
  X30.567014 Y-23.416954 Z-2.142857
  X30.717628 Y-22.996458 Z-1.785714
  X30.885960 Y-22.526491 Z-1.428571
  X31.072012 Y-22.007054 Z-1.071429
  X31.275783 Y-21.438147 Z-0.714286
  X31.497273 Y-20.819770 Z-0.357143
  X31.736482 Y-20.151922 Z0.000000
  X30.868241 Y-25.075961 Z-5.000000
  X30.881261 Y-25.053140 Z-4.642857
  X30.920322 Y-24.984678 Z-4.285714
  X30.985423 Y-24.870574 Z-3.928571
  X31.076564 Y-24.710828 Z-3.571429
  X31.193746 Y-24.505440 Z-3.214286
  X31.336968 Y-24.254410 Z-2.857143
  X31.506231 Y-23.957739 Z-2.500000
  X31.701534 Y-23.615427 Z-2.142857
  X31.922878 Y-23.227472 Z-1.785714
  X32.170262 Y-22.793876 Z-1.428571
  X32.443686 Y-22.314638 Z-1.071429
  X32.743151 Y-21.789758 Z-0.714286
  X33.068656 Y-21.219237 Z-0.357143
  X33.420201 Y-20.603074 Z0.000000
  X31.710101 Y-25.301537 Z-5.000000
  X31.726886 Y-25.281324 Z-4.642857
  X31.777242 Y-25.220684 Z-4.285714
  X31.861168 Y-25.119618 Z-3.928571
  X31.978664 Y-24.978125 Z-3.571429
  X32.129731 Y-24.796206 Z-3.214286
  X32.314368 Y-24.573861 Z-2.857143
  X32.532576 Y-24.311089 Z-2.500000
  X32.784354 Y-24.007891 Z-2.142857
  X33.069702 Y-23.664266 Z-1.785714
  X33.388621 Y-23.280215 Z-1.428571
  X33.741110 Y-22.855737 Z-1.071429
  X34.127170 Y-22.390833 Z-0.714286
  X34.546800 Y-21.885503 Z-0.357143
  X35.000000 Y-21.339746 Z0.000000
  X32.500000 Y-25.669873 Z-5.000000
  X32.520040 Y-25.652882 Z-4.642857
  X32.580161 Y-25.601907 Z-4.285714
  X32.680362 Y-25.516950 Z-3.928571
  X32.820643 Y-25.398010 Z-3.571429
  X33.001005 Y-25.245088 Z-3.214286
  X33.221447 Y-25.058182 Z-2.857143
  X33.481969 Y-24.837294 Z-2.500000
  X33.782572 Y-24.582422 Z-2.142857
  X34.123255 Y-24.293568 Z-1.785714
  X34.504018 Y-23.970731 Z-1.428571
  X34.924862 Y-23.613912 Z-1.071429
  X35.385787 Y-23.223109 Z-0.714286
  X35.886791 Y-22.798324 Z-0.357143
  X36.427876 Y-22.339556 Z0.000000
  X33.213938 Y-26.169778 Z-5.000000
  X33.236624 Y-26.156524 Z-4.642857
  X33.304683 Y-26.116764 Z-4.285714
  X33.418114 Y-26.050498 Z-3.928571
  X33.576918 Y-25.957724 Z-3.571429
  X33.781094 Y-25.838444 Z-3.214286
  X34.030643 Y-25.692658 Z-2.857143
  X34.325565 Y-25.520364 Z-2.500000
  X34.665858 Y-25.321564 Z-2.142857
  X35.051525 Y-25.096258 Z-1.785714
  X35.482564 Y-24.844444 Z-1.428571
  X35.958975 Y-24.566124 Z-1.071429
  X36.480759 Y-24.261297 Z-0.714286
  X37.047915 Y-23.929964 Z-0.357143
  X37.660444 Y-23.572124 Z0.000000
  X33.830222 Y-26.786062 Z-5.000000
  X33.854865 Y-26.776949 Z-4.642857
  X33.928794 Y-26.749612 Z-4.285714
  X34.052009 Y-26.704049 Z-3.928571
  X34.224511 Y-26.640261 Z-3.571429
  X34.446298 Y-26.558248 Z-3.214286
  X34.717371 Y-26.458010 Z-2.857143
  X35.037730 Y-26.339546 Z-2.500000
  X35.407375 Y-26.202858 Z-2.142857
  X35.826307 Y-26.047945 Z-1.785714
  X36.294524 Y-25.874806 Z-1.428571
  X36.812028 Y-25.683442 Z-1.071429
  X37.378817 Y-25.473853 Z-0.714286
  X37.994893 Y-25.246039 Z-0.357143
  X38.660254 Y-25.000000 Z0.000000
  X34.330127 Y-27.500000 Z-5.000000
  X34.355978 Y-27.495305 Z-4.642857
  X34.433531 Y-27.481220 Z-4.285714
  X34.562786 Y-27.457746 Z-3.928571
  X34.743743 Y-27.424882 Z-3.571429
  X34.976402 Y-27.382627 Z-3.214286
  X35.260764 Y-27.330983 Z-2.857143
  X35.596827 Y-27.269950 Z-2.500000
  X35.984592 Y-27.199526 Z-2.142857
  X36.424059 Y-27.119713 Z-1.785714
  X36.915229 Y-27.030509 Z-1.428571
  X37.458100 Y-26.931916 Z-1.071429
  X38.052673 Y-26.823934 Z-0.714286
  X38.698949 Y-26.706561 Z-0.357143
  X39.396926 Y-26.579799 Z0.000000
  X34.698463 Y-28.289899 Z-5.000000
  X34.724737 Y-28.289765 Z-4.642857
  X34.803557 Y-28.289361 Z-4.285714
  X34.934925 Y-28.288688 Z-3.928571
  X35.118840 Y-28.287746 Z-3.571429
  X35.355302 Y-28.286534 Z-3.214286
  X35.644311 Y-28.285054 Z-2.857143
  X35.985867 Y-28.283304 Z-2.500000
  X36.379970 Y-28.281285 Z-2.142857
  X36.826620 Y-28.278997 Z-1.785714
  X37.325817 Y-28.276440 Z-1.428571
  X37.877562 Y-28.273613 Z-1.071429
  X38.481853 Y-28.270517 Z-0.714286
  X39.138692 Y-28.267152 Z-0.357143
  X39.848078 Y-28.263518 Z0.000000
  X34.924039 Y-29.131759 Z-5.000000
(rapid to: no name)
G00 Z5
G00 X-29.500000 Y0.000000
G00 Z0.000000
(no name)
G01 X-29.400000  Z0.200000
  X-29.497615 Y-0.128258 Z0.100000
  X-29.530154 Y-0.171010 Z0.000000
  X-29.436184 Y-0.205212 Z0.200000
  X-29.571779 Y-0.292348 Z0.100000
  X-29.616978 Y-0.321394 Z0.000000
  X-29.540373 Y-0.385673 Z0.200000
  X-29.697593 Y-0.421178 Z0.100000
  X-29.750000 Y-0.433013 Z0.000000
  X-29.700000 Y-0.519615 Z0.200000
  X-29.859882 Y-0.499207 Z0.100000
  X-29.913176 Y-0.492404 Z0.000000
  X-29.895811 Y-0.590885 Z0.200000
  X-30.039071 Y-0.517024 Z0.100000
  X-30.086824 Y-0.492404 Z0.000000
  X-30.104189 Y-0.590885 Z0.200000
  X-30.213547 Y-0.472481 Z0.100000
  X-30.250000 Y-0.433013 Z0.000000
  X-30.300000 Y-0.519615 Z0.200000
  X-30.362267 Y-0.370949 Z0.100000
  X-30.383022 Y-0.321394 Z0.000000
  X-30.459627 Y-0.385673 Z0.200000
  X-30.467291 Y-0.224676 Z0.100000
  X-30.469846 Y-0.171010 Z0.000000
  X-30.563816 Y-0.205212 Z0.200000
  X-30.515954 Y-0.051303 Z0.100000
  X-30.500000 Y-0.000000 Z0.000000
  X-30.600000 Y-0.000000 Z0.200000
  X-30.502385 Y0.128258 Z0.100000
  X-30.469846 Y0.171010 Z0.000000
  X-30.563816 Y0.205212 Z0.200000
  X-30.428221 Y0.292348 Z0.100000
  X-30.383022 Y0.321394 Z0.000000
  X-30.459627 Y0.385673 Z0.200000
  X-30.302407 Y0.421178 Z0.100000
  X-30.250000 Y0.433013 Z0.000000
  X-30.300000 Y0.519615 Z0.200000
  X-30.140118 Y0.499207 Z0.100000
  X-30.086824 Y0.492404 Z0.000000
  X-30.104189 Y0.590885 Z0.200000
  X-29.960929 Y0.517024 Z0.100000
  X-29.913176 Y0.492404 Z0.000000
  X-29.895811 Y0.590885 Z0.200000
  X-29.786453 Y0.472481 Z0.100000
  X-29.750000 Y0.433013 Z0.000000
  X-29.700000 Y0.519615 Z0.200000
  X-29.637733 Y0.370949 Z0.100000
  X-29.616978 Y0.321394 Z0.000000
  X-29.540373 Y0.385673 Z0.200000
  X-29.532709 Y0.224676 Z0.100000
  X-29.530154 Y0.171010 Z0.000000
  X-29.436184 Y0.205212 Z0.200000
(rapid to: no name)
G00 Z5
G00 X40.000000 Y0.000000
G00 Z0.000000
(no name)
G01 X45.000000 Y5.000000 Z10.000000
  X44.606927 Y4.409297 Z9.642857
  X44.228148 Y3.840074 Z9.285714
  X43.863662 Y3.292332 Z8.928571
  X43.513470 Y2.766069 Z8.571429
  X43.177572 Y2.261287 Z8.214286
  X42.855967 Y1.777984 Z7.857143
  X42.548655 Y1.316162 Z7.500000
  X42.255637 Y0.875820 Z7.142857
  X41.976913 Y0.456958 Z6.785714
  X41.712482 Y0.059576 Z6.428571
  X41.462345 Y-0.316326 Z6.071429
  X41.226501 Y-0.670748 Z5.714286
  X41.004951 Y-1.003690 Z5.357143
  X40.797695 Y-1.315151 Z5.000000
  X40.604732 Y-1.605133 Z4.642857
  X40.426062 Y-1.873634 Z4.285714
  X40.261686 Y-2.120655 Z3.928571
  X40.111604 Y-2.346196 Z3.571429
  X39.975815 Y-2.550257 Z3.214286
  X39.854320 Y-2.732838 Z2.857143
  X39.747118 Y-2.893939 Z2.500000
  X39.654210 Y-3.033560 Z2.142857
  X39.575596 Y-3.151700 Z1.785714
  X39.511275 Y-3.248361 Z1.428571
  X39.461247 Y-3.323541 Z1.071429
  X39.425513 Y-3.377241 Z0.714286
  X39.404073 Y-3.409461 Z0.357143
  X39.396926 Y-3.420201 Z0.000000
  X44.396926 Y1.579799 Z10.000000
  X43.924341 Y1.018036 Z9.642857
  X43.468941 Y0.476701 Z9.285714
  X43.030726 Y-0.044207 Z8.928571
  X42.609696 Y-0.544687 Z8.571429
  X42.205851 Y-1.024738 Z8.214286
  X41.819191 Y-1.484363 Z7.857143
  X41.449715 Y-1.923559 Z7.500000
  X41.097425 Y-2.342328 Z7.142857
  X40.762319 Y-2.740669 Z6.785714
  X40.444399 Y-3.118582 Z6.428571
  X40.143663 Y-3.476067 Z6.071429
  X39.860112 Y-3.813125 Z5.714286
  X39.593746 Y-4.129755 Z5.357143
  X39.344565 Y-4.425957 Z5.000000
  X39.112569 Y-4.701732 Z4.642857
  X38.897757 Y-4.957079 Z4.285714
  X38.700131 Y-5.191998 Z3.928571
  X38.519690 Y-5.406489 Z3.571429
  X38.356433 Y-5.600553 Z3.214286
  X38.210361 Y-5.774188 Z2.857143
  X38.081475 Y-5.927396 Z2.500000
  X37.969773 Y-6.060177 Z2.142857
  X37.875256 Y-6.172529 Z1.785714
  X37.797924 Y-6.264454 Z1.428571
  X37.737776 Y-6.335951 Z1.071429
  X37.694814 Y-6.387021 Z0.714286
  X37.669037 Y-6.417662 Z0.357143
  X37.660444 Y-6.427876 Z0.000000
  X42.660444 Y-1.427876 Z10.000000
  X42.141247 Y-1.918061 Z9.655172
  X41.640266 Y-2.391047 Z9.310345
  X41.157503 Y-2.846833 Z8.965517
  X40.692958 Y-3.285419 Z8.620690
  X40.246630 Y-3.706806 Z8.275862
  X39.818520 Y-4.110994 Z7.931034
  X39.408627 Y-4.497982 Z7.586207
  X39.016951 Y-4.867770 Z7.241379
  X38.643493 Y-5.220360 Z6.896552
  X38.288253 Y-5.555749 Z6.551724
  X37.951229 Y-5.873940 Z6.206897
  X37.632424 Y-6.174930 Z5.862069
  X37.331836 Y-6.458722 Z5.517241
  X37.049465 Y-6.725313 Z5.172414
  X36.785312 Y-6.974706 Z4.827586
  X36.539376 Y-7.206899 Z4.482759
  X36.311658 Y-7.421892 Z4.137931
  X36.102157 Y-7.619686 Z3.793103
  X35.910873 Y-7.800280 Z3.448276
  X35.737807 Y-7.963675 Z3.103448
  X35.582959 Y-8.109871 Z2.758621
  X35.446328 Y-8.238867 Z2.413793
  X35.327914 Y-8.350664 Z2.068966
  X35.227718 Y-8.445261 Z1.724138
  X35.145740 Y-8.522658 Z1.379310
  X35.081979 Y-8.582856 Z1.034483
  X35.036435 Y-8.625855 Z0.689655
  X35.009109 Y-8.651654 Z0.344828
  X35.000000 Y-8.660254 Z0.000000
  X40.000000 Y-3.660254 Z10.000000
  X39.420289 Y-4.094349 Z9.642857
  X38.861658 Y-4.512658 Z9.285714
  X38.324108 Y-4.915183 Z8.928571
  X37.807638 Y-5.301921 Z8.571429
  X37.312249 Y-5.672875 Z8.214286
  X36.837939 Y-6.028044 Z7.857143
  X36.384711 Y-6.367427 Z7.500000
  X35.952563 Y-6.691025 Z7.142857
  X35.541495 Y-6.998837 Z6.785714
  X35.151507 Y-7.290865 Z6.428571
  X34.782600 Y-7.567107 Z6.071429
  X34.434773 Y-7.827564 Z5.714286
  X34.108027 Y-8.072235 Z5.357143
  X33.802361 Y-8.301122 Z5.000000
  X33.517776 Y-8.514223 Z4.642857
  X33.254271 Y-8.711539 Z4.285714
  X33.011846 Y-8.893069 Z3.928571
  X32.790502 Y-9.058814 Z3.571429
  X32.590238 Y-9.208774 Z3.214286
  X32.411055 Y-9.342949 Z2.857143
  X32.252952 Y-9.461339 Z2.500000
  X32.115929 Y-9.563943 Z2.142857
  X31.999987 Y-9.650762 Z1.785714
  X31.905125 Y-9.721795 Z1.428571
  X31.831344 Y-9.777044 Z1.071429
  X31.778643 Y-9.816507 Z0.714286
  X31.747022 Y-9.840185 Z0.357143
  X31.736482 Y-9.848078 Z0.000000
  X36.736482 Y-4.848078 Z10.000000
  X36.142077 Y-5.198843 Z9.642857
  X35.569288 Y-5.536853 Z9.285714
  X35.018113 Y-5.862108 Z8.928571
  X34.488553 Y-6.174608 Z8.571429
  X33.980607 Y-6.474353 Z8.214286
  X33.494276 Y-6.761343 Z7.857143
  X33.029560 Y-7.035578 Z7.500000
  X32.586459 Y-7.297057 Z7.142857
  X32.164972 Y-7.545782 Z6.785714
  X31.765100 Y-7.781751 Z6.428571
  X31.386843 Y-8.004965 Z6.071429
  X31.030200 Y-8.215424 Z5.714286
  X30.695172 Y-8.413129 Z5.357143
  X30.381759 Y-8.598078 Z5.000000
  X30.089961 Y-8.770271 Z4.642857
  X29.819777 Y-8.929710 Z4.285714
  X29.571208 Y-9.076394 Z3.928571
  X29.344253 Y-9.210322 Z3.571429
  X29.138914 Y-9.331496 Z3.214286
  X28.955189 Y-9.439914 Z2.857143
  X28.793078 Y-9.535578 Z2.500000
  X28.652583 Y-9.618486 Z2.142857
  X28.533702 Y-9.688639 Z1.785714
  X28.436436 Y-9.746037 Z1.428571
  X28.360784 Y-9.790680 Z1.071429
  X28.306748 Y-9.822567 Z0.714286
  X28.274326 Y-9.841700 Z0.357143
  X28.263518 Y-9.848078 Z0.000000
  X33.263518 Y-4.848078 Z10.000000
  X32.662741 Y-5.125232 Z9.629630
  X32.084635 Y-5.391927 Z9.259259
  X31.529200 Y-5.648164 Z8.888889
  X30.996435 Y-5.893942 Z8.518519
  X30.486341 Y-6.129262 Z8.148148
  X29.998918 Y-6.354123 Z7.777778
  X29.534166 Y-6.568525 Z7.407407
  X29.092085 Y-6.772468 Z7.037037
  X28.672675 Y-6.965953 Z6.666667
  X28.275935 Y-7.148980 Z6.296296
  X27.901866 Y-7.321547 Z5.925926
  X27.550469 Y-7.483656 Z5.555556
  X27.221742 Y-7.635307 Z5.185185
  X26.915685 Y-7.776498 Z4.814815
  X26.632300 Y-7.907232 Z4.444444
  X26.371585 Y-8.027506 Z4.074074
  X26.133542 Y-8.137322 Z3.703704
  X25.918169 Y-8.236679 Z3.333333
  X25.725467 Y-8.325577 Z2.962963
  X25.555435 Y-8.404017 Z2.592593
  X25.408075 Y-8.471998 Z2.222222
  X25.283385 Y-8.529521 Z1.851852
  X25.181367 Y-8.576585 Z1.481481
  X25.102019 Y-8.613190 Z1.111111
  X25.045342 Y-8.639337 Z0.740741
  X25.011335 Y-8.655025 Z0.370370
  X25.000000 Y-8.660254 Z0.000000
  X30.000000 Y-3.660254 Z10.000000
  X29.399421 Y-3.877236 Z9.600000
  X28.823356 Y-4.085361 Z9.200000
  X28.271804 Y-4.284630 Z8.800000
  X27.744765 Y-4.475042 Z8.400000
  X27.242240 Y-4.656598 Z8.000000
  X26.764228 Y-4.829298 Z7.600000
  X26.310730 Y-4.993141 Z7.200000
  X25.881745 Y-5.148128 Z6.800000
  X25.477274 Y-5.294258 Z6.400000
  X25.097316 Y-5.431532 Z6.000000
  X24.741871 Y-5.559950 Z5.600000
  X24.410940 Y-5.679511 Z5.200000
  X24.104522 Y-5.790216 Z4.800000
  X23.822618 Y-5.892064 Z4.400000
  X23.565227 Y-5.985057 Z4.000000
  X23.332349 Y-6.069192 Z3.600000
  X23.123985 Y-6.144472 Z3.200000
  X22.940134 Y-6.210895 Z2.800000
  X22.780797 Y-6.268461 Z2.400000
  X22.645973 Y-6.317171 Z2.000000
  X22.535663 Y-6.357025 Z1.600000
  X22.449866 Y-6.388022 Z1.200000
  X22.388582 Y-6.410163 Z0.800000
  X22.351812 Y-6.423448 Z0.400000
  X22.339556 Y-6.427876 Z0.000000
  X27.339556 Y-1.427876 Z10.000000
  X26.789877 Y-1.590444 Z9.583333
  X26.263590 Y-1.746095 Z9.166667
  X25.760693 Y-1.894827 Z8.750000
  X25.281186 Y-2.036642 Z8.333333
  X24.825070 Y-2.171539 Z7.916667
  X24.392345 Y-2.299518 Z7.500000
  X23.983010 Y-2.420580 Z7.083333
  X23.597066 Y-2.534724 Z6.666667
  X23.234512 Y-2.641949 Z6.250000
  X22.895349 Y-2.742257 Z5.833333
  X22.579576 Y-2.835648 Z5.416667
  X22.287194 Y-2.922120 Z5.000000
  X22.018203 Y-3.001675 Z4.583333
  X21.772602 Y-3.074312 Z4.166667
  X21.550392 Y-3.140031 Z3.750000
  X21.351572 Y-3.198832 Z3.333333
  X21.176143 Y-3.250715 Z2.916667
  X21.024104 Y-3.295681 Z2.500000
  X20.895456 Y-3.333729 Z2.083333
  X20.790198 Y-3.364859 Z1.666667
  X20.708331 Y-3.389071 Z1.250000
  X20.649855 Y-3.406366 Z0.833333
  X20.614769 Y-3.416743 Z0.416667
  X20.603074 Y-3.420201 Z0.000000
  X25.603074 Y1.579799 Z10.000000
  X25.126442 Y1.445411 Z9.565217
  X24.670993 Y1.316997 Z9.130435
  X24.236729 Y1.194555 Z8.695652
  X23.823648 Y1.078086 Z8.260870
  X23.431750 Y0.967589 Z7.826087
  X23.061037 Y0.863066 Z7.391304
  X22.711506 Y0.764515 Z6.956522
  X22.383160 Y0.671937 Z6.521739
  X22.075997 Y0.585332 Z6.086957
  X21.790018 Y0.504699 Z5.652174
  X21.525222 Y0.430040 Z5.217391
  X21.281610 Y0.361353 Z4.782609
  X21.059182 Y0.298639 Z4.347826
  X20.857938 Y0.241897 Z3.913043
  X20.677877 Y0.191129 Z3.478261
  X20.518999 Y0.146333 Z3.043478
  X20.381306 Y0.107510 Z2.608696
  X20.264796 Y0.074660 Z2.173913
  X20.169469 Y0.047782 Z1.739130
  X20.095326 Y0.026877 Z1.304348
  X20.042367 Y0.011946 Z0.869565
  X20.010592 Y0.002986 Z0.434783
  X20.000000 Y-0.000000 Z0.000000
  X25.000000 Y5.000000 Z10.000000
  X24.609364 Y4.859646 Z9.545455
  X24.236897 Y4.725820 Z9.090909
  X23.882599 Y4.598522 Z8.636364
  X23.546471 Y4.477753 Z8.181818
  X23.228511 Y4.363511 Z7.727273
  X22.928721 Y4.255797 Z7.272727
  X22.647099 Y4.154612 Z6.818182
  X22.383647 Y4.059955 Z6.363636
  X22.138364 Y3.971825 Z5.909091
  X21.911250 Y3.890224 Z5.454545
  X21.702305 Y3.815151 Z5.000000
  X21.511530 Y3.746606 Z4.545455
  X21.338923 Y3.684589 Z4.090909
  X21.184486 Y3.629100 Z3.636364
  X21.048217 Y3.580140 Z3.181818
  X20.930118 Y3.537707 Z2.727273
  X20.830188 Y3.501803 Z2.272727
  X20.748427 Y3.472426 Z1.818182
  X20.684835 Y3.449578 Z1.363636
  X20.639412 Y3.433258 Z0.909091
  X20.612158 Y3.423465 Z0.454545
  X20.603074 Y3.420201 Z0.000000
  X25.603074 Y8.420201 Z10.000000
  X25.299663 Y8.234974 Z9.523810
  X25.011052 Y8.058782 Z9.047619
  X24.737242 Y7.891625 Z8.571429
  X24.478233 Y7.733504 Z8.095238
  X24.234024 Y7.584419 Z7.619048
  X24.004616 Y7.444369 Z7.142857
  X23.790008 Y7.313354 Z6.666667
  X23.590201 Y7.191375 Z6.190476
  X23.405194 Y7.078431 Z5.714286
  X23.234988 Y6.974523 Z5.238095
  X23.079582 Y6.879651 Z4.761905
  X22.938977 Y6.793813 Z4.285714
  X22.813173 Y6.717012 Z3.809524
  X22.702169 Y6.649246 Z3.333333
  X22.605965 Y6.590515 Z2.857143
  X22.524562 Y6.540820 Z2.380952
  X22.457960 Y6.500160 Z1.904762
  X22.406158 Y6.468536 Z1.428571
  X22.369157 Y6.445947 Z0.952381
  X22.346956 Y6.432394 Z0.476190
  X22.339556 Y6.427876 Z0.000000
  X27.339556 Y11.427876 Z10.000000
  X27.122046 Y11.170569 Z9.523810
  X26.915146 Y10.925813 Z9.047619
  X26.718857 Y10.693609 Z8.571429
  X26.533178 Y10.473956 Z8.095238
  X26.358109 Y10.266856 Z7.619048
  X26.193651 Y10.072306 Z7.142857
  X26.039802 Y9.890308 Z6.666667
  X25.896564 Y9.720862 Z6.190476
  X25.763937 Y9.563967 Z5.714286
  X25.641919 Y9.419624 Z5.238095
  X25.530511 Y9.287833 Z4.761905
  X25.429714 Y9.168593 Z4.285714
  X25.339527 Y9.061904 Z3.809524
  X25.259951 Y8.967768 Z3.333333
  X25.190984 Y8.886182 Z2.857143
  X25.132628 Y8.817149 Z2.380952
  X25.084882 Y8.760667 Z1.904762
  X25.047746 Y8.716736 Z1.428571
  X25.021220 Y8.685357 Z0.952381
  X25.005305 Y8.666530 Z0.476190
  X25.000000 Y8.660254 Z0.000000
  X30.000000 Y13.660254 Z10.000000
  X29.838558 Y13.305834 Z9.523810
  X29.684992 Y12.968703 Z9.047619
  X29.539301 Y12.648860 Z8.571429
  X29.401485 Y12.346307 Z8.095238
  X29.271544 Y12.061042 Z7.619048
  X29.149478 Y11.793066 Z7.142857
  X29.035288 Y11.542378 Z6.666667
  X28.928973 Y11.308980 Z6.190476
  X28.830533 Y11.092870 Z5.714286
  X28.739968 Y10.894049 Z5.238095
  X28.657278 Y10.712517 Z4.761905
  X28.582464 Y10.548273 Z4.285714
  X28.515525 Y10.401319 Z3.809524
  X28.456461 Y10.271653 Z3.333333
  X28.405272 Y10.159276 Z2.857143
  X28.361958 Y10.064187 Z2.380952
  X28.326520 Y9.986388 Z1.904762
  X28.298957 Y9.925877 Z1.428571
  X28.279269 Y9.882655 Z0.952381
  X28.267456 Y9.856722 Z0.476190
  X28.263518 Y9.848078 Z0.000000
  X33.263518 Y14.848078 Z10.000000
  X33.127852 Y14.403863 Z9.545455
  X32.998495 Y13.980309 Z9.090909
  X32.875449 Y13.577416 Z8.636364
  X32.758713 Y13.195185 Z8.181818
  X32.648287 Y12.833615 Z7.727273
  X32.544170 Y12.492706 Z7.272727
  X32.446364 Y12.172458 Z6.818182
  X32.354868 Y11.872871 Z6.363636
  X32.269683 Y11.593945 Z5.909091
  X32.190807 Y11.335681 Z5.454545
  X32.118241 Y11.098078 Z5.000000
  X32.051985 Y10.881135 Z4.545455
  X31.992040 Y10.684854 Z4.090909
  X31.938404 Y10.509235 Z3.636364
  X31.891078 Y10.354276 Z3.181818
  X31.850063 Y10.219978 Z2.727273
  X31.815358 Y10.106342 Z2.272727
  X31.786962 Y10.013367 Z1.818182
  X31.764877 Y9.941053 Z1.363636
  X31.749102 Y9.889400 Z0.909091
  X31.739637 Y9.858408 Z0.454545
  X31.736482 Y9.848078 Z0.000000
  X36.736482 Y14.848078 Z10.000000
  X36.588766 Y14.321703 Z9.565217
  X36.447615 Y13.818723 Z9.130435
  X36.313030 Y13.339138 Z8.695652
  X36.185009 Y12.882946 Z8.260870
  X36.063554 Y12.450150 Z7.826087
  X35.948664 Y12.040747 Z7.391304
  X35.840339 Y11.654740 Z6.956522
  X35.738579 Y11.292126 Z6.521739
  X35.643385 Y10.952907 Z6.086957
  X35.554755 Y10.637082 Z5.652174
  X35.472691 Y10.344652 Z5.217391
  X35.397191 Y10.075616 Z4.782609
  X35.328257 Y9.829975 Z4.347826
  X35.265889 Y9.607728 Z3.913043
  X35.210085 Y9.408875 Z3.478261
  X35.160846 Y9.233417 Z3.043478
  X35.118173 Y9.081354 Z2.608696
  X35.082064 Y8.952684 Z2.173913
  X35.052521 Y8.847409 Z1.739130
  X35.029543 Y8.765529 Z1.304348
  X35.013130 Y8.707043 Z0.869565
  X35.003283 Y8.671951 Z0.434783
  X35.000000 Y8.660254 Z0.000000
  X40.000000 Y13.660254 Z10.000000
  X39.816579 Y13.093236 Z9.600000
  X39.640644 Y12.549361 Z9.200000
  X39.472196 Y12.028630 Z8.800000
  X39.311235 Y11.531042 Z8.400000
  X39.157760 Y11.056598 Z8.000000
  X39.011772 Y10.605298 Z7.600000
  X38.873270 Y10.177141 Z7.200000
  X38.742255 Y9.772128 Z6.800000
  X38.618726 Y9.390258 Z6.400000
  X38.502684 Y9.031532 Z6.000000
  X38.394129 Y8.695950 Z5.600000
  X38.293060 Y8.383511 Z5.200000
  X38.199478 Y8.094216 Z4.800000
  X38.113382 Y7.828064 Z4.400000
  X38.034773 Y7.585057 Z4.000000
  X37.963651 Y7.365192 Z3.600000
  X37.900015 Y7.168472 Z3.200000
  X37.843866 Y6.994895 Z2.800000
  X37.795203 Y6.844461 Z2.400000
  X37.754027 Y6.717171 Z2.000000
  X37.720337 Y6.613025 Z1.600000
  X37.694134 Y6.532022 Z1.200000
  X37.675418 Y6.474163 Z0.800000
  X37.664188 Y6.439448 Z0.400000
  X37.660444 Y6.427876 Z0.000000
  X42.660444 Y11.427876 Z10.000000
  X42.414232 Y10.823747 Z9.615385
  X42.177675 Y10.243309 Z9.230769
  X41.950774 Y9.686562 Z8.846154
  X41.733528 Y9.153507 Z8.461538
  X41.525937 Y8.644143 Z8.076923
  X41.328002 Y8.158470 Z7.692308
  X41.139722 Y7.696489 Z7.307692
  X40.961098 Y7.258199 Z6.923077
  X40.792129 Y6.843601 Z6.538462
  X40.632815 Y6.452694 Z6.153846
  X40.483156 Y6.085478 Z5.769231
  X40.343153 Y5.741953 Z5.384615
  X40.212806 Y5.422120 Z5.000000
  X40.092114 Y5.125978 Z4.615385
  X39.981077 Y4.853528 Z4.230769
  X39.879695 Y4.604769 Z3.846154
  X39.787969 Y4.379701 Z3.461538
  X39.705898 Y4.178324 Z3.076923
  X39.633483 Y4.000639 Z2.692308
  X39.570723 Y3.846646 Z2.307692
  X39.517618 Y3.716343 Z1.923077
  X39.474169 Y3.609732 Z1.538462
  X39.440375 Y3.526812 Z1.153846
  X39.416237 Y3.467584 Z0.769231
  X39.401754 Y3.432047 Z0.384615
  X39.396926 Y3.420201 Z0.000000
  X44.396926 Y8.420201 Z10.000000
(END)
G00 Z5

M02
