G21       (units are millimeters)
G94       (feedrate in 'units' per minute)
G17       (working in/on xy-plane)
G64 P0.05 (LinuxCNC, continuous mode with 'p' as tolerance)

G54       (use first WCS)

(DEBUG,CHECK WCS NOW!)
M0        (pause and display message)
G4 P1     (wait for 1 second)

T1 M6     (select first tool)
S8000 M03
G04 P3    (wait for 3 seconds)

G43 H1    (set tool offset)

(DEBUG,CHECK TOOL OFFSET NOW!)
M0        (pause and display message)
G4 P1     (wait for 1 second)

F900

(rapid to: no name)
G00 Z20
G00 X5.811388 Y-37.434165
G00 Z-7.000000
(no name)
G02 X-25.811388 Y57.434165 Z-7.935191 R50.000000
G01 X64.188612 Y87.434165 Z-8.500000
G02 X95.811388 Y-7.434165 Z-9.435191 R50.000000
G01 X5.811388 Y-37.434165 Z-10.000000
G02 X-25.811388 Y57.434165 Z-10.000000 R50.000000
G01 X64.188612 Y87.434165 
G02 X95.811388 Y-7.434165 Z-10.000000 R50.000000
G01 X5.811388 Y-37.434165 
G03 X6.601958 Y-39.805873 Z-10.000000 R1.250000
G02 X7.392527 Y-42.177581 Z-10.000000 R1.250000
  X-27.392527 Y62.177581 Z-10.000000 R55.000000
G01 X62.607473 Y92.177581 
G02 X97.392527 Y-12.177581 Z-10.000000 R55.000000
G01 X7.392527 Y-42.177581 
G03 X8.183097 Y-44.549290 Z-10.000000 R1.250001
G02 X8.973666 Y-46.920998 Z-10.000000 R1.250000
  X-28.973666 Y66.920998 Z-10.000000 R60.000000
G01 X61.026334 Y96.920998 
G02 X98.973666 Y-16.920998 Z-10.000000 R60.000000
G01 X8.973666 Y-46.920998 
G03 X9.764235 Y-49.292706 Z-10.000000 R1.250000
G02 X10.554805 Y-51.664414 Z-10.000000 R1.250000
  X-30.554805 Y71.664414 Z-10.000000 R65.000000
G01 X59.445195 Y101.664414 
G02 X100.554805 Y-21.664414 Z-10.000000 R65.000000
G01 X10.554805 Y-51.664414 
G03 X11.345374 Y-54.036123 Z-10.000000 R1.250001
G02 X12.135944 Y-56.407831 Z-10.000000 R1.250000
  X-32.135944 Y76.407831 Z-10.000000 R70.000000
G01 X57.864056 Y106.407831 
G02 X102.135944 Y-26.407831 Z-10.000000 R70.000000
G01 X12.135944 Y-56.407831 
G03 X12.926513 Y-58.779539 Z-10.000000 R1.250000
G02 X13.717082 Y-61.151247 Z-10.000000 R1.250000
  X-33.717082 Y81.151247 Z-10.000000 R75.000000
G01 X56.282918 Y111.151247 
G02 X103.717082 Y-31.151247 Z-10.000000 R75.000000
G01 X13.717082 Y-61.151247 
G03 X14.507652 Y-63.522956 Z-10.000000 R1.250001
G02 X15.298221 Y-65.894664 Z-10.000000 R1.250000
  X-35.298221 Y85.894664 Z-10.000000 R80.000000
G01 X54.701779 Y115.894664 
G02 X105.298221 Y-35.894664 Z-10.000000 R80.000000
G01 X15.298221 Y-65.894664 
G03 X16.088791 Y-68.266372 Z-10.000000 R1.250000
G02 X16.879360 Y-70.638080 Z-10.000000 R1.250000
  X-36.879360 Y90.638080 Z-10.000000 R85.000000
G01 X53.120640 Y120.638080 
G02 X106.879360 Y-40.638080 Z-10.000000 R85.000000
G01 X16.879360 Y-70.638080 
G03 X17.669930 Y-73.009789 Z-10.000000 R1.250001
G02 X18.460499 Y-75.381497 Z-10.000000 R1.250000
  X-38.460499 Y95.381497 Z-10.000000 R90.000000
G01 X51.539501 Y125.381497 
G02 X108.460499 Y-45.381497 Z-10.000000 R90.000000
G01 X18.460499 Y-75.381497 
G03 X19.251068 Y-77.753205 Z-10.000000 R1.250000
G02 X20.041638 Y-80.124913 Z-10.000000 R1.250000
  X-40.041638 Y100.124913 Z-10.000000 R95.000000
G01 X49.958362 Y130.124913 
G02 X110.041638 Y-50.124913 Z-10.000000 R95.000000
G01 X20.041638 Y-80.124913 
G02 X12.926513 Y-58.779539 Z-9.500000 R11.250000
G03 X5.811388 Y-37.434165 Z-9.000000 R11.250000
G02 X-25.811388 Y57.434165 Z-9.935191 R50.000000
G01 X64.188612 Y87.434165 Z-10.500000
G02 X95.811388 Y-7.434165 Z-11.435191 R50.000000
G01 X5.811388 Y-37.434165 Z-12.000000
G02 X-25.811388 Y57.434165 Z-12.000000 R50.000000
G01 X64.188612 Y87.434165 
G02 X95.811388 Y-7.434165 Z-12.000000 R50.000000
G01 X5.811388 Y-37.434165 
G03 X6.601958 Y-39.805873 Z-12.000000 R1.250000
G02 X7.392527 Y-42.177581 Z-12.000000 R1.250000
  X-27.392527 Y62.177581 Z-12.000000 R55.000000
G01 X62.607473 Y92.177581 
G02 X97.392527 Y-12.177581 Z-12.000000 R55.000000
G01 X7.392527 Y-42.177581 
G03 X8.183097 Y-44.549290 Z-12.000000 R1.250001
G02 X8.973666 Y-46.920998 Z-12.000000 R1.250000
  X-28.973666 Y66.920998 Z-12.000000 R60.000000
G01 X61.026334 Y96.920998 
G02 X98.973666 Y-16.920998 Z-12.000000 R60.000000
G01 X8.973666 Y-46.920998 
G03 X9.764235 Y-49.292706 Z-12.000000 R1.250000
G02 X10.554805 Y-51.664414 Z-12.000000 R1.250000
  X-30.554805 Y71.664414 Z-12.000000 R65.000000
G01 X59.445195 Y101.664414 
G02 X100.554805 Y-21.664414 Z-12.000000 R65.000000
G01 X10.554805 Y-51.664414 
G03 X11.345374 Y-54.036123 Z-12.000000 R1.250001
G02 X12.135944 Y-56.407831 Z-12.000000 R1.250000
  X-32.135944 Y76.407831 Z-12.000000 R70.000000
G01 X57.864056 Y106.407831 
G02 X102.135944 Y-26.407831 Z-12.000000 R70.000000
G01 X12.135944 Y-56.407831 
G03 X12.926513 Y-58.779539 Z-12.000000 R1.250000
G02 X13.717082 Y-61.151247 Z-12.000000 R1.250000
  X-33.717082 Y81.151247 Z-12.000000 R75.000000
G01 X56.282918 Y111.151247 
G02 X103.717082 Y-31.151247 Z-12.000000 R75.000000
G01 X13.717082 Y-61.151247 
G03 X14.507652 Y-63.522956 Z-12.000000 R1.250001
G02 X15.298221 Y-65.894664 Z-12.000000 R1.250000
  X-35.298221 Y85.894664 Z-12.000000 R80.000000
G01 X54.701779 Y115.894664 
G02 X105.298221 Y-35.894664 Z-12.000000 R80.000000
G01 X15.298221 Y-65.894664 
G03 X16.088791 Y-68.266372 Z-12.000000 R1.250000
G02 X16.879360 Y-70.638080 Z-12.000000 R1.250000
  X-36.879360 Y90.638080 Z-12.000000 R85.000000
G01 X53.120640 Y120.638080 
G02 X106.879360 Y-40.638080 Z-12.000000 R85.000000
G01 X16.879360 Y-70.638080 
G03 X17.669930 Y-73.009789 Z-12.000000 R1.250001
G02 X18.460499 Y-75.381497 Z-12.000000 R1.250000
  X-38.460499 Y95.381497 Z-12.000000 R90.000000
G01 X51.539501 Y125.381497 
G02 X108.460499 Y-45.381497 Z-12.000000 R90.000000
G01 X18.460499 Y-75.381497 
G03 X19.251068 Y-77.753205 Z-12.000000 R1.250000
G02 X20.041638 Y-80.124913 Z-12.000000 R1.250000
  X-40.041638 Y100.124913 Z-12.000000 R95.000000
G01 X49.958362 Y130.124913 
G02 X110.041638 Y-50.124913 Z-12.000000 R95.000000
G01 X20.041638 Y-80.124913 
G02 X12.926513 Y-58.779539 Z-11.500000 R11.250000
G03 X5.811388 Y-37.434165 Z-11.000000 R11.250000
G02 X-25.811388 Y57.434165 Z-11.935191 R50.000000
G01 X64.188612 Y87.434165 Z-12.500000
G02 X95.811388 Y-7.434165 Z-13.435191 R50.000000
G01 X5.811388 Y-37.434165 Z-14.000000
G02 X-25.811388 Y57.434165 Z-14.000000 R50.000000
G01 X64.188612 Y87.434165 
G02 X95.811388 Y-7.434165 Z-14.000000 R50.000000
G01 X5.811388 Y-37.434165 
G03 X6.601958 Y-39.805873 Z-14.000000 R1.250000
G02 X7.392527 Y-42.177581 Z-14.000000 R1.250000
  X-27.392527 Y62.177581 Z-14.000000 R55.000000
G01 X62.607473 Y92.177581 
G02 X97.392527 Y-12.177581 Z-14.000000 R55.000000
G01 X7.392527 Y-42.177581 
G03 X8.183097 Y-44.549290 Z-14.000000 R1.250001
G02 X8.973666 Y-46.920998 Z-14.000000 R1.250000
  X-28.973666 Y66.920998 Z-14.000000 R60.000000
G01 X61.026334 Y96.920998 
G02 X98.973666 Y-16.920998 Z-14.000000 R60.000000
G01 X8.973666 Y-46.920998 
G03 X9.764235 Y-49.292706 Z-14.000000 R1.250000
G02 X10.554805 Y-51.664414 Z-14.000000 R1.250000
  X-30.554805 Y71.664414 Z-14.000000 R65.000000
G01 X59.445195 Y101.664414 
G02 X100.554805 Y-21.664414 Z-14.000000 R65.000000
G01 X10.554805 Y-51.664414 
G03 X11.345374 Y-54.036123 Z-14.000000 R1.250001
G02 X12.135944 Y-56.407831 Z-14.000000 R1.250000
  X-32.135944 Y76.407831 Z-14.000000 R70.000000
G01 X57.864056 Y106.407831 
G02 X102.135944 Y-26.407831 Z-14.000000 R70.000000
G01 X12.135944 Y-56.407831 
G03 X12.926513 Y-58.779539 Z-14.000000 R1.250000
G02 X13.717082 Y-61.151247 Z-14.000000 R1.250000
  X-33.717082 Y81.151247 Z-14.000000 R75.000000
G01 X56.282918 Y111.151247 
G02 X103.717082 Y-31.151247 Z-14.000000 R75.000000
G01 X13.717082 Y-61.151247 
G03 X14.507652 Y-63.522956 Z-14.000000 R1.250001
G02 X15.298221 Y-65.894664 Z-14.000000 R1.250000
  X-35.298221 Y85.894664 Z-14.000000 R80.000000
G01 X54.701779 Y115.894664 
G02 X105.298221 Y-35.894664 Z-14.000000 R80.000000
G01 X15.298221 Y-65.894664 
G03 X16.088791 Y-68.266372 Z-14.000000 R1.250000
G02 X16.879360 Y-70.638080 Z-14.000000 R1.250000
  X-36.879360 Y90.638080 Z-14.000000 R85.000000
G01 X53.120640 Y120.638080 
G02 X106.879360 Y-40.638080 Z-14.000000 R85.000000
G01 X16.879360 Y-70.638080 
G03 X17.669930 Y-73.009789 Z-14.000000 R1.250001
G02 X18.460499 Y-75.381497 Z-14.000000 R1.250000
  X-38.460499 Y95.381497 Z-14.000000 R90.000000
G01 X51.539501 Y125.381497 
G02 X108.460499 Y-45.381497 Z-14.000000 R90.000000
G01 X18.460499 Y-75.381497 
G03 X19.251068 Y-77.753205 Z-14.000000 R1.250000
G02 X20.041638 Y-80.124913 Z-14.000000 R1.250000
  X-40.041638 Y100.124913 Z-14.000000 R95.000000
G01 X49.958362 Y130.124913 
G02 X110.041638 Y-50.124913 Z-14.000000 R95.000000
G01 X20.041638 Y-80.124913 
G02 X12.926513 Y-58.779539 Z-13.500000 R11.250000
G03 X5.811388 Y-37.434165 Z-13.000000 R11.250000
G02 X-25.811388 Y57.434165 Z-13.935191 R50.000000
G01 X64.188612 Y87.434165 Z-14.500000
G02 X95.811388 Y-7.434165 Z-15.435191 R50.000000
G01 X5.811388 Y-37.434165 Z-16.000000
G02 X-25.811388 Y57.434165 Z-16.000000 R50.000000
G01 X64.188612 Y87.434165 
G02 X95.811388 Y-7.434165 Z-16.000000 R50.000000
G01 X5.811388 Y-37.434165 
G03 X6.601958 Y-39.805873 Z-16.000000 R1.250000
G02 X7.392527 Y-42.177581 Z-16.000000 R1.250000
  X-27.392527 Y62.177581 Z-16.000000 R55.000000
G01 X62.607473 Y92.177581 
G02 X97.392527 Y-12.177581 Z-16.000000 R55.000000
G01 X7.392527 Y-42.177581 
G03 X8.183097 Y-44.549290 Z-16.000000 R1.250001
G02 X8.973666 Y-46.920998 Z-16.000000 R1.250000
  X-28.973666 Y66.920998 Z-16.000000 R60.000000
G01 X61.026334 Y96.920998 
G02 X98.973666 Y-16.920998 Z-16.000000 R60.000000
G01 X8.973666 Y-46.920998 
G03 X9.764235 Y-49.292706 Z-16.000000 R1.250000
G02 X10.554805 Y-51.664414 Z-16.000000 R1.250000
  X-30.554805 Y71.664414 Z-16.000000 R65.000000
G01 X59.445195 Y101.664414 
G02 X100.554805 Y-21.664414 Z-16.000000 R65.000000
G01 X10.554805 Y-51.664414 
G03 X11.345374 Y-54.036123 Z-16.000000 R1.250001
G02 X12.135944 Y-56.407831 Z-16.000000 R1.250000
  X-32.135944 Y76.407831 Z-16.000000 R70.000000
G01 X57.864056 Y106.407831 
G02 X102.135944 Y-26.407831 Z-16.000000 R70.000000
G01 X12.135944 Y-56.407831 
G03 X12.926513 Y-58.779539 Z-16.000000 R1.250000
G02 X13.717082 Y-61.151247 Z-16.000000 R1.250000
  X-33.717082 Y81.151247 Z-16.000000 R75.000000
G01 X56.282918 Y111.151247 
G02 X103.717082 Y-31.151247 Z-16.000000 R75.000000
G01 X13.717082 Y-61.151247 
G03 X14.507652 Y-63.522956 Z-16.000000 R1.250001
G02 X15.298221 Y-65.894664 Z-16.000000 R1.250000
  X-35.298221 Y85.894664 Z-16.000000 R80.000000
G01 X54.701779 Y115.894664 
G02 X105.298221 Y-35.894664 Z-16.000000 R80.000000
G01 X15.298221 Y-65.894664 
G03 X16.088791 Y-68.266372 Z-16.000000 R1.250000
G02 X16.879360 Y-70.638080 Z-16.000000 R1.250000
  X-36.879360 Y90.638080 Z-16.000000 R85.000000
G01 X53.120640 Y120.638080 
G02 X106.879360 Y-40.638080 Z-16.000000 R85.000000
G01 X16.879360 Y-70.638080 
G03 X17.669930 Y-73.009789 Z-16.000000 R1.250001
G02 X18.460499 Y-75.381497 Z-16.000000 R1.250000
  X-38.460499 Y95.381497 Z-16.000000 R90.000000
G01 X51.539501 Y125.381497 
G02 X108.460499 Y-45.381497 Z-16.000000 R90.000000
G01 X18.460499 Y-75.381497 
G03 X19.251068 Y-77.753205 Z-16.000000 R1.250000
G02 X20.041638 Y-80.124913 Z-16.000000 R1.250000
  X-40.041638 Y100.124913 Z-16.000000 R95.000000
G01 X49.958362 Y130.124913 
G02 X110.041638 Y-50.124913 Z-16.000000 R95.000000
G01 X20.041638 Y-80.124913 
G02 X12.926513 Y-58.779539 Z-15.500000 R11.250000
G03 X5.811388 Y-37.434165 Z-15.000000 R11.250000
G02 X-25.811388 Y57.434165 Z-15.935191 R50.000000
G01 X64.188612 Y87.434165 Z-16.500000
G02 X95.811388 Y-7.434165 Z-17.435191 R50.000000
G01 X5.811388 Y-37.434165 Z-18.000000
G02 X-25.811388 Y57.434165 Z-18.000000 R50.000000
G01 X64.188612 Y87.434165 
G02 X95.811388 Y-7.434165 Z-18.000000 R50.000000
G01 X5.811388 Y-37.434165 
G03 X6.601958 Y-39.805873 Z-18.000000 R1.250000
G02 X7.392527 Y-42.177581 Z-18.000000 R1.250000
  X-27.392527 Y62.177581 Z-18.000000 R55.000000
G01 X62.607473 Y92.177581 
G02 X97.392527 Y-12.177581 Z-18.000000 R55.000000
G01 X7.392527 Y-42.177581 
G03 X8.183097 Y-44.549290 Z-18.000000 R1.250001
G02 X8.973666 Y-46.920998 Z-18.000000 R1.250000
  X-28.973666 Y66.920998 Z-18.000000 R60.000000
G01 X61.026334 Y96.920998 
G02 X98.973666 Y-16.920998 Z-18.000000 R60.000000
G01 X8.973666 Y-46.920998 
G03 X9.764235 Y-49.292706 Z-18.000000 R1.250000
G02 X10.554805 Y-51.664414 Z-18.000000 R1.250000
  X-30.554805 Y71.664414 Z-18.000000 R65.000000
G01 X59.445195 Y101.664414 
G02 X100.554805 Y-21.664414 Z-18.000000 R65.000000
G01 X10.554805 Y-51.664414 
G03 X11.345374 Y-54.036123 Z-18.000000 R1.250001
G02 X12.135944 Y-56.407831 Z-18.000000 R1.250000
  X-32.135944 Y76.407831 Z-18.000000 R70.000000
G01 X57.864056 Y106.407831 
G02 X102.135944 Y-26.407831 Z-18.000000 R70.000000
G01 X12.135944 Y-56.407831 
G03 X12.926513 Y-58.779539 Z-18.000000 R1.250000
G02 X13.717082 Y-61.151247 Z-18.000000 R1.250000
  X-33.717082 Y81.151247 Z-18.000000 R75.000000
G01 X56.282918 Y111.151247 
G02 X103.717082 Y-31.151247 Z-18.000000 R75.000000
G01 X13.717082 Y-61.151247 
G03 X14.507652 Y-63.522956 Z-18.000000 R1.250001
G02 X15.298221 Y-65.894664 Z-18.000000 R1.250000
  X-35.298221 Y85.894664 Z-18.000000 R80.000000
G01 X54.701779 Y115.894664 
G02 X105.298221 Y-35.894664 Z-18.000000 R80.000000
G01 X15.298221 Y-65.894664 
G03 X16.088791 Y-68.266372 Z-18.000000 R1.250000
G02 X16.879360 Y-70.638080 Z-18.000000 R1.250000
  X-36.879360 Y90.638080 Z-18.000000 R85.000000
G01 X53.120640 Y120.638080 
G02 X106.879360 Y-40.638080 Z-18.000000 R85.000000
G01 X16.879360 Y-70.638080 
G03 X17.669930 Y-73.009789 Z-18.000000 R1.250001
G02 X18.460499 Y-75.381497 Z-18.000000 R1.250000
  X-38.460499 Y95.381497 Z-18.000000 R90.000000
G01 X51.539501 Y125.381497 
G02 X108.460499 Y-45.381497 Z-18.000000 R90.000000
G01 X18.460499 Y-75.381497 
G03 X19.251068 Y-77.753205 Z-18.000000 R1.250000
G02 X20.041638 Y-80.124913 Z-18.000000 R1.250000
  X-40.041638 Y100.124913 Z-18.000000 R95.000000
G01 X49.958362 Y130.124913 
G02 X110.041638 Y-50.124913 Z-18.000000 R95.000000
G01 X20.041638 Y-80.124913 
G02 X12.926513 Y-58.779539 Z-17.500000 R11.250000
G03 X5.811388 Y-37.434165 Z-17.000000 R11.250000
G02 X-25.811388 Y57.434165 Z-17.935191 R50.000000
G01 X64.188612 Y87.434165 Z-18.500000
G02 X95.811388 Y-7.434165 Z-19.435191 R50.000000
G01 X5.811388 Y-37.434165 Z-20.000000
G02 X-25.811388 Y57.434165 Z-20.000000 R50.000000
G01 X64.188612 Y87.434165 
G02 X95.811388 Y-7.434165 Z-20.000000 R50.000000
G01 X5.811388 Y-37.434165 
G03 X6.601958 Y-39.805873 Z-20.000000 R1.250000
G02 X7.392527 Y-42.177581 Z-20.000000 R1.250000
  X-27.392527 Y62.177581 Z-20.000000 R55.000000
G01 X62.607473 Y92.177581 
G02 X97.392527 Y-12.177581 Z-20.000000 R55.000000
G01 X7.392527 Y-42.177581 
G03 X8.183097 Y-44.549290 Z-20.000000 R1.250001
G02 X8.973666 Y-46.920998 Z-20.000000 R1.250000
  X-28.973666 Y66.920998 Z-20.000000 R60.000000
G01 X61.026334 Y96.920998 
G02 X98.973666 Y-16.920998 Z-20.000000 R60.000000
G01 X8.973666 Y-46.920998 
G03 X9.764235 Y-49.292706 Z-20.000000 R1.250000
G02 X10.554805 Y-51.664414 Z-20.000000 R1.250000
  X-30.554805 Y71.664414 Z-20.000000 R65.000000
G01 X59.445195 Y101.664414 
G02 X100.554805 Y-21.664414 Z-20.000000 R65.000000
G01 X10.554805 Y-51.664414 
G03 X11.345374 Y-54.036123 Z-20.000000 R1.250001
G02 X12.135944 Y-56.407831 Z-20.000000 R1.250000
  X-32.135944 Y76.407831 Z-20.000000 R70.000000
G01 X57.864056 Y106.407831 
G02 X102.135944 Y-26.407831 Z-20.000000 R70.000000
G01 X12.135944 Y-56.407831 
G03 X12.926513 Y-58.779539 Z-20.000000 R1.250000
G02 X13.717082 Y-61.151247 Z-20.000000 R1.250000
  X-33.717082 Y81.151247 Z-20.000000 R75.000000
G01 X56.282918 Y111.151247 
G02 X103.717082 Y-31.151247 Z-20.000000 R75.000000
G01 X13.717082 Y-61.151247 
G03 X14.507652 Y-63.522956 Z-20.000000 R1.250001
G02 X15.298221 Y-65.894664 Z-20.000000 R1.250000
  X-35.298221 Y85.894664 Z-20.000000 R80.000000
G01 X54.701779 Y115.894664 
G02 X105.298221 Y-35.894664 Z-20.000000 R80.000000
G01 X15.298221 Y-65.894664 
G03 X16.088791 Y-68.266372 Z-20.000000 R1.250000
G02 X16.879360 Y-70.638080 Z-20.000000 R1.250000
  X-36.879360 Y90.638080 Z-20.000000 R85.000000
G01 X53.120640 Y120.638080 
G02 X106.879360 Y-40.638080 Z-20.000000 R85.000000
G01 X16.879360 Y-70.638080 
G03 X17.669930 Y-73.009789 Z-20.000000 R1.250001
G02 X18.460499 Y-75.381497 Z-20.000000 R1.250000
  X-38.460499 Y95.381497 Z-20.000000 R90.000000
G01 X51.539501 Y125.381497 
G02 X108.460499 Y-45.381497 Z-20.000000 R90.000000
G01 X18.460499 Y-75.381497 
G03 X19.251068 Y-77.753205 Z-20.000000 R1.250000
G02 X20.041638 Y-80.124913 Z-20.000000 R1.250000
  X-40.041638 Y100.124913 Z-20.000000 R95.000000
G01 X49.958362 Y130.124913 
G02 X110.041638 Y-50.124913 Z-20.000000 R95.000000
G01 X20.041638 Y-80.124913 
G02 X12.926513 Y-58.779539 Z-13.500000 R11.250000
G03 X5.811388 Y-37.434165 Z-7.000000 R11.250000
(END)
G00 Z20

M02
