G21       (units are millimeters)
G94       (feedrate in 'units' per minute)
G17       (working in/on xy-plane)
G64 P0.05 (LinuxCNC, continuous mode with 'p' as tolerance)

G54       (use first WCS)

(DEBUG,CHECK WCS NOW!)
M0        (pause and display message)
G4 P1     (wait for 1 second)

T1 M6     (select first tool)
S8000 M03
G04 P3    (wait for 3 seconds)

G43 H1    (set tool offset)

(DEBUG,CHECK TOOL OFFSET NOW!)
M0        (pause and display message)
G4 P1     (wait for 1 second)

F900

(rapid to: no name)
G00 Z20
G00 X0.000000 Y0.000000
G00 Z0.000000
(no name)
G01 X3.568750 Y0.072500 
  X6.800000 Y0.280000 
  X9.731250 Y0.607500 
  X12.400000 Y1.040000 
  X14.843750 Y1.562500 
  X17.100000 Y2.160000 
  X19.206250 Y2.817500 
  X21.200000 Y3.520000 
  X23.118750 Y4.252500 
  X25.000000 Y5.000000 
  X26.881250 Y5.747500 
  X28.800000 Y6.480000 
  X30.793750 Y7.182500 
  X32.900000 Y7.840000 
  X35.156250 Y8.437500 
  X37.600000 Y8.960000 
  X40.268750 Y9.392500 
  X43.200000 Y9.720000 
  X46.431250 Y9.927500 
  X50.000000 Y10.000000 
(rapid to: no name)
G00 Z20
G00 X0.000000 Y0.000000
G00 Z0.000000
(no name)
G01 X7.128750 Y0.215000 
  X13.530000 Y0.820000 
  X19.226250 Y1.755000 
  X24.240000 Y2.960000 
  X28.593750 Y4.375000 
  X32.310000 Y5.940000 
  X35.411250 Y7.595000 
  X37.920000 Y9.280000 
  X39.858750 Y10.935000 
  X41.250000 Y12.500000 
  X42.116250 Y13.915000 
  X42.480000 Y15.120000 
  X42.363750 Y16.055000 
  X41.790000 Y16.660000 
  X40.781250 Y16.875000 
  X39.360000 Y16.640000 
  X37.548750 Y15.895000 
  X35.370000 Y14.580000 
  X32.846250 Y12.635000 
  X30.000000 Y10.000000 
(rapid to: no name)
G00 Z20
G00 X0.000000 Y0.000000
G00 Z-20.000000
(no name)
G01 X7.128750 Y0.215000 Z-17.500000
  X13.530000 Y0.820000 Z-15.000000
  X19.226250 Y1.755000 Z-12.500000
  X24.240000 Y2.960000 Z-10.000000
  X28.593750 Y4.375000 Z-7.500000
  X32.310000 Y5.940000 Z-5.000000
  X35.411250 Y7.595000 Z-2.500000
  X37.920000 Y9.280000 Z0.000000
  X39.858750 Y10.935000 Z2.500000
  X41.250000 Y12.500000 Z5.000000
  X42.116250 Y13.915000 Z7.500000
  X42.480000 Y15.120000 Z10.000000
  X42.363750 Y16.055000 Z12.500000
  X41.790000 Y16.660000 Z15.000000
  X40.781250 Y16.875000 Z17.500000
  X39.360000 Y16.640000 Z20.000000
  X37.548750 Y15.895000 Z22.500000
  X35.370000 Y14.580000 Z25.000000
  X32.846250 Y12.635000 Z27.500000
  X30.000000 Y10.000000 Z30.000000
(rapid to: no name)
G00 Z20
G00 X0.000000 Y0.000000
G00 Z30.000000
(no name)
G01 X1.980000 Y0.020000 Z28.800000
  X3.920000 Y0.080000 Z27.600000
  X5.820000 Y0.180000 Z26.400000
  X7.680000 Y0.320000 Z25.200000
  X9.500000 Y0.500000 Z24.000000
  X11.280000 Y0.720000 Z22.800000
  X13.020000 Y0.980000 Z21.600000
  X14.720000 Y1.280000 Z20.400000
  X16.380000 Y1.620000 Z19.200000
  X18.000000 Y2.000000 Z18.000000
  X19.580000 Y2.420000 Z16.800000
  X21.120000 Y2.880000 Z15.600000
  X22.620000 Y3.380000 Z14.400000
  X24.080000 Y3.920000 Z13.200000
  X25.500000 Y4.500000 Z12.000000
  X26.880000 Y5.120000 Z10.800000
  X28.220000 Y5.780000 Z9.600000
  X29.520000 Y6.480000 Z8.400000
  X30.780000 Y7.220000 Z7.200000
  X32.000000 Y8.000000 Z6.000000
  X33.180000 Y8.820000 Z4.800000
  X34.320000 Y9.680000 Z3.600000
  X35.420000 Y10.580000 Z2.400000
  X36.480000 Y11.520000 Z1.200000
  X37.500000 Y12.500000 Z0.000000
  X38.480000 Y13.520000 Z-1.200000
  X39.420000 Y14.580000 Z-2.400000
  X40.320000 Y15.680000 Z-3.600000
  X41.180000 Y16.820000 Z-4.800000
  X42.000000 Y18.000000 Z-6.000000
  X42.780000 Y19.220000 Z-7.200000
  X43.520000 Y20.480000 Z-8.400000
  X44.220000 Y21.780000 Z-9.600000
  X44.880000 Y23.120000 Z-10.800000
  X45.500000 Y24.500000 Z-12.000000
  X46.080000 Y25.920000 Z-13.200000
  X46.620000 Y27.380000 Z-14.400000
  X47.120000 Y28.880000 Z-15.600000
  X47.580000 Y30.420000 Z-16.800000
  X48.000000 Y32.000000 Z-18.000000
  X48.380000 Y33.620000 Z-19.200000
  X48.720000 Y35.280000 Z-20.400000
  X49.020000 Y36.980000 Z-21.600000
  X49.280000 Y38.720000 Z-22.800000
  X49.500000 Y40.500000 Z-24.000000
  X49.680000 Y42.320000 Z-25.200000
  X49.820000 Y44.180000 Z-26.400000
  X49.920000 Y46.080000 Z-27.600000
  X49.980000 Y48.020000 Z-28.800000
  X50.000000 Y50.000000 Z-30.000000
(rapid to: no name)
G00 Z20
G00 X0.000000 Y0.000000
G00 Z30.000000
(no name)
G01 X18.000000 Y2.000000 Z18.000000
  X32.000000 Y8.000000 Z6.000000
  X42.000000 Y18.000000 Z-6.000000
  X48.000000 Y32.000000 Z-18.000000
  X50.000000 Y50.000000 Z-30.000000
(rapid to: no name)
G00 Z20
G00 X0.000000 Y0.000000
G00 Z0.000000
(no name)
G01 X4.875000 Y0.025000 
  X9.500000 Y0.100000 
  X13.875000 Y0.225000 
  X18.000000 Y0.400000 
  X21.875000 Y0.625000 
  X25.500000 Y0.900000 
  X28.875000 Y1.225000 
  X32.000000 Y1.600000 
  X34.875000 Y2.025000 
  X37.500000 Y2.500000 
  X39.875000 Y3.025000 
  X42.000000 Y3.600000 
  X43.875000 Y4.225000 
  X45.500000 Y4.900000 
  X46.875000 Y5.625000 
  X48.000000 Y6.400000 
  X48.875000 Y7.225000 
  X49.500000 Y8.100000 
  X49.875000 Y9.025000 
  X50.000000 Y10.000000 
(END)
G00 Z10.0

M02
