G21       (units are millimeters)
G94       (feedrate in 'units' per minute)
G17       (working in/on xy-plane)
G64 P0.05 (LinuxCNC, continuous mode with 'p' as tolerance)

G54       (use first WCS)

(DEBUG,CHECK WCS NOW!)
M0        (pause and display message)
G4 P1     (wait for 1 second)

T1 M6     (select first tool)
S8000 M03
G04 P3    (wait for 3 seconds)

G43 H1    (set tool offset)

(DEBUG,CHECK TOOL OFFSET NOW!)
M0        (pause and display message)
G4 P1     (wait for 1 second)

F900

(rapid to: no name)
G00 Z20
G00 X10.000000 Y30.000000
G00 Z0.000000
(no name)
G01 X50.000000  
   Y50.000000 
  X10.000000  
   Y30.000000 
  X10.300000 Y30.300000 
  X10.600000 Y30.600000 
  X10.900000 Y30.900000 
  X11.200000 Y31.200000 
  X11.500000 Y31.500000 
  X11.800000 Y31.800000 
  X12.100000 Y32.100000 
  X12.400000 Y32.400000 
  X12.700000 Y32.700000 
  X13.000000 Y33.000000 
  X47.000000  
   Y47.000000 
  X13.000000  
   Y33.000000 
  X13.300000 Y33.200000 
  X13.600000 Y33.400000 
  X13.900000 Y33.600000 
  X14.200000 Y33.800000 
  X14.500000 Y34.000000 
  X14.800000 Y34.200000 
  X15.100000 Y34.400000 
  X15.400000 Y34.600000 
  X15.700000 Y34.800000 
  X16.000000 Y35.000000 
  X44.000000  
   Y45.000000 
  X16.000000  
   Y35.000000 
  X16.300000 Y35.000000 
  X16.600000  
  X16.900000 Y35.000000 
  X17.200000  
  X17.500000  
  X17.800000  
  X18.100000  
  X18.400000  
  X18.700000  
  X19.000000  
  X41.000000  
   Y45.000000 
  X19.000000  
   Y35.000000 
  X19.100000 Y35.000000 
  X19.200000  
  X19.300000 Y35.000000 
  X19.400000  
  X19.500000  
  X19.600000  
  X19.700000  
  X19.800000  
  X19.900000  
  X20.000000  
  X40.000000  
   Y45.000000 
  X20.000000  
   Y35.000000 
(rapid to: no name)
G00 Z20
G00 X20.000000 Y-20.000000
G00 Z0.000000
(no name)
G01 X40.000000  
   Y20.000000 
  X20.000000  
   Y-20.000000 
  X20.300000 Y-19.700000 
  X20.600000 Y-19.400000 
  X20.900000 Y-19.100000 
  X21.200000 Y-18.800000 
  X21.500000 Y-18.500000 
  X21.800000 Y-18.200000 
  X22.100000 Y-17.900000 
  X22.400000 Y-17.600000 
  X22.700000 Y-17.300000 
  X23.000000 Y-17.000000 
  X37.000000  
   Y17.000000 
  X23.000000  
   Y-17.000000 
  X23.300000 Y-16.700000 
  X23.600000 Y-16.400000 
  X23.900000 Y-16.100000 
  X24.200000 Y-15.800000 
  X24.500000 Y-15.500000 
  X24.800000 Y-15.200000 
  X25.100000 Y-14.900000 
  X25.400000 Y-14.600000 
  X25.700000 Y-14.300000 
  X26.000000 Y-14.000000 
  X34.000000  
   Y14.000000 
  X26.000000  
   Y-14.000000 
  X26.200000 Y-13.800000 
  X26.400000 Y-13.600000 
  X26.600000 Y-13.400000 
  X26.800000 Y-13.200000 
  X27.000000 Y-13.000000 
  X27.200000 Y-12.800000 
  X27.400000 Y-12.600000 
  X27.600000 Y-12.400000 
  X27.800000 Y-12.200000 
  X28.000000 Y-12.000000 
  X32.000000  
   Y12.000000 
  X28.000000  
   Y-12.000000 
(rapid to: no name)
G00 Z20
G00 X20.000000 Y-70.000000
G00 Z0.000000
(no name)
G01 X40.000000  
   Y-30.000000 
  X20.000000  
   Y-70.000000 
  X20.300000 Y-69.700000 
  X20.600000 Y-69.400000 
  X20.900000 Y-69.100000 
  X21.200000 Y-68.800000 
  X21.500000 Y-68.500000 
  X21.800000 Y-68.200000 
  X22.100000 Y-67.900000 
  X22.400000 Y-67.600000 
  X22.700000 Y-67.300000 
  X23.000000 Y-67.000000 
  X37.000000  
   Y-33.000000 
  X23.000000  
   Y-67.000000 
  X23.200000 Y-66.700000 
  X23.400000 Y-66.400000 
  X23.600000 Y-66.100000 
  X23.800000 Y-65.800000 
  X24.000000 Y-65.500000 
  X24.200000 Y-65.200000 
  X24.400000 Y-64.900000 
  X24.600000 Y-64.600000 
  X24.800000 Y-64.300000 
  X25.000000 Y-64.000000 
  X35.000000  
   Y-36.000000 
  X25.000000  
   Y-64.000000 
   Y-63.700000 
  X25.000000 Y-63.400000 
  X25.000000 Y-63.100000 
   Y-62.800000 
   Y-62.500000 
   Y-62.200000 
   Y-61.900000 
   Y-61.600000 
   Y-61.300000 
   Y-61.000000 
  X35.000000  
   Y-39.000000 
  X25.000000  
   Y-61.000000 
   Y-60.900000 
  X25.000000 Y-60.800000 
  X25.000000 Y-60.700000 
   Y-60.600000 
   Y-60.500000 
   Y-60.400000 
   Y-60.300000 
   Y-60.200000 
   Y-60.100000 
   Y-60.000000 
  X35.000000  
   Y-40.000000 
  X25.000000  
   Y-60.000000 
(rapid to: no name)
G00 Z20
G00 X60.000000 Y30.000000
G00 Z0.000000
(no name)
G01 X100.000000  
   Y50.000000 
  X60.000000  
   Y30.000000 
  X60.300000 Y30.300000 
  X60.600000 Y30.600000 
  X60.900000 Y30.900000 
  X61.200000 Y31.200000 
  X61.500000 Y31.500000 
  X61.800000 Y31.800000 
  X62.100000 Y32.100000 
  X62.400000 Y32.400000 
  X62.700000 Y32.700000 
  X63.000000 Y33.000000 
  X97.000000  
   Y47.000000 
  X63.000000  
   Y33.000000 
  X63.300000 Y33.200000 
  X63.600000 Y33.400000 
  X63.900000 Y33.600000 
  X64.200000 Y33.800000 
  X64.500000 Y34.000000 
  X64.800000 Y34.200000 
  X65.100000 Y34.400000 
  X65.400000 Y34.600000 
  X65.700000 Y34.800000 
  X66.000000 Y35.000000 
  X94.000000  
   Y45.000000 
  X66.000000  
   Y35.000000 
  X66.300000 Y35.000000 
  X66.600000  
  X66.900000 Y35.000000 
  X67.200000  
  X67.500000  
  X67.800000  
  X68.100000  
  X68.400000  
  X68.700000  
  X69.000000  
  X91.000000  
   Y45.000000 
  X69.000000  
   Y35.000000 
  X69.100000 Y35.000000 
  X69.200000  
  X69.300000 Y35.000000 
  X69.400000  
  X69.500000  
  X69.600000  
  X69.700000  
  X69.800000  
  X69.900000  
  X70.000000  
  X90.000000  
   Y45.000000 
  X70.000000  
   Y35.000000 
(rapid to: no name)
G00 Z20
G00 X70.000000 Y-20.000000
G00 Z0.000000
(no name)
G01 X90.000000  
   Y20.000000 
  X70.000000  
   Y-20.000000 
  X70.300000 Y-19.700000 
  X70.600000 Y-19.400000 
  X70.900000 Y-19.100000 
  X71.200000 Y-18.800000 
  X71.500000 Y-18.500000 
  X71.800000 Y-18.200000 
  X72.100000 Y-17.900000 
  X72.400000 Y-17.600000 
  X72.700000 Y-17.300000 
  X73.000000 Y-17.000000 
  X87.000000  
   Y17.000000 
  X73.000000  
   Y-17.000000 
  X73.300000 Y-16.700000 
  X73.600000 Y-16.400000 
  X73.900000 Y-16.100000 
  X74.200000 Y-15.800000 
  X74.500000 Y-15.500000 
  X74.800000 Y-15.200000 
  X75.100000 Y-14.900000 
  X75.400000 Y-14.600000 
  X75.700000 Y-14.300000 
  X76.000000 Y-14.000000 
  X84.000000  
   Y14.000000 
  X76.000000  
   Y-14.000000 
  X76.200000 Y-13.800000 
  X76.400000 Y-13.600000 
  X76.600000 Y-13.400000 
  X76.800000 Y-13.200000 
  X77.000000 Y-13.000000 
  X77.200000 Y-12.800000 
  X77.400000 Y-12.600000 
  X77.600000 Y-12.400000 
  X77.800000 Y-12.200000 
  X78.000000 Y-12.000000 
  X82.000000  
   Y12.000000 
  X78.000000  
   Y-12.000000 
(rapid to: no name)
G00 Z20
G00 X70.000000 Y-70.000000
G00 Z0.000000
(no name)
G01 X90.000000  
   Y-30.000000 
  X70.000000  
   Y-70.000000 
  X70.300000 Y-69.700000 
  X70.600000 Y-69.400000 
  X70.900000 Y-69.100000 
  X71.200000 Y-68.800000 
  X71.500000 Y-68.500000 
  X71.800000 Y-68.200000 
  X72.100000 Y-67.900000 
  X72.400000 Y-67.600000 
  X72.700000 Y-67.300000 
  X73.000000 Y-67.000000 
  X87.000000  
   Y-33.000000 
  X73.000000  
   Y-67.000000 
  X73.200000 Y-66.700000 
  X73.400000 Y-66.400000 
  X73.600000 Y-66.100000 
  X73.800000 Y-65.800000 
  X74.000000 Y-65.500000 
  X74.200000 Y-65.200000 
  X74.400000 Y-64.900000 
  X74.600000 Y-64.600000 
  X74.800000 Y-64.300000 
  X75.000000 Y-64.000000 
  X85.000000  
   Y-36.000000 
  X75.000000  
   Y-64.000000 
  X75.000000 Y-63.700000 
   Y-63.400000 
  X75.000000 Y-63.100000 
   Y-62.800000 
   Y-62.500000 
   Y-62.200000 
   Y-61.900000 
   Y-61.600000 
   Y-61.300000 
   Y-61.000000 
  X85.000000  
   Y-39.000000 
  X75.000000  
   Y-61.000000 
  X75.000000 Y-60.900000 
   Y-60.800000 
  X75.000000 Y-60.700000 
   Y-60.600000 
   Y-60.500000 
   Y-60.400000 
   Y-60.300000 
   Y-60.200000 
   Y-60.100000 
   Y-60.000000 
  X85.000000  
   Y-40.000000 
  X75.000000  
   Y-60.000000 
(rapid to: no name)
G00 Z20
G00 X-10.000000 Y30.000000
G00 Z0.000000
(no name)
G01 X-50.000000  
   Y50.000000 
  X-10.000000  
   Y30.000000 
  X-10.300000 Y29.700000 
  X-10.600000 Y29.400000 
  X-10.900000 Y29.100000 
  X-11.200000 Y28.800000 
  X-11.500000 Y28.500000 
  X-11.800000 Y28.200000 
  X-12.100000 Y27.900000 
  X-12.400000 Y27.600000 
  X-12.700000 Y27.300000 
  X-13.000000 Y27.000000 
  X-47.000000  
   Y53.000000 
  X-13.000000  
   Y27.000000 
  X-13.300000 Y26.800000 
  X-13.600000 Y26.600000 
  X-13.900000 Y26.400000 
  X-14.200000 Y26.200000 
  X-14.500000 Y26.000000 
  X-14.800000 Y25.800000 
  X-15.100000 Y25.600000 
  X-15.400000 Y25.400000 
  X-15.700000 Y25.200000 
  X-16.000000 Y25.000000 
  X-44.000000  
   Y55.000000 
  X-16.000000  
   Y25.000000 
  X-16.300000  
  X-16.600000 Y25.000000 
  X-16.900000 Y25.000000 
  X-17.200000  
  X-17.500000  
  X-17.800000  
  X-18.100000  
  X-18.400000  
  X-18.700000  
  X-19.000000  
  X-41.000000  
   Y55.000000 
  X-19.000000  
   Y25.000000 
  X-19.100000  
  X-19.200000 Y25.000000 
  X-19.300000 Y25.000000 
  X-19.400000  
  X-19.500000  
  X-19.600000  
  X-19.700000  
  X-19.800000  
  X-19.900000  
  X-20.000000  
  X-40.000000  
   Y55.000000 
  X-20.000000  
   Y25.000000 
(rapid to: no name)
G00 Z20
G00 X-20.000000 Y-20.000000
G00 Z0.000000
(no name)
G01 X-40.000000  
   Y20.000000 
  X-20.000000  
   Y-20.000000 
  X-19.700000 Y-19.700000 
  X-19.400000 Y-19.400000 
  X-19.100000 Y-19.100000 
  X-18.800000 Y-18.800000 
  X-18.500000 Y-18.500000 
  X-18.200000 Y-18.200000 
  X-17.900000 Y-17.900000 
  X-17.600000 Y-17.600000 
  X-17.300000 Y-17.300000 
  X-17.000000 Y-17.000000 
  X-43.000000  
   Y17.000000 
  X-17.000000  
   Y-17.000000 
  X-16.700000 Y-16.700000 
  X-16.400000 Y-16.400000 
  X-16.100000 Y-16.100000 
  X-15.800000 Y-15.800000 
  X-15.500000 Y-15.500000 
  X-15.200000 Y-15.200000 
  X-14.900000 Y-14.900000 
  X-14.600000 Y-14.600000 
  X-14.300000 Y-14.300000 
  X-14.000000 Y-14.000000 
  X-46.000000  
   Y14.000000 
  X-14.000000  
   Y-14.000000 
  X-13.800000 Y-13.800000 
  X-13.600000 Y-13.600000 
  X-13.400000 Y-13.400000 
  X-13.200000 Y-13.200000 
  X-13.000000 Y-13.000000 
  X-12.800000 Y-12.800000 
  X-12.600000 Y-12.600000 
  X-12.400000 Y-12.400000 
  X-12.200000 Y-12.200000 
  X-12.000000 Y-12.000000 
  X-48.000000  
   Y12.000000 
  X-12.000000  
   Y-12.000000 
(rapid to: no name)
G00 Z20
G00 X-20.000000 Y-70.000000
G00 Z0.000000
(no name)
G01 X-40.000000  
   Y-30.000000 
  X-20.000000  
   Y-70.000000 
  X-19.700000 Y-69.700000 
  X-19.400000 Y-69.400000 
  X-19.100000 Y-69.100000 
  X-18.800000 Y-68.800000 
  X-18.500000 Y-68.500000 
  X-18.200000 Y-68.200000 
  X-17.900000 Y-67.900000 
  X-17.600000 Y-67.600000 
  X-17.300000 Y-67.300000 
  X-17.000000 Y-67.000000 
  X-43.000000  
   Y-33.000000 
  X-17.000000  
   Y-67.000000 
  X-16.800000 Y-66.700000 
  X-16.600000 Y-66.400000 
  X-16.400000 Y-66.100000 
  X-16.200000 Y-65.800000 
  X-16.000000 Y-65.500000 
  X-15.800000 Y-65.200000 
  X-15.600000 Y-64.900000 
  X-15.400000 Y-64.600000 
  X-15.200000 Y-64.300000 
  X-15.000000 Y-64.000000 
  X-45.000000  
   Y-36.000000 
  X-15.000000  
   Y-64.000000 
  X-15.000000 Y-63.700000 
   Y-63.400000 
  X-15.000000 Y-63.100000 
   Y-62.800000 
  X-15.000000 Y-62.500000 
   Y-62.200000 
   Y-61.900000 
   Y-61.600000 
   Y-61.300000 
   Y-61.000000 
  X-45.000000  
   Y-39.000000 
  X-15.000000  
   Y-61.000000 
  X-15.000000 Y-60.900000 
   Y-60.800000 
  X-15.000000 Y-60.700000 
   Y-60.600000 
  X-15.000000 Y-60.500000 
   Y-60.400000 
   Y-60.300000 
   Y-60.200000 
   Y-60.100000 
   Y-60.000000 
  X-45.000000  
   Y-40.000000 
  X-15.000000  
   Y-60.000000 
(rapid to: no name)
G00 Z20
G00 X55.000000 Y-90.000000
G00 Z0.000000
(no name)
G01  Y-50.000000 
   Y-90.000000 
  X55.300000 Y-89.700000 
  X55.600000 Y-89.400000 
  X55.900000 Y-89.100000 
  X56.200000 Y-88.800000 
  X56.500000 Y-88.500000 
  X56.800000 Y-88.200000 
  X57.100000 Y-87.900000 
  X57.400000 Y-87.600000 
  X57.700000 Y-87.300000 
  X58.000000 Y-87.000000 
  X52.000000  
   Y-53.000000 
  X58.000000  
   Y-87.000000 
  X58.200000 Y-86.700000 
  X58.400000 Y-86.400000 
  X58.600000 Y-86.100000 
  X58.800000 Y-85.800000 
  X59.000000 Y-85.500000 
  X59.200000 Y-85.200000 
  X59.400000 Y-84.900000 
  X59.600000 Y-84.600000 
  X59.800000 Y-84.300000 
  X60.000000 Y-84.000000 
  X50.000000  
   Y-56.000000 
  X60.000000  
   Y-84.000000 
  X60.000000 Y-83.700000 
   Y-83.400000 
  X60.000000 Y-83.100000 
   Y-82.800000 
  X60.000000 Y-82.500000 
   Y-82.200000 
   Y-81.900000 
   Y-81.600000 
   Y-81.300000 
   Y-81.000000 
  X50.000000  
   Y-59.000000 
  X60.000000  
   Y-81.000000 
  X60.000000 Y-80.900000 
   Y-80.800000 
  X60.000000 Y-80.700000 
   Y-80.600000 
  X60.000000 Y-80.500000 
   Y-80.400000 
   Y-80.300000 
   Y-80.200000 
   Y-80.100000 
   Y-80.000000 
  X50.000000  
   Y-60.000000 
  X60.000000  
   Y-80.000000 
(END)
G00 Z20

M02
