G21       (units are millimeters)
G94       (feedrate in 'units' per minute)
G17       (working in/on xy-plane)
G64 P0.05 (LinuxCNC, continuous mode with 'p' as tolerance)

G54       (use first WCS)

(DEBUG,CHECK WCS NOW!)
M0        (pause and display message)
G4 P1     (wait for 1 second)

T1 M6     (select first tool)
S8000 M03
G04 P3    (wait for 3 seconds)

G43 H1    (set tool offset)

(DEBUG,CHECK TOOL OFFSET NOW!)
M0        (pause and display message)
G4 P1     (wait for 1 second)

F900

(rapid to: no name)
G00 Z5
G00 X-20.500000 Y0.000000
G00 Z0.500000
(no name)
G03 X-19.500000 Y0.000000 Z0.375000 R0.500000
  X-20.500000 Y0.000000 Z0.250000 R0.500000
  X-19.500000 Y0.000000 Z0.125000 R0.500000
  X-20.500000 Y0.000000 Z0.000000 R0.500000
  X-19.500000 Y0.000000 Z-0.125000 R0.500000
  X-20.500000 Y0.000000 Z-0.250000 R0.500000
  X-19.500000 Y0.000000 Z-0.375000 R0.500000
  X-20.500000 Y0.000000 Z-0.500000 R0.500000
  X-19.500000 Y0.000000 Z-0.500000 R0.500000
  X-20.500000 Y0.000000 Z-0.500000 R0.500000
G02 X-20.625000 Y0.000000 Z-0.500000 R0.062500
G03 X-20.750000 Y0.000000 Z-0.500000 R0.062500
  X-19.250000 Y0.000000 Z-0.500000 R0.750000
  X-20.750000 Y0.000000 Z-0.500000 R0.750000
G02 X-20.875000 Y0.000000 Z-0.500000 R0.062500
G03 X-21.000000 Y0.000000 Z-0.500000 R0.062500
  X-19.000000 Y0.000000 Z-0.500000 R1.000000
  X-21.000000 Y0.000000 Z-0.500000 R1.000000
G02 X-21.125000 Y0.000000 Z-0.500000 R0.062500
G03 X-21.250000 Y0.000000 Z-0.500000 R0.062500
  X-18.750000 Y0.000000 Z-0.500000 R1.250000
  X-21.250000 Y0.000000 Z-0.500000 R1.250000
  X-20.875000 Y0.000000 Z0.000000 R0.187500
G02 X-20.500000 Y0.000000 Z0.000000 R0.187500
G03 X-19.500000 Y0.000000 Z-0.125000 R0.500000
  X-20.500000 Y0.000000 Z-0.250000 R0.500000
  X-19.500000 Y0.000000 Z-0.375000 R0.500000
  X-20.500000 Y0.000000 Z-0.500000 R0.500000
  X-19.500000 Y0.000000 Z-0.625000 R0.500000
  X-20.500000 Y0.000000 Z-0.750000 R0.500000
  X-19.500000 Y0.000000 Z-0.875000 R0.500000
  X-20.500000 Y0.000000 Z-1.000000 R0.500000
  X-19.500000 Y0.000000 Z-1.000000 R0.500000
  X-20.500000 Y0.000000 Z-1.000000 R0.500000
G02 X-20.625000 Y0.000000 Z-1.000000 R0.062500
G03 X-20.750000 Y0.000000 Z-1.000000 R0.062500
  X-19.250000 Y0.000000 Z-1.000000 R0.750000
  X-20.750000 Y0.000000 Z-1.000000 R0.750000
G02 X-20.875000 Y0.000000 Z-1.000000 R0.062500
G03 X-21.000000 Y0.000000 Z-1.000000 R0.062500
  X-19.000000 Y0.000000 Z-1.000000 R1.000000
  X-21.000000 Y0.000000 Z-1.000000 R1.000000
G02 X-21.125000 Y0.000000 Z-1.000000 R0.062500
G03 X-21.250000 Y0.000000 Z-1.000000 R0.062500
  X-18.750000 Y0.000000 Z-1.000000 R1.250000
  X-21.250000 Y0.000000 Z-1.000000 R1.250000
  X-20.875000 Y0.000000 Z-0.500000 R0.187500
G02 X-20.500000 Y0.000000 Z-0.500000 R0.187500
G03 X-19.500000 Y0.000000 Z-0.625000 R0.500000
  X-20.500000 Y0.000000 Z-0.750000 R0.500000
  X-19.500000 Y0.000000 Z-0.875000 R0.500000
  X-20.500000 Y0.000000 Z-1.000000 R0.500000
  X-19.500000 Y0.000000 Z-1.125000 R0.500000
  X-20.500000 Y0.000000 Z-1.250000 R0.500000
  X-19.500000 Y0.000000 Z-1.375000 R0.500000
  X-20.500000 Y0.000000 Z-1.500000 R0.500000
  X-19.500000 Y0.000000 Z-1.500000 R0.500000
  X-20.500000 Y0.000000 Z-1.500000 R0.500000
G02 X-20.625000 Y0.000000 Z-1.500000 R0.062500
G03 X-20.750000 Y0.000000 Z-1.500000 R0.062500
  X-19.250000 Y0.000000 Z-1.500000 R0.750000
  X-20.750000 Y0.000000 Z-1.500000 R0.750000
G02 X-20.875000 Y0.000000 Z-1.500000 R0.062500
G03 X-21.000000 Y0.000000 Z-1.500000 R0.062500
  X-19.000000 Y0.000000 Z-1.500000 R1.000000
  X-21.000000 Y0.000000 Z-1.500000 R1.000000
G02 X-21.125000 Y0.000000 Z-1.500000 R0.062500
G03 X-21.250000 Y0.000000 Z-1.500000 R0.062500
  X-18.750000 Y0.000000 Z-1.500000 R1.250000
  X-21.250000 Y0.000000 Z-1.500000 R1.250000
  X-20.875000 Y0.000000 Z-1.000000 R0.187500
G02 X-20.500000 Y0.000000 Z-1.000000 R0.187500
G03 X-19.500000 Y0.000000 Z-1.125000 R0.500000
  X-20.500000 Y0.000000 Z-1.250000 R0.500000
  X-19.500000 Y0.000000 Z-1.375000 R0.500000
  X-20.500000 Y0.000000 Z-1.500000 R0.500000
  X-19.500000 Y0.000000 Z-1.625000 R0.500000
  X-20.500000 Y0.000000 Z-1.750000 R0.500000
  X-19.500000 Y0.000000 Z-1.875000 R0.500000
  X-20.500000 Y0.000000 Z-2.000000 R0.500000
  X-19.500000 Y0.000000 Z-2.000000 R0.500000
  X-20.500000 Y0.000000 Z-2.000000 R0.500000
G02 X-20.625000 Y0.000000 Z-2.000000 R0.062500
G03 X-20.750000 Y0.000000 Z-2.000000 R0.062500
  X-19.250000 Y0.000000 Z-2.000000 R0.750000
  X-20.750000 Y0.000000 Z-2.000000 R0.750000
G02 X-20.875000 Y0.000000 Z-2.000000 R0.062500
G03 X-21.000000 Y0.000000 Z-2.000000 R0.062500
  X-19.000000 Y0.000000 Z-2.000000 R1.000000
  X-21.000000 Y0.000000 Z-2.000000 R1.000000
G02 X-21.125000 Y0.000000 Z-2.000000 R0.062500
G03 X-21.250000 Y0.000000 Z-2.000000 R0.062500
  X-18.750000 Y0.000000 Z-2.000000 R1.250000
  X-21.250000 Y0.000000 Z-2.000000 R1.250000
  X-20.875000 Y0.000000 Z-1.500000 R0.187500
G02 X-20.500000 Y0.000000 Z-1.500000 R0.187500
G03 X-19.500000 Y0.000000 Z-1.625000 R0.500000
  X-20.500000 Y0.000000 Z-1.750000 R0.500000
  X-19.500000 Y0.000000 Z-1.875000 R0.500000
  X-20.500000 Y0.000000 Z-2.000000 R0.500000
  X-19.500000 Y0.000000 Z-2.125000 R0.500000
  X-20.500000 Y0.000000 Z-2.250000 R0.500000
  X-19.500000 Y0.000000 Z-2.375000 R0.500000
  X-20.500000 Y0.000000 Z-2.500000 R0.500000
  X-19.500000 Y0.000000 Z-2.500000 R0.500000
  X-20.500000 Y0.000000 Z-2.500000 R0.500000
G02 X-20.625000 Y0.000000 Z-2.500000 R0.062500
G03 X-20.750000 Y0.000000 Z-2.500000 R0.062500
  X-19.250000 Y0.000000 Z-2.500000 R0.750000
  X-20.750000 Y0.000000 Z-2.500000 R0.750000
G02 X-20.875000 Y0.000000 Z-2.500000 R0.062500
G03 X-21.000000 Y0.000000 Z-2.500000 R0.062500
  X-19.000000 Y0.000000 Z-2.500000 R1.000000
  X-21.000000 Y0.000000 Z-2.500000 R1.000000
G02 X-21.125000 Y0.000000 Z-2.500000 R0.062500
G03 X-21.250000 Y0.000000 Z-2.500000 R0.062500
  X-18.750000 Y0.000000 Z-2.500000 R1.250000
  X-21.250000 Y0.000000 Z-2.500000 R1.250000
  X-20.875000 Y0.000000 Z-2.000000 R0.187500
G02 X-20.500000 Y0.000000 Z-2.000000 R0.187500
G03 X-19.500000 Y0.000000 Z-2.125000 R0.500000
  X-20.500000 Y0.000000 Z-2.250000 R0.500000
  X-19.500000 Y0.000000 Z-2.375000 R0.500000
  X-20.500000 Y0.000000 Z-2.500000 R0.500000
  X-19.500000 Y0.000000 Z-2.625000 R0.500000
  X-20.500000 Y0.000000 Z-2.750000 R0.500000
  X-19.500000 Y0.000000 Z-2.875000 R0.500000
  X-20.500000 Y0.000000 Z-3.000000 R0.500000
  X-19.500000 Y0.000000 Z-3.000000 R0.500000
  X-20.500000 Y0.000000 Z-3.000000 R0.500000
G02 X-20.625000 Y0.000000 Z-3.000000 R0.062500
G03 X-20.750000 Y0.000000 Z-3.000000 R0.062500
  X-19.250000 Y0.000000 Z-3.000000 R0.750000
  X-20.750000 Y0.000000 Z-3.000000 R0.750000
G02 X-20.875000 Y0.000000 Z-3.000000 R0.062500
G03 X-21.000000 Y0.000000 Z-3.000000 R0.062500
  X-19.000000 Y0.000000 Z-3.000000 R1.000000
  X-21.000000 Y0.000000 Z-3.000000 R1.000000
G02 X-21.125000 Y0.000000 Z-3.000000 R0.062500
G03 X-21.250000 Y0.000000 Z-3.000000 R0.062500
  X-18.750000 Y0.000000 Z-3.000000 R1.250000
  X-21.250000 Y0.000000 Z-3.000000 R1.250000
  X-20.875000 Y0.000000 Z-2.500000 R0.187500
G02 X-20.500000 Y0.000000 Z-2.500000 R0.187500
G03 X-19.500000 Y0.000000 Z-2.625000 R0.500000
  X-20.500000 Y0.000000 Z-2.750000 R0.500000
  X-19.500000 Y0.000000 Z-2.875000 R0.500000
  X-20.500000 Y0.000000 Z-3.000000 R0.500000
  X-19.500000 Y0.000000 Z-3.125000 R0.500000
  X-20.500000 Y0.000000 Z-3.250000 R0.500000
  X-19.500000 Y0.000000 Z-3.375000 R0.500000
  X-20.500000 Y0.000000 Z-3.500000 R0.500000
  X-19.500000 Y0.000000 Z-3.500000 R0.500000
  X-20.500000 Y0.000000 Z-3.500000 R0.500000
G02 X-20.625000 Y0.000000 Z-3.500000 R0.062500
G03 X-20.750000 Y0.000000 Z-3.500000 R0.062500
  X-19.250000 Y0.000000 Z-3.500000 R0.750000
  X-20.750000 Y0.000000 Z-3.500000 R0.750000
G02 X-20.875000 Y0.000000 Z-3.500000 R0.062500
G03 X-21.000000 Y0.000000 Z-3.500000 R0.062500
  X-19.000000 Y0.000000 Z-3.500000 R1.000000
  X-21.000000 Y0.000000 Z-3.500000 R1.000000
G02 X-21.125000 Y0.000000 Z-3.500000 R0.062500
G03 X-21.250000 Y0.000000 Z-3.500000 R0.062500
  X-18.750000 Y0.000000 Z-3.500000 R1.250000
  X-21.250000 Y0.000000 Z-3.500000 R1.250000
  X-20.875000 Y0.000000 Z-3.000000 R0.187500
G02 X-20.500000 Y0.000000 Z-3.000000 R0.187500
G03 X-19.500000 Y0.000000 Z-3.125000 R0.500000
  X-20.500000 Y0.000000 Z-3.250000 R0.500000
  X-19.500000 Y0.000000 Z-3.375000 R0.500000
  X-20.500000 Y0.000000 Z-3.500000 R0.500000
  X-19.500000 Y0.000000 Z-3.625000 R0.500000
  X-20.500000 Y0.000000 Z-3.750000 R0.500000
  X-19.500000 Y0.000000 Z-3.875000 R0.500000
  X-20.500000 Y0.000000 Z-4.000000 R0.500000
  X-19.500000 Y0.000000 Z-4.000000 R0.500000
  X-20.500000 Y0.000000 Z-4.000000 R0.500000
G02 X-20.625000 Y0.000000 Z-4.000000 R0.062500
G03 X-20.750000 Y0.000000 Z-4.000000 R0.062500
  X-19.250000 Y0.000000 Z-4.000000 R0.750000
  X-20.750000 Y0.000000 Z-4.000000 R0.750000
G02 X-20.875000 Y0.000000 Z-4.000000 R0.062500
G03 X-21.000000 Y0.000000 Z-4.000000 R0.062500
  X-19.000000 Y0.000000 Z-4.000000 R1.000000
  X-21.000000 Y0.000000 Z-4.000000 R1.000000
G02 X-21.125000 Y0.000000 Z-4.000000 R0.062500
G03 X-21.250000 Y0.000000 Z-4.000000 R0.062500
  X-18.750000 Y0.000000 Z-4.000000 R1.250000
  X-21.250000 Y0.000000 Z-4.000000 R1.250000
  X-20.875000 Y0.000000 Z-3.500000 R0.187500
G02 X-20.500000 Y0.000000 Z-3.500000 R0.187500
G03 X-19.500000 Y0.000000 Z-3.625000 R0.500000
  X-20.500000 Y0.000000 Z-3.750000 R0.500000
  X-19.500000 Y0.000000 Z-3.875000 R0.500000
  X-20.500000 Y0.000000 Z-4.000000 R0.500000
  X-19.500000 Y0.000000 Z-4.125000 R0.500000
  X-20.500000 Y0.000000 Z-4.250000 R0.500000
  X-19.500000 Y0.000000 Z-4.375000 R0.500000
  X-20.500000 Y0.000000 Z-4.500000 R0.500000
  X-19.500000 Y0.000000 Z-4.500000 R0.500000
  X-20.500000 Y0.000000 Z-4.500000 R0.500000
G02 X-20.625000 Y0.000000 Z-4.500000 R0.062500
G03 X-20.750000 Y0.000000 Z-4.500000 R0.062500
  X-19.250000 Y0.000000 Z-4.500000 R0.750000
  X-20.750000 Y0.000000 Z-4.500000 R0.750000
G02 X-20.875000 Y0.000000 Z-4.500000 R0.062500
G03 X-21.000000 Y0.000000 Z-4.500000 R0.062500
  X-19.000000 Y0.000000 Z-4.500000 R1.000000
  X-21.000000 Y0.000000 Z-4.500000 R1.000000
G02 X-21.125000 Y0.000000 Z-4.500000 R0.062500
G03 X-21.250000 Y0.000000 Z-4.500000 R0.062500
  X-18.750000 Y0.000000 Z-4.500000 R1.250000
  X-21.250000 Y0.000000 Z-4.500000 R1.250000
  X-20.875000 Y0.000000 Z-4.000000 R0.187500
G02 X-20.500000 Y0.000000 Z-4.000000 R0.187500
G03 X-19.500000 Y0.000000 Z-4.125000 R0.500000
  X-20.500000 Y0.000000 Z-4.250000 R0.500000
  X-19.500000 Y0.000000 Z-4.375000 R0.500000
  X-20.500000 Y0.000000 Z-4.500000 R0.500000
  X-19.500000 Y0.000000 Z-4.625000 R0.500000
  X-20.500000 Y0.000000 Z-4.750000 R0.500000
  X-19.500000 Y0.000000 Z-4.875000 R0.500000
  X-20.500000 Y0.000000 Z-5.000000 R0.500000
  X-19.500000 Y0.000000 Z-5.000000 R0.500000
  X-20.500000 Y0.000000 Z-5.000000 R0.500000
G02 X-20.625000 Y0.000000 Z-5.000000 R0.062500
G03 X-20.750000 Y0.000000 Z-5.000000 R0.062500
  X-19.250000 Y0.000000 Z-5.000000 R0.750000
  X-20.750000 Y0.000000 Z-5.000000 R0.750000
G02 X-20.875000 Y0.000000 Z-5.000000 R0.062500
G03 X-21.000000 Y0.000000 Z-5.000000 R0.062500
  X-19.000000 Y0.000000 Z-5.000000 R1.000000
  X-21.000000 Y0.000000 Z-5.000000 R1.000000
G02 X-21.125000 Y0.000000 Z-5.000000 R0.062500
G03 X-21.250000 Y0.000000 Z-5.000000 R0.062500
  X-18.750000 Y0.000000 Z-5.000000 R1.250000
  X-21.250000 Y0.000000 Z-5.000000 R1.250000
  X-20.875000 Y0.000000 Z-4.500000 R0.187500
G02 X-20.500000 Y0.000000 Z-4.500000 R0.187500
G03 X-19.500000 Y0.000000 Z-4.625000 R0.500000
  X-20.500000 Y0.000000 Z-4.750000 R0.500000
  X-19.500000 Y0.000000 Z-4.875000 R0.500000
  X-20.500000 Y0.000000 Z-5.000000 R0.500000
  X-19.500000 Y0.000000 Z-5.125000 R0.500000
  X-20.500000 Y0.000000 Z-5.250000 R0.500000
  X-19.500000 Y0.000000 Z-5.375000 R0.500000
  X-20.500000 Y0.000000 Z-5.500000 R0.500000
  X-19.500000 Y0.000000 Z-5.500000 R0.500000
  X-20.500000 Y0.000000 Z-5.500000 R0.500000
G02 X-20.625000 Y0.000000 Z-5.500000 R0.062500
G03 X-20.750000 Y0.000000 Z-5.500000 R0.062500
  X-19.250000 Y0.000000 Z-5.500000 R0.750000
  X-20.750000 Y0.000000 Z-5.500000 R0.750000
G02 X-20.875000 Y0.000000 Z-5.500000 R0.062500
G03 X-21.000000 Y0.000000 Z-5.500000 R0.062500
  X-19.000000 Y0.000000 Z-5.500000 R1.000000
  X-21.000000 Y0.000000 Z-5.500000 R1.000000
G02 X-21.125000 Y0.000000 Z-5.500000 R0.062500
G03 X-21.250000 Y0.000000 Z-5.500000 R0.062500
  X-18.750000 Y0.000000 Z-5.500000 R1.250000
  X-21.250000 Y0.000000 Z-5.500000 R1.250000
  X-20.500000 Y0.000000 Z0.500000 R0.375000
(rapid to: no name)
G00 Z5
G00 X-10.500000 Y0.000000
G00 Z0.500000
(no name)
G02 X-9.500000 Y0.000000 Z0.375000 R0.500000
  X-10.500000 Y0.000000 Z0.250000 R0.500000
  X-9.500000 Y0.000000 Z0.125000 R0.500000
  X-10.500000 Y0.000000 Z0.000000 R0.500000
  X-9.500000 Y0.000000 Z-0.125000 R0.500000
  X-10.500000 Y0.000000 Z-0.250000 R0.500000
  X-9.500000 Y0.000000 Z-0.375000 R0.500000
  X-10.500000 Y0.000000 Z-0.500000 R0.500000
  X-9.500000 Y0.000000 Z-0.500000 R0.500000
  X-10.500000 Y0.000000 Z-0.500000 R0.500000
G03 X-10.625000 Y0.000000 Z-0.500000 R0.062500
G02 X-10.750000 Y0.000000 Z-0.500000 R0.062500
  X-9.250000 Y0.000000 Z-0.500000 R0.750000
  X-10.750000 Y0.000000 Z-0.500000 R0.750000
G03 X-10.875000 Y0.000000 Z-0.500000 R0.062500
G02 X-11.000000 Y0.000000 Z-0.500000 R0.062500
  X-9.000000 Y0.000000 Z-0.500000 R1.000000
  X-11.000000 Y0.000000 Z-0.500000 R1.000000
G03 X-11.125000 Y0.000000 Z-0.500000 R0.062500
G02 X-11.250000 Y0.000000 Z-0.500000 R0.062500
  X-8.750000 Y0.000000 Z-0.500000 R1.250000
  X-11.250000 Y0.000000 Z-0.500000 R1.250000
  X-10.875000 Y0.000000 Z0.000000 R0.187500
G03 X-10.500000 Y0.000000 Z0.000000 R0.187500
G02 X-9.500000 Y0.000000 Z-0.125000 R0.500000
  X-10.500000 Y0.000000 Z-0.250000 R0.500000
  X-9.500000 Y0.000000 Z-0.375000 R0.500000
  X-10.500000 Y0.000000 Z-0.500000 R0.500000
  X-9.500000 Y0.000000 Z-0.625000 R0.500000
  X-10.500000 Y0.000000 Z-0.750000 R0.500000
  X-9.500000 Y0.000000 Z-0.875000 R0.500000
  X-10.500000 Y0.000000 Z-1.000000 R0.500000
  X-9.500000 Y0.000000 Z-1.000000 R0.500000
  X-10.500000 Y0.000000 Z-1.000000 R0.500000
G03 X-10.625000 Y0.000000 Z-1.000000 R0.062500
G02 X-10.750000 Y0.000000 Z-1.000000 R0.062500
  X-9.250000 Y0.000000 Z-1.000000 R0.750000
  X-10.750000 Y0.000000 Z-1.000000 R0.750000
G03 X-10.875000 Y0.000000 Z-1.000000 R0.062500
G02 X-11.000000 Y0.000000 Z-1.000000 R0.062500
  X-9.000000 Y0.000000 Z-1.000000 R1.000000
  X-11.000000 Y0.000000 Z-1.000000 R1.000000
G03 X-11.125000 Y0.000000 Z-1.000000 R0.062500
G02 X-11.250000 Y0.000000 Z-1.000000 R0.062500
  X-8.750000 Y0.000000 Z-1.000000 R1.250000
  X-11.250000 Y0.000000 Z-1.000000 R1.250000
  X-10.875000 Y0.000000 Z-0.500000 R0.187500
G03 X-10.500000 Y0.000000 Z-0.500000 R0.187500
G02 X-9.500000 Y0.000000 Z-0.625000 R0.500000
  X-10.500000 Y0.000000 Z-0.750000 R0.500000
  X-9.500000 Y0.000000 Z-0.875000 R0.500000
  X-10.500000 Y0.000000 Z-1.000000 R0.500000
  X-9.500000 Y0.000000 Z-1.125000 R0.500000
  X-10.500000 Y0.000000 Z-1.250000 R0.500000
  X-9.500000 Y0.000000 Z-1.375000 R0.500000
  X-10.500000 Y0.000000 Z-1.500000 R0.500000
  X-9.500000 Y0.000000 Z-1.500000 R0.500000
  X-10.500000 Y0.000000 Z-1.500000 R0.500000
G03 X-10.625000 Y0.000000 Z-1.500000 R0.062500
G02 X-10.750000 Y0.000000 Z-1.500000 R0.062500
  X-9.250000 Y0.000000 Z-1.500000 R0.750000
  X-10.750000 Y0.000000 Z-1.500000 R0.750000
G03 X-10.875000 Y0.000000 Z-1.500000 R0.062500
G02 X-11.000000 Y0.000000 Z-1.500000 R0.062500
  X-9.000000 Y0.000000 Z-1.500000 R1.000000
  X-11.000000 Y0.000000 Z-1.500000 R1.000000
G03 X-11.125000 Y0.000000 Z-1.500000 R0.062500
G02 X-11.250000 Y0.000000 Z-1.500000 R0.062500
  X-8.750000 Y0.000000 Z-1.500000 R1.250000
  X-11.250000 Y0.000000 Z-1.500000 R1.250000
  X-10.875000 Y0.000000 Z-1.000000 R0.187500
G03 X-10.500000 Y0.000000 Z-1.000000 R0.187500
G02 X-9.500000 Y0.000000 Z-1.125000 R0.500000
  X-10.500000 Y0.000000 Z-1.250000 R0.500000
  X-9.500000 Y0.000000 Z-1.375000 R0.500000
  X-10.500000 Y0.000000 Z-1.500000 R0.500000
  X-9.500000 Y0.000000 Z-1.625000 R0.500000
  X-10.500000 Y0.000000 Z-1.750000 R0.500000
  X-9.500000 Y0.000000 Z-1.875000 R0.500000
  X-10.500000 Y0.000000 Z-2.000000 R0.500000
  X-9.500000 Y0.000000 Z-2.000000 R0.500000
  X-10.500000 Y0.000000 Z-2.000000 R0.500000
G03 X-10.625000 Y0.000000 Z-2.000000 R0.062500
G02 X-10.750000 Y0.000000 Z-2.000000 R0.062500
  X-9.250000 Y0.000000 Z-2.000000 R0.750000
  X-10.750000 Y0.000000 Z-2.000000 R0.750000
G03 X-10.875000 Y0.000000 Z-2.000000 R0.062500
G02 X-11.000000 Y0.000000 Z-2.000000 R0.062500
  X-9.000000 Y0.000000 Z-2.000000 R1.000000
  X-11.000000 Y0.000000 Z-2.000000 R1.000000
G03 X-11.125000 Y0.000000 Z-2.000000 R0.062500
G02 X-11.250000 Y0.000000 Z-2.000000 R0.062500
  X-8.750000 Y0.000000 Z-2.000000 R1.250000
  X-11.250000 Y0.000000 Z-2.000000 R1.250000
  X-10.875000 Y0.000000 Z-1.500000 R0.187500
G03 X-10.500000 Y0.000000 Z-1.500000 R0.187500
G02 X-9.500000 Y0.000000 Z-1.625000 R0.500000
  X-10.500000 Y0.000000 Z-1.750000 R0.500000
  X-9.500000 Y0.000000 Z-1.875000 R0.500000
  X-10.500000 Y0.000000 Z-2.000000 R0.500000
  X-9.500000 Y0.000000 Z-2.125000 R0.500000
  X-10.500000 Y0.000000 Z-2.250000 R0.500000
  X-9.500000 Y0.000000 Z-2.375000 R0.500000
  X-10.500000 Y0.000000 Z-2.500000 R0.500000
  X-9.500000 Y0.000000 Z-2.500000 R0.500000
  X-10.500000 Y0.000000 Z-2.500000 R0.500000
G03 X-10.625000 Y0.000000 Z-2.500000 R0.062500
G02 X-10.750000 Y0.000000 Z-2.500000 R0.062500
  X-9.250000 Y0.000000 Z-2.500000 R0.750000
  X-10.750000 Y0.000000 Z-2.500000 R0.750000
G03 X-10.875000 Y0.000000 Z-2.500000 R0.062500
G02 X-11.000000 Y0.000000 Z-2.500000 R0.062500
  X-9.000000 Y0.000000 Z-2.500000 R1.000000
  X-11.000000 Y0.000000 Z-2.500000 R1.000000
G03 X-11.125000 Y0.000000 Z-2.500000 R0.062500
G02 X-11.250000 Y0.000000 Z-2.500000 R0.062500
  X-8.750000 Y0.000000 Z-2.500000 R1.250000
  X-11.250000 Y0.000000 Z-2.500000 R1.250000
  X-10.875000 Y0.000000 Z-2.000000 R0.187500
G03 X-10.500000 Y0.000000 Z-2.000000 R0.187500
G02 X-9.500000 Y0.000000 Z-2.125000 R0.500000
  X-10.500000 Y0.000000 Z-2.250000 R0.500000
  X-9.500000 Y0.000000 Z-2.375000 R0.500000
  X-10.500000 Y0.000000 Z-2.500000 R0.500000
  X-9.500000 Y0.000000 Z-2.625000 R0.500000
  X-10.500000 Y0.000000 Z-2.750000 R0.500000
  X-9.500000 Y0.000000 Z-2.875000 R0.500000
  X-10.500000 Y0.000000 Z-3.000000 R0.500000
  X-9.500000 Y0.000000 Z-3.000000 R0.500000
  X-10.500000 Y0.000000 Z-3.000000 R0.500000
G03 X-10.625000 Y0.000000 Z-3.000000 R0.062500
G02 X-10.750000 Y0.000000 Z-3.000000 R0.062500
  X-9.250000 Y0.000000 Z-3.000000 R0.750000
  X-10.750000 Y0.000000 Z-3.000000 R0.750000
G03 X-10.875000 Y0.000000 Z-3.000000 R0.062500
G02 X-11.000000 Y0.000000 Z-3.000000 R0.062500
  X-9.000000 Y0.000000 Z-3.000000 R1.000000
  X-11.000000 Y0.000000 Z-3.000000 R1.000000
G03 X-11.125000 Y0.000000 Z-3.000000 R0.062500
G02 X-11.250000 Y0.000000 Z-3.000000 R0.062500
  X-8.750000 Y0.000000 Z-3.000000 R1.250000
  X-11.250000 Y0.000000 Z-3.000000 R1.250000
  X-10.875000 Y0.000000 Z-2.500000 R0.187500
G03 X-10.500000 Y0.000000 Z-2.500000 R0.187500
G02 X-9.500000 Y0.000000 Z-2.625000 R0.500000
  X-10.500000 Y0.000000 Z-2.750000 R0.500000
  X-9.500000 Y0.000000 Z-2.875000 R0.500000
  X-10.500000 Y0.000000 Z-3.000000 R0.500000
  X-9.500000 Y0.000000 Z-3.125000 R0.500000
  X-10.500000 Y0.000000 Z-3.250000 R0.500000
  X-9.500000 Y0.000000 Z-3.375000 R0.500000
  X-10.500000 Y0.000000 Z-3.500000 R0.500000
  X-9.500000 Y0.000000 Z-3.500000 R0.500000
  X-10.500000 Y0.000000 Z-3.500000 R0.500000
G03 X-10.625000 Y0.000000 Z-3.500000 R0.062500
G02 X-10.750000 Y0.000000 Z-3.500000 R0.062500
  X-9.250000 Y0.000000 Z-3.500000 R0.750000
  X-10.750000 Y0.000000 Z-3.500000 R0.750000
G03 X-10.875000 Y0.000000 Z-3.500000 R0.062500
G02 X-11.000000 Y0.000000 Z-3.500000 R0.062500
  X-9.000000 Y0.000000 Z-3.500000 R1.000000
  X-11.000000 Y0.000000 Z-3.500000 R1.000000
G03 X-11.125000 Y0.000000 Z-3.500000 R0.062500
G02 X-11.250000 Y0.000000 Z-3.500000 R0.062500
  X-8.750000 Y0.000000 Z-3.500000 R1.250000
  X-11.250000 Y0.000000 Z-3.500000 R1.250000
  X-10.875000 Y0.000000 Z-3.000000 R0.187500
G03 X-10.500000 Y0.000000 Z-3.000000 R0.187500
G02 X-9.500000 Y0.000000 Z-3.125000 R0.500000
  X-10.500000 Y0.000000 Z-3.250000 R0.500000
  X-9.500000 Y0.000000 Z-3.375000 R0.500000
  X-10.500000 Y0.000000 Z-3.500000 R0.500000
  X-9.500000 Y0.000000 Z-3.625000 R0.500000
  X-10.500000 Y0.000000 Z-3.750000 R0.500000
  X-9.500000 Y0.000000 Z-3.875000 R0.500000
  X-10.500000 Y0.000000 Z-4.000000 R0.500000
  X-9.500000 Y0.000000 Z-4.000000 R0.500000
  X-10.500000 Y0.000000 Z-4.000000 R0.500000
G03 X-10.625000 Y0.000000 Z-4.000000 R0.062500
G02 X-10.750000 Y0.000000 Z-4.000000 R0.062500
  X-9.250000 Y0.000000 Z-4.000000 R0.750000
  X-10.750000 Y0.000000 Z-4.000000 R0.750000
G03 X-10.875000 Y0.000000 Z-4.000000 R0.062500
G02 X-11.000000 Y0.000000 Z-4.000000 R0.062500
  X-9.000000 Y0.000000 Z-4.000000 R1.000000
  X-11.000000 Y0.000000 Z-4.000000 R1.000000
G03 X-11.125000 Y0.000000 Z-4.000000 R0.062500
G02 X-11.250000 Y0.000000 Z-4.000000 R0.062500
  X-8.750000 Y0.000000 Z-4.000000 R1.250000
  X-11.250000 Y0.000000 Z-4.000000 R1.250000
  X-10.875000 Y0.000000 Z-3.500000 R0.187500
G03 X-10.500000 Y0.000000 Z-3.500000 R0.187500
G02 X-9.500000 Y0.000000 Z-3.625000 R0.500000
  X-10.500000 Y0.000000 Z-3.750000 R0.500000
  X-9.500000 Y0.000000 Z-3.875000 R0.500000
  X-10.500000 Y0.000000 Z-4.000000 R0.500000
  X-9.500000 Y0.000000 Z-4.125000 R0.500000
  X-10.500000 Y0.000000 Z-4.250000 R0.500000
  X-9.500000 Y0.000000 Z-4.375000 R0.500000
  X-10.500000 Y0.000000 Z-4.500000 R0.500000
  X-9.500000 Y0.000000 Z-4.500000 R0.500000
  X-10.500000 Y0.000000 Z-4.500000 R0.500000
G03 X-10.625000 Y0.000000 Z-4.500000 R0.062500
G02 X-10.750000 Y0.000000 Z-4.500000 R0.062500
  X-9.250000 Y0.000000 Z-4.500000 R0.750000
  X-10.750000 Y0.000000 Z-4.500000 R0.750000
G03 X-10.875000 Y0.000000 Z-4.500000 R0.062500
G02 X-11.000000 Y0.000000 Z-4.500000 R0.062500
  X-9.000000 Y0.000000 Z-4.500000 R1.000000
  X-11.000000 Y0.000000 Z-4.500000 R1.000000
G03 X-11.125000 Y0.000000 Z-4.500000 R0.062500
G02 X-11.250000 Y0.000000 Z-4.500000 R0.062500
  X-8.750000 Y0.000000 Z-4.500000 R1.250000
  X-11.250000 Y0.000000 Z-4.500000 R1.250000
  X-10.875000 Y0.000000 Z-4.000000 R0.187500
G03 X-10.500000 Y0.000000 Z-4.000000 R0.187500
G02 X-9.500000 Y0.000000 Z-4.125000 R0.500000
  X-10.500000 Y0.000000 Z-4.250000 R0.500000
  X-9.500000 Y0.000000 Z-4.375000 R0.500000
  X-10.500000 Y0.000000 Z-4.500000 R0.500000
  X-9.500000 Y0.000000 Z-4.625000 R0.500000
  X-10.500000 Y0.000000 Z-4.750000 R0.500000
  X-9.500000 Y0.000000 Z-4.875000 R0.500000
  X-10.500000 Y0.000000 Z-5.000000 R0.500000
  X-9.500000 Y0.000000 Z-5.000000 R0.500000
  X-10.500000 Y0.000000 Z-5.000000 R0.500000
G03 X-10.625000 Y0.000000 Z-5.000000 R0.062500
G02 X-10.750000 Y0.000000 Z-5.000000 R0.062500
  X-9.250000 Y0.000000 Z-5.000000 R0.750000
  X-10.750000 Y0.000000 Z-5.000000 R0.750000
G03 X-10.875000 Y0.000000 Z-5.000000 R0.062500
G02 X-11.000000 Y0.000000 Z-5.000000 R0.062500
  X-9.000000 Y0.000000 Z-5.000000 R1.000000
  X-11.000000 Y0.000000 Z-5.000000 R1.000000
G03 X-11.125000 Y0.000000 Z-5.000000 R0.062500
G02 X-11.250000 Y0.000000 Z-5.000000 R0.062500
  X-8.750000 Y0.000000 Z-5.000000 R1.250000
  X-11.250000 Y0.000000 Z-5.000000 R1.250000
  X-10.875000 Y0.000000 Z-4.500000 R0.187500
G03 X-10.500000 Y0.000000 Z-4.500000 R0.187500
G02 X-9.500000 Y0.000000 Z-4.625000 R0.500000
  X-10.500000 Y0.000000 Z-4.750000 R0.500000
  X-9.500000 Y0.000000 Z-4.875000 R0.500000
  X-10.500000 Y0.000000 Z-5.000000 R0.500000
  X-9.500000 Y0.000000 Z-5.125000 R0.500000
  X-10.500000 Y0.000000 Z-5.250000 R0.500000
  X-9.500000 Y0.000000 Z-5.375000 R0.500000
  X-10.500000 Y0.000000 Z-5.500000 R0.500000
  X-9.500000 Y0.000000 Z-5.500000 R0.500000
  X-10.500000 Y0.000000 Z-5.500000 R0.500000
G03 X-10.625000 Y0.000000 Z-5.500000 R0.062500
G02 X-10.750000 Y0.000000 Z-5.500000 R0.062500
  X-9.250000 Y0.000000 Z-5.500000 R0.750000
  X-10.750000 Y0.000000 Z-5.500000 R0.750000
G03 X-10.875000 Y0.000000 Z-5.500000 R0.062500
G02 X-11.000000 Y0.000000 Z-5.500000 R0.062500
  X-9.000000 Y0.000000 Z-5.500000 R1.000000
  X-11.000000 Y0.000000 Z-5.500000 R1.000000
G03 X-11.125000 Y0.000000 Z-5.500000 R0.062500
G02 X-11.250000 Y0.000000 Z-5.500000 R0.062500
  X-8.750000 Y0.000000 Z-5.500000 R1.250000
  X-11.250000 Y0.000000 Z-5.500000 R1.250000
  X-10.500000 Y0.000000 Z0.500000 R0.375000
(rapid to: no name)
G00 Z5
G00 X-0.500000 Y0.000000
G00 Z0.500000
(no name)
G03 X0.500000 Y0.000000 Z0.437500 R0.500000
  X-0.500000 Y0.000000 Z0.375000 R0.500000
  X0.500000 Y0.000000 Z0.312500 R0.500000
  X-0.500000 Y0.000000 Z0.250000 R0.500000
  X0.500000 Y0.000000 Z0.187500 R0.500000
  X-0.500000 Y0.000000 Z0.125000 R0.500000
  X0.500000 Y0.000000 Z0.062500 R0.500000
  X-0.500000 Y0.000000 Z0.000000 R0.500000
  X0.500000 Y0.000000 Z-0.062500 R0.500000
  X-0.500000 Y0.000000 Z-0.125000 R0.500000
  X0.500000 Y0.000000 Z-0.187500 R0.500000
  X-0.500000 Y0.000000 Z-0.250000 R0.500000
  X0.500000 Y0.000000 Z-0.312500 R0.500000
  X-0.500000 Y0.000000 Z-0.375000 R0.500000
  X0.500000 Y0.000000 Z-0.437500 R0.500000
  X-0.500000 Y0.000000 Z-0.500000 R0.500000
  X0.500000 Y0.000000 Z-0.500000 R0.500000
  X-0.500000 Y0.000000 Z-0.500000 R0.500000
G02 X-0.562500 Y0.000000 Z-0.500000 R0.031250
G03 X-0.625000 Y0.000000 Z-0.500000 R0.031250
  X0.625000 Y0.000000 Z-0.500000 R0.625000
  X-0.625000 Y0.000000 Z-0.500000 R0.625000
G02 X-0.687500 Y0.000000 Z-0.500000 R0.031250
G03 X-0.750000 Y0.000000 Z-0.500000 R0.031250
  X0.750000 Y0.000000 Z-0.500000 R0.750000
  X-0.750000 Y0.000000 Z-0.500000 R0.750000
G02 X-0.812500 Y0.000000 Z-0.500000 R0.031250
G03 X-0.875000 Y0.000000 Z-0.500000 R0.031250
  X0.875000 Y0.000000 Z-0.500000 R0.875000
  X-0.875000 Y0.000000 Z-0.500000 R0.875000
G02 X-0.937500 Y0.000000 Z-0.500000 R0.031250
G03 X-1.000000 Y0.000000 Z-0.500000 R0.031250
  X1.000000 Y0.000000 Z-0.500000 R1.000000
  X-1.000000 Y0.000000 Z-0.500000 R1.000000
G02 X-1.062500 Y0.000000 Z-0.500000 R0.031250
G03 X-1.125000 Y0.000000 Z-0.500000 R0.031250
  X1.125000 Y0.000000 Z-0.500000 R1.125000
  X-1.125000 Y0.000000 Z-0.500000 R1.125000
G02 X-1.187500 Y0.000000 Z-0.500000 R0.031250
G03 X-1.250000 Y0.000000 Z-0.500000 R0.031250
  X1.250000 Y0.000000 Z-0.500000 R1.250000
  X-1.250000 Y0.000000 Z-0.500000 R1.250000
G02 X-1.312500 Y0.000000 Z-0.500000 R0.031250
G03 X-1.375000 Y0.000000 Z-0.500000 R0.031250
  X1.375000 Y0.000000 Z-0.500000 R1.375000
  X-1.375000 Y0.000000 Z-0.500000 R1.375000
  X-0.937500 Y0.000000 Z0.000000 R0.218750
G02 X-0.500000 Y0.000000 Z0.000000 R0.218750
G03 X0.500000 Y0.000000 Z-0.062500 R0.500000
  X-0.500000 Y0.000000 Z-0.125000 R0.500000
  X0.500000 Y0.000000 Z-0.187500 R0.500000
  X-0.500000 Y0.000000 Z-0.250000 R0.500000
  X0.500000 Y0.000000 Z-0.312500 R0.500000
  X-0.500000 Y0.000000 Z-0.375000 R0.500000
  X0.500000 Y0.000000 Z-0.437500 R0.500000
  X-0.500000 Y0.000000 Z-0.500000 R0.500000
  X0.500000 Y0.000000 Z-0.562500 R0.500000
  X-0.500000 Y0.000000 Z-0.625000 R0.500000
  X0.500000 Y0.000000 Z-0.687500 R0.500000
  X-0.500000 Y0.000000 Z-0.750000 R0.500000
  X0.500000 Y0.000000 Z-0.812500 R0.500000
  X-0.500000 Y0.000000 Z-0.875000 R0.500000
  X0.500000 Y0.000000 Z-0.937500 R0.500000
  X-0.500000 Y0.000000 Z-1.000000 R0.500000
  X0.500000 Y0.000000 Z-1.000000 R0.500000
  X-0.500000 Y0.000000 Z-1.000000 R0.500000
G02 X-0.562500 Y0.000000 Z-1.000000 R0.031250
G03 X-0.625000 Y0.000000 Z-1.000000 R0.031250
  X0.625000 Y0.000000 Z-1.000000 R0.625000
  X-0.625000 Y0.000000 Z-1.000000 R0.625000
G02 X-0.687500 Y0.000000 Z-1.000000 R0.031250
G03 X-0.750000 Y0.000000 Z-1.000000 R0.031250
  X0.750000 Y0.000000 Z-1.000000 R0.750000
  X-0.750000 Y0.000000 Z-1.000000 R0.750000
G02 X-0.812500 Y0.000000 Z-1.000000 R0.031250
G03 X-0.875000 Y0.000000 Z-1.000000 R0.031250
  X0.875000 Y0.000000 Z-1.000000 R0.875000
  X-0.875000 Y0.000000 Z-1.000000 R0.875000
G02 X-0.937500 Y0.000000 Z-1.000000 R0.031250
G03 X-1.000000 Y0.000000 Z-1.000000 R0.031250
  X1.000000 Y0.000000 Z-1.000000 R1.000000
  X-1.000000 Y0.000000 Z-1.000000 R1.000000
G02 X-1.062500 Y0.000000 Z-1.000000 R0.031250
G03 X-1.125000 Y0.000000 Z-1.000000 R0.031250
  X1.125000 Y0.000000 Z-1.000000 R1.125000
  X-1.125000 Y0.000000 Z-1.000000 R1.125000
G02 X-1.187500 Y0.000000 Z-1.000000 R0.031250
G03 X-1.250000 Y0.000000 Z-1.000000 R0.031250
  X1.250000 Y0.000000 Z-1.000000 R1.250000
  X-1.250000 Y0.000000 Z-1.000000 R1.250000
G02 X-1.312500 Y0.000000 Z-1.000000 R0.031250
G03 X-1.375000 Y0.000000 Z-1.000000 R0.031250
  X1.375000 Y0.000000 Z-1.000000 R1.375000
  X-1.375000 Y0.000000 Z-1.000000 R1.375000
  X-0.937500 Y0.000000 Z-0.500000 R0.218750
G02 X-0.500000 Y0.000000 Z-0.500000 R0.218750
G03 X0.500000 Y0.000000 Z-0.562500 R0.500000
  X-0.500000 Y0.000000 Z-0.625000 R0.500000
  X0.500000 Y0.000000 Z-0.687500 R0.500000
  X-0.500000 Y0.000000 Z-0.750000 R0.500000
  X0.500000 Y0.000000 Z-0.812500 R0.500000
  X-0.500000 Y0.000000 Z-0.875000 R0.500000
  X0.500000 Y0.000000 Z-0.937500 R0.500000
  X-0.500000 Y0.000000 Z-1.000000 R0.500000
  X0.500000 Y0.000000 Z-1.062500 R0.500000
  X-0.500000 Y0.000000 Z-1.125000 R0.500000
  X0.500000 Y0.000000 Z-1.187500 R0.500000
  X-0.500000 Y0.000000 Z-1.250000 R0.500000
  X0.500000 Y0.000000 Z-1.312500 R0.500000
  X-0.500000 Y0.000000 Z-1.375000 R0.500000
  X0.500000 Y0.000000 Z-1.437500 R0.500000
  X-0.500000 Y0.000000 Z-1.500000 R0.500000
  X0.500000 Y0.000000 Z-1.500000 R0.500000
  X-0.500000 Y0.000000 Z-1.500000 R0.500000
G02 X-0.562500 Y0.000000 Z-1.500000 R0.031250
G03 X-0.625000 Y0.000000 Z-1.500000 R0.031250
  X0.625000 Y0.000000 Z-1.500000 R0.625000
  X-0.625000 Y0.000000 Z-1.500000 R0.625000
G02 X-0.687500 Y0.000000 Z-1.500000 R0.031250
G03 X-0.750000 Y0.000000 Z-1.500000 R0.031250
  X0.750000 Y0.000000 Z-1.500000 R0.750000
  X-0.750000 Y0.000000 Z-1.500000 R0.750000
G02 X-0.812500 Y0.000000 Z-1.500000 R0.031250
G03 X-0.875000 Y0.000000 Z-1.500000 R0.031250
  X0.875000 Y0.000000 Z-1.500000 R0.875000
  X-0.875000 Y0.000000 Z-1.500000 R0.875000
G02 X-0.937500 Y0.000000 Z-1.500000 R0.031250
G03 X-1.000000 Y0.000000 Z-1.500000 R0.031250
  X1.000000 Y0.000000 Z-1.500000 R1.000000
  X-1.000000 Y0.000000 Z-1.500000 R1.000000
G02 X-1.062500 Y0.000000 Z-1.500000 R0.031250
G03 X-1.125000 Y0.000000 Z-1.500000 R0.031250
  X1.125000 Y0.000000 Z-1.500000 R1.125000
  X-1.125000 Y0.000000 Z-1.500000 R1.125000
G02 X-1.187500 Y0.000000 Z-1.500000 R0.031250
G03 X-1.250000 Y0.000000 Z-1.500000 R0.031250
  X1.250000 Y0.000000 Z-1.500000 R1.250000
  X-1.250000 Y0.000000 Z-1.500000 R1.250000
G02 X-1.312500 Y0.000000 Z-1.500000 R0.031250
G03 X-1.375000 Y0.000000 Z-1.500000 R0.031250
  X1.375000 Y0.000000 Z-1.500000 R1.375000
  X-1.375000 Y0.000000 Z-1.500000 R1.375000
  X-0.937500 Y0.000000 Z-1.000000 R0.218750
G02 X-0.500000 Y0.000000 Z-1.000000 R0.218750
G03 X0.500000 Y0.000000 Z-1.062500 R0.500000
  X-0.500000 Y0.000000 Z-1.125000 R0.500000
  X0.500000 Y0.000000 Z-1.187500 R0.500000
  X-0.500000 Y0.000000 Z-1.250000 R0.500000
  X0.500000 Y0.000000 Z-1.312500 R0.500000
  X-0.500000 Y0.000000 Z-1.375000 R0.500000
  X0.500000 Y0.000000 Z-1.437500 R0.500000
  X-0.500000 Y0.000000 Z-1.500000 R0.500000
  X0.500000 Y0.000000 Z-1.562500 R0.500000
  X-0.500000 Y0.000000 Z-1.625000 R0.500000
  X0.500000 Y0.000000 Z-1.687500 R0.500000
  X-0.500000 Y0.000000 Z-1.750000 R0.500000
  X0.500000 Y0.000000 Z-1.812500 R0.500000
  X-0.500000 Y0.000000 Z-1.875000 R0.500000
  X0.500000 Y0.000000 Z-1.937500 R0.500000
  X-0.500000 Y0.000000 Z-2.000000 R0.500000
  X0.500000 Y0.000000 Z-2.000000 R0.500000
  X-0.500000 Y0.000000 Z-2.000000 R0.500000
G02 X-0.562500 Y0.000000 Z-2.000000 R0.031250
G03 X-0.625000 Y0.000000 Z-2.000000 R0.031250
  X0.625000 Y0.000000 Z-2.000000 R0.625000
  X-0.625000 Y0.000000 Z-2.000000 R0.625000
G02 X-0.687500 Y0.000000 Z-2.000000 R0.031250
G03 X-0.750000 Y0.000000 Z-2.000000 R0.031250
  X0.750000 Y0.000000 Z-2.000000 R0.750000
  X-0.750000 Y0.000000 Z-2.000000 R0.750000
G02 X-0.812500 Y0.000000 Z-2.000000 R0.031250
G03 X-0.875000 Y0.000000 Z-2.000000 R0.031250
  X0.875000 Y0.000000 Z-2.000000 R0.875000
  X-0.875000 Y0.000000 Z-2.000000 R0.875000
G02 X-0.937500 Y0.000000 Z-2.000000 R0.031250
G03 X-1.000000 Y0.000000 Z-2.000000 R0.031250
  X1.000000 Y0.000000 Z-2.000000 R1.000000
  X-1.000000 Y0.000000 Z-2.000000 R1.000000
G02 X-1.062500 Y0.000000 Z-2.000000 R0.031250
G03 X-1.125000 Y0.000000 Z-2.000000 R0.031250
  X1.125000 Y0.000000 Z-2.000000 R1.125000
  X-1.125000 Y0.000000 Z-2.000000 R1.125000
G02 X-1.187500 Y0.000000 Z-2.000000 R0.031250
G03 X-1.250000 Y0.000000 Z-2.000000 R0.031250
  X1.250000 Y0.000000 Z-2.000000 R1.250000
  X-1.250000 Y0.000000 Z-2.000000 R1.250000
G02 X-1.312500 Y0.000000 Z-2.000000 R0.031250
G03 X-1.375000 Y0.000000 Z-2.000000 R0.031250
  X1.375000 Y0.000000 Z-2.000000 R1.375000
  X-1.375000 Y0.000000 Z-2.000000 R1.375000
  X-0.937500 Y0.000000 Z-1.500000 R0.218750
G02 X-0.500000 Y0.000000 Z-1.500000 R0.218750
G03 X0.500000 Y0.000000 Z-1.562500 R0.500000
  X-0.500000 Y0.000000 Z-1.625000 R0.500000
  X0.500000 Y0.000000 Z-1.687500 R0.500000
  X-0.500000 Y0.000000 Z-1.750000 R0.500000
  X0.500000 Y0.000000 Z-1.812500 R0.500000
  X-0.500000 Y0.000000 Z-1.875000 R0.500000
  X0.500000 Y0.000000 Z-1.937500 R0.500000
  X-0.500000 Y0.000000 Z-2.000000 R0.500000
  X0.500000 Y0.000000 Z-2.062500 R0.500000
  X-0.500000 Y0.000000 Z-2.125000 R0.500000
  X0.500000 Y0.000000 Z-2.187500 R0.500000
  X-0.500000 Y0.000000 Z-2.250000 R0.500000
  X0.500000 Y0.000000 Z-2.312500 R0.500000
  X-0.500000 Y0.000000 Z-2.375000 R0.500000
  X0.500000 Y0.000000 Z-2.437500 R0.500000
  X-0.500000 Y0.000000 Z-2.500000 R0.500000
  X0.500000 Y0.000000 Z-2.500000 R0.500000
  X-0.500000 Y0.000000 Z-2.500000 R0.500000
G02 X-0.562500 Y0.000000 Z-2.500000 R0.031250
G03 X-0.625000 Y0.000000 Z-2.500000 R0.031250
  X0.625000 Y0.000000 Z-2.500000 R0.625000
  X-0.625000 Y0.000000 Z-2.500000 R0.625000
G02 X-0.687500 Y0.000000 Z-2.500000 R0.031250
G03 X-0.750000 Y0.000000 Z-2.500000 R0.031250
  X0.750000 Y0.000000 Z-2.500000 R0.750000
  X-0.750000 Y0.000000 Z-2.500000 R0.750000
G02 X-0.812500 Y0.000000 Z-2.500000 R0.031250
G03 X-0.875000 Y0.000000 Z-2.500000 R0.031250
  X0.875000 Y0.000000 Z-2.500000 R0.875000
  X-0.875000 Y0.000000 Z-2.500000 R0.875000
G02 X-0.937500 Y0.000000 Z-2.500000 R0.031250
G03 X-1.000000 Y0.000000 Z-2.500000 R0.031250
  X1.000000 Y0.000000 Z-2.500000 R1.000000
  X-1.000000 Y0.000000 Z-2.500000 R1.000000
G02 X-1.062500 Y0.000000 Z-2.500000 R0.031250
G03 X-1.125000 Y0.000000 Z-2.500000 R0.031250
  X1.125000 Y0.000000 Z-2.500000 R1.125000
  X-1.125000 Y0.000000 Z-2.500000 R1.125000
G02 X-1.187500 Y0.000000 Z-2.500000 R0.031250
G03 X-1.250000 Y0.000000 Z-2.500000 R0.031250
  X1.250000 Y0.000000 Z-2.500000 R1.250000
  X-1.250000 Y0.000000 Z-2.500000 R1.250000
G02 X-1.312500 Y0.000000 Z-2.500000 R0.031250
G03 X-1.375000 Y0.000000 Z-2.500000 R0.031250
  X1.375000 Y0.000000 Z-2.500000 R1.375000
  X-1.375000 Y0.000000 Z-2.500000 R1.375000
  X-0.937500 Y0.000000 Z-2.000000 R0.218750
G02 X-0.500000 Y0.000000 Z-2.000000 R0.218750
G03 X0.500000 Y0.000000 Z-2.062500 R0.500000
  X-0.500000 Y0.000000 Z-2.125000 R0.500000
  X0.500000 Y0.000000 Z-2.187500 R0.500000
  X-0.500000 Y0.000000 Z-2.250000 R0.500000
  X0.500000 Y0.000000 Z-2.312500 R0.500000
  X-0.500000 Y0.000000 Z-2.375000 R0.500000
  X0.500000 Y0.000000 Z-2.437500 R0.500000
  X-0.500000 Y0.000000 Z-2.500000 R0.500000
  X0.500000 Y0.000000 Z-2.562500 R0.500000
  X-0.500000 Y0.000000 Z-2.625000 R0.500000
  X0.500000 Y0.000000 Z-2.687500 R0.500000
  X-0.500000 Y0.000000 Z-2.750000 R0.500000
  X0.500000 Y0.000000 Z-2.812500 R0.500000
  X-0.500000 Y0.000000 Z-2.875000 R0.500000
  X0.500000 Y0.000000 Z-2.937500 R0.500000
  X-0.500000 Y0.000000 Z-3.000000 R0.500000
  X0.500000 Y0.000000 Z-3.000000 R0.500000
  X-0.500000 Y0.000000 Z-3.000000 R0.500000
G02 X-0.562500 Y0.000000 Z-3.000000 R0.031250
G03 X-0.625000 Y0.000000 Z-3.000000 R0.031250
  X0.625000 Y0.000000 Z-3.000000 R0.625000
  X-0.625000 Y0.000000 Z-3.000000 R0.625000
G02 X-0.687500 Y0.000000 Z-3.000000 R0.031250
G03 X-0.750000 Y0.000000 Z-3.000000 R0.031250
  X0.750000 Y0.000000 Z-3.000000 R0.750000
  X-0.750000 Y0.000000 Z-3.000000 R0.750000
G02 X-0.812500 Y0.000000 Z-3.000000 R0.031250
G03 X-0.875000 Y0.000000 Z-3.000000 R0.031250
  X0.875000 Y0.000000 Z-3.000000 R0.875000
  X-0.875000 Y0.000000 Z-3.000000 R0.875000
G02 X-0.937500 Y0.000000 Z-3.000000 R0.031250
G03 X-1.000000 Y0.000000 Z-3.000000 R0.031250
  X1.000000 Y0.000000 Z-3.000000 R1.000000
  X-1.000000 Y0.000000 Z-3.000000 R1.000000
G02 X-1.062500 Y0.000000 Z-3.000000 R0.031250
G03 X-1.125000 Y0.000000 Z-3.000000 R0.031250
  X1.125000 Y0.000000 Z-3.000000 R1.125000
  X-1.125000 Y0.000000 Z-3.000000 R1.125000
G02 X-1.187500 Y0.000000 Z-3.000000 R0.031250
G03 X-1.250000 Y0.000000 Z-3.000000 R0.031250
  X1.250000 Y0.000000 Z-3.000000 R1.250000
  X-1.250000 Y0.000000 Z-3.000000 R1.250000
G02 X-1.312500 Y0.000000 Z-3.000000 R0.031250
G03 X-1.375000 Y0.000000 Z-3.000000 R0.031250
  X1.375000 Y0.000000 Z-3.000000 R1.375000
  X-1.375000 Y0.000000 Z-3.000000 R1.375000
  X-0.937500 Y0.000000 Z-2.500000 R0.218750
G02 X-0.500000 Y0.000000 Z-2.500000 R0.218750
G03 X0.500000 Y0.000000 Z-2.562500 R0.500000
  X-0.500000 Y0.000000 Z-2.625000 R0.500000
  X0.500000 Y0.000000 Z-2.687500 R0.500000
  X-0.500000 Y0.000000 Z-2.750000 R0.500000
  X0.500000 Y0.000000 Z-2.812500 R0.500000
  X-0.500000 Y0.000000 Z-2.875000 R0.500000
  X0.500000 Y0.000000 Z-2.937500 R0.500000
  X-0.500000 Y0.000000 Z-3.000000 R0.500000
  X0.500000 Y0.000000 Z-3.062500 R0.500000
  X-0.500000 Y0.000000 Z-3.125000 R0.500000
  X0.500000 Y0.000000 Z-3.187500 R0.500000
  X-0.500000 Y0.000000 Z-3.250000 R0.500000
  X0.500000 Y0.000000 Z-3.312500 R0.500000
  X-0.500000 Y0.000000 Z-3.375000 R0.500000
  X0.500000 Y0.000000 Z-3.437500 R0.500000
  X-0.500000 Y0.000000 Z-3.500000 R0.500000
  X0.500000 Y0.000000 Z-3.500000 R0.500000
  X-0.500000 Y0.000000 Z-3.500000 R0.500000
G02 X-0.562500 Y0.000000 Z-3.500000 R0.031250
G03 X-0.625000 Y0.000000 Z-3.500000 R0.031250
  X0.625000 Y0.000000 Z-3.500000 R0.625000
  X-0.625000 Y0.000000 Z-3.500000 R0.625000
G02 X-0.687500 Y0.000000 Z-3.500000 R0.031250
G03 X-0.750000 Y0.000000 Z-3.500000 R0.031250
  X0.750000 Y0.000000 Z-3.500000 R0.750000
  X-0.750000 Y0.000000 Z-3.500000 R0.750000
G02 X-0.812500 Y0.000000 Z-3.500000 R0.031250
G03 X-0.875000 Y0.000000 Z-3.500000 R0.031250
  X0.875000 Y0.000000 Z-3.500000 R0.875000
  X-0.875000 Y0.000000 Z-3.500000 R0.875000
G02 X-0.937500 Y0.000000 Z-3.500000 R0.031250
G03 X-1.000000 Y0.000000 Z-3.500000 R0.031250
  X1.000000 Y0.000000 Z-3.500000 R1.000000
  X-1.000000 Y0.000000 Z-3.500000 R1.000000
G02 X-1.062500 Y0.000000 Z-3.500000 R0.031250
G03 X-1.125000 Y0.000000 Z-3.500000 R0.031250
  X1.125000 Y0.000000 Z-3.500000 R1.125000
  X-1.125000 Y0.000000 Z-3.500000 R1.125000
G02 X-1.187500 Y0.000000 Z-3.500000 R0.031250
G03 X-1.250000 Y0.000000 Z-3.500000 R0.031250
  X1.250000 Y0.000000 Z-3.500000 R1.250000
  X-1.250000 Y0.000000 Z-3.500000 R1.250000
G02 X-1.312500 Y0.000000 Z-3.500000 R0.031250
G03 X-1.375000 Y0.000000 Z-3.500000 R0.031250
  X1.375000 Y0.000000 Z-3.500000 R1.375000
  X-1.375000 Y0.000000 Z-3.500000 R1.375000
  X-0.937500 Y0.000000 Z-3.000000 R0.218750
G02 X-0.500000 Y0.000000 Z-3.000000 R0.218750
G03 X0.500000 Y0.000000 Z-3.062500 R0.500000
  X-0.500000 Y0.000000 Z-3.125000 R0.500000
  X0.500000 Y0.000000 Z-3.187500 R0.500000
  X-0.500000 Y0.000000 Z-3.250000 R0.500000
  X0.500000 Y0.000000 Z-3.312500 R0.500000
  X-0.500000 Y0.000000 Z-3.375000 R0.500000
  X0.500000 Y0.000000 Z-3.437500 R0.500000
  X-0.500000 Y0.000000 Z-3.500000 R0.500000
  X0.500000 Y0.000000 Z-3.562500 R0.500000
  X-0.500000 Y0.000000 Z-3.625000 R0.500000
  X0.500000 Y0.000000 Z-3.687500 R0.500000
  X-0.500000 Y0.000000 Z-3.750000 R0.500000
  X0.500000 Y0.000000 Z-3.812500 R0.500000
  X-0.500000 Y0.000000 Z-3.875000 R0.500000
  X0.500000 Y0.000000 Z-3.937500 R0.500000
  X-0.500000 Y0.000000 Z-4.000000 R0.500000
  X0.500000 Y0.000000 Z-4.000000 R0.500000
  X-0.500000 Y0.000000 Z-4.000000 R0.500000
G02 X-0.562500 Y0.000000 Z-4.000000 R0.031250
G03 X-0.625000 Y0.000000 Z-4.000000 R0.031250
  X0.625000 Y0.000000 Z-4.000000 R0.625000
  X-0.625000 Y0.000000 Z-4.000000 R0.625000
G02 X-0.687500 Y0.000000 Z-4.000000 R0.031250
G03 X-0.750000 Y0.000000 Z-4.000000 R0.031250
  X0.750000 Y0.000000 Z-4.000000 R0.750000
  X-0.750000 Y0.000000 Z-4.000000 R0.750000
G02 X-0.812500 Y0.000000 Z-4.000000 R0.031250
G03 X-0.875000 Y0.000000 Z-4.000000 R0.031250
  X0.875000 Y0.000000 Z-4.000000 R0.875000
  X-0.875000 Y0.000000 Z-4.000000 R0.875000
G02 X-0.937500 Y0.000000 Z-4.000000 R0.031250
G03 X-1.000000 Y0.000000 Z-4.000000 R0.031250
  X1.000000 Y0.000000 Z-4.000000 R1.000000
  X-1.000000 Y0.000000 Z-4.000000 R1.000000
G02 X-1.062500 Y0.000000 Z-4.000000 R0.031250
G03 X-1.125000 Y0.000000 Z-4.000000 R0.031250
  X1.125000 Y0.000000 Z-4.000000 R1.125000
  X-1.125000 Y0.000000 Z-4.000000 R1.125000
G02 X-1.187500 Y0.000000 Z-4.000000 R0.031250
G03 X-1.250000 Y0.000000 Z-4.000000 R0.031250
  X1.250000 Y0.000000 Z-4.000000 R1.250000
  X-1.250000 Y0.000000 Z-4.000000 R1.250000
G02 X-1.312500 Y0.000000 Z-4.000000 R0.031250
G03 X-1.375000 Y0.000000 Z-4.000000 R0.031250
  X1.375000 Y0.000000 Z-4.000000 R1.375000
  X-1.375000 Y0.000000 Z-4.000000 R1.375000
  X-0.937500 Y0.000000 Z-3.500000 R0.218750
G02 X-0.500000 Y0.000000 Z-3.500000 R0.218750
G03 X0.500000 Y0.000000 Z-3.562500 R0.500000
  X-0.500000 Y0.000000 Z-3.625000 R0.500000
  X0.500000 Y0.000000 Z-3.687500 R0.500000
  X-0.500000 Y0.000000 Z-3.750000 R0.500000
  X0.500000 Y0.000000 Z-3.812500 R0.500000
  X-0.500000 Y0.000000 Z-3.875000 R0.500000
  X0.500000 Y0.000000 Z-3.937500 R0.500000
  X-0.500000 Y0.000000 Z-4.000000 R0.500000
  X0.500000 Y0.000000 Z-4.062500 R0.500000
  X-0.500000 Y0.000000 Z-4.125000 R0.500000
  X0.500000 Y0.000000 Z-4.187500 R0.500000
  X-0.500000 Y0.000000 Z-4.250000 R0.500000
  X0.500000 Y0.000000 Z-4.312500 R0.500000
  X-0.500000 Y0.000000 Z-4.375000 R0.500000
  X0.500000 Y0.000000 Z-4.437500 R0.500000
  X-0.500000 Y0.000000 Z-4.500000 R0.500000
  X0.500000 Y0.000000 Z-4.500000 R0.500000
  X-0.500000 Y0.000000 Z-4.500000 R0.500000
G02 X-0.562500 Y0.000000 Z-4.500000 R0.031250
G03 X-0.625000 Y0.000000 Z-4.500000 R0.031250
  X0.625000 Y0.000000 Z-4.500000 R0.625000
  X-0.625000 Y0.000000 Z-4.500000 R0.625000
G02 X-0.687500 Y0.000000 Z-4.500000 R0.031250
G03 X-0.750000 Y0.000000 Z-4.500000 R0.031250
  X0.750000 Y0.000000 Z-4.500000 R0.750000
  X-0.750000 Y0.000000 Z-4.500000 R0.750000
G02 X-0.812500 Y0.000000 Z-4.500000 R0.031250
G03 X-0.875000 Y0.000000 Z-4.500000 R0.031250
  X0.875000 Y0.000000 Z-4.500000 R0.875000
  X-0.875000 Y0.000000 Z-4.500000 R0.875000
G02 X-0.937500 Y0.000000 Z-4.500000 R0.031250
G03 X-1.000000 Y0.000000 Z-4.500000 R0.031250
  X1.000000 Y0.000000 Z-4.500000 R1.000000
  X-1.000000 Y0.000000 Z-4.500000 R1.000000
G02 X-1.062500 Y0.000000 Z-4.500000 R0.031250
G03 X-1.125000 Y0.000000 Z-4.500000 R0.031250
  X1.125000 Y0.000000 Z-4.500000 R1.125000
  X-1.125000 Y0.000000 Z-4.500000 R1.125000
G02 X-1.187500 Y0.000000 Z-4.500000 R0.031250
G03 X-1.250000 Y0.000000 Z-4.500000 R0.031250
  X1.250000 Y0.000000 Z-4.500000 R1.250000
  X-1.250000 Y0.000000 Z-4.500000 R1.250000
G02 X-1.312500 Y0.000000 Z-4.500000 R0.031250
G03 X-1.375000 Y0.000000 Z-4.500000 R0.031250
  X1.375000 Y0.000000 Z-4.500000 R1.375000
  X-1.375000 Y0.000000 Z-4.500000 R1.375000
  X-0.937500 Y0.000000 Z-4.000000 R0.218750
G02 X-0.500000 Y0.000000 Z-4.000000 R0.218750
G03 X0.500000 Y0.000000 Z-4.062500 R0.500000
  X-0.500000 Y0.000000 Z-4.125000 R0.500000
  X0.500000 Y0.000000 Z-4.187500 R0.500000
  X-0.500000 Y0.000000 Z-4.250000 R0.500000
  X0.500000 Y0.000000 Z-4.312500 R0.500000
  X-0.500000 Y0.000000 Z-4.375000 R0.500000
  X0.500000 Y0.000000 Z-4.437500 R0.500000
  X-0.500000 Y0.000000 Z-4.500000 R0.500000
  X0.500000 Y0.000000 Z-4.562500 R0.500000
  X-0.500000 Y0.000000 Z-4.625000 R0.500000
  X0.500000 Y0.000000 Z-4.687500 R0.500000
  X-0.500000 Y0.000000 Z-4.750000 R0.500000
  X0.500000 Y0.000000 Z-4.812500 R0.500000
  X-0.500000 Y0.000000 Z-4.875000 R0.500000
  X0.500000 Y0.000000 Z-4.937500 R0.500000
  X-0.500000 Y0.000000 Z-5.000000 R0.500000
  X0.500000 Y0.000000 Z-5.000000 R0.500000
  X-0.500000 Y0.000000 Z-5.000000 R0.500000
G02 X-0.562500 Y0.000000 Z-5.000000 R0.031250
G03 X-0.625000 Y0.000000 Z-5.000000 R0.031250
  X0.625000 Y0.000000 Z-5.000000 R0.625000
  X-0.625000 Y0.000000 Z-5.000000 R0.625000
G02 X-0.687500 Y0.000000 Z-5.000000 R0.031250
G03 X-0.750000 Y0.000000 Z-5.000000 R0.031250
  X0.750000 Y0.000000 Z-5.000000 R0.750000
  X-0.750000 Y0.000000 Z-5.000000 R0.750000
G02 X-0.812500 Y0.000000 Z-5.000000 R0.031250
G03 X-0.875000 Y0.000000 Z-5.000000 R0.031250
  X0.875000 Y0.000000 Z-5.000000 R0.875000
  X-0.875000 Y0.000000 Z-5.000000 R0.875000
G02 X-0.937500 Y0.000000 Z-5.000000 R0.031250
G03 X-1.000000 Y0.000000 Z-5.000000 R0.031250
  X1.000000 Y0.000000 Z-5.000000 R1.000000
  X-1.000000 Y0.000000 Z-5.000000 R1.000000
G02 X-1.062500 Y0.000000 Z-5.000000 R0.031250
G03 X-1.125000 Y0.000000 Z-5.000000 R0.031250
  X1.125000 Y0.000000 Z-5.000000 R1.125000
  X-1.125000 Y0.000000 Z-5.000000 R1.125000
G02 X-1.187500 Y0.000000 Z-5.000000 R0.031250
G03 X-1.250000 Y0.000000 Z-5.000000 R0.031250
  X1.250000 Y0.000000 Z-5.000000 R1.250000
  X-1.250000 Y0.000000 Z-5.000000 R1.250000
G02 X-1.312500 Y0.000000 Z-5.000000 R0.031250
G03 X-1.375000 Y0.000000 Z-5.000000 R0.031250
  X1.375000 Y0.000000 Z-5.000000 R1.375000
  X-1.375000 Y0.000000 Z-5.000000 R1.375000
  X-0.937500 Y0.000000 Z-4.500000 R0.218750
G02 X-0.500000 Y0.000000 Z-4.500000 R0.218750
G03 X0.500000 Y0.000000 Z-4.562500 R0.500000
  X-0.500000 Y0.000000 Z-4.625000 R0.500000
  X0.500000 Y0.000000 Z-4.687500 R0.500000
  X-0.500000 Y0.000000 Z-4.750000 R0.500000
  X0.500000 Y0.000000 Z-4.812500 R0.500000
  X-0.500000 Y0.000000 Z-4.875000 R0.500000
  X0.500000 Y0.000000 Z-4.937500 R0.500000
  X-0.500000 Y0.000000 Z-5.000000 R0.500000
  X0.500000 Y0.000000 Z-5.062500 R0.500000
  X-0.500000 Y0.000000 Z-5.125000 R0.500000
  X0.500000 Y0.000000 Z-5.187500 R0.500000
  X-0.500000 Y0.000000 Z-5.250000 R0.500000
  X0.500000 Y0.000000 Z-5.312500 R0.500000
  X-0.500000 Y0.000000 Z-5.375000 R0.500000
  X0.500000 Y0.000000 Z-5.437500 R0.500000
  X-0.500000 Y0.000000 Z-5.500000 R0.500000
  X0.500000 Y0.000000 Z-5.500000 R0.500000
  X-0.500000 Y0.000000 Z-5.500000 R0.500000
G02 X-0.562500 Y0.000000 Z-5.500000 R0.031250
G03 X-0.625000 Y0.000000 Z-5.500000 R0.031250
  X0.625000 Y0.000000 Z-5.500000 R0.625000
  X-0.625000 Y0.000000 Z-5.500000 R0.625000
G02 X-0.687500 Y0.000000 Z-5.500000 R0.031250
G03 X-0.750000 Y0.000000 Z-5.500000 R0.031250
  X0.750000 Y0.000000 Z-5.500000 R0.750000
  X-0.750000 Y0.000000 Z-5.500000 R0.750000
G02 X-0.812500 Y0.000000 Z-5.500000 R0.031250
G03 X-0.875000 Y0.000000 Z-5.500000 R0.031250
  X0.875000 Y0.000000 Z-5.500000 R0.875000
  X-0.875000 Y0.000000 Z-5.500000 R0.875000
G02 X-0.937500 Y0.000000 Z-5.500000 R0.031250
G03 X-1.000000 Y0.000000 Z-5.500000 R0.031250
  X1.000000 Y0.000000 Z-5.500000 R1.000000
  X-1.000000 Y0.000000 Z-5.500000 R1.000000
G02 X-1.062500 Y0.000000 Z-5.500000 R0.031250
G03 X-1.125000 Y0.000000 Z-5.500000 R0.031250
  X1.125000 Y0.000000 Z-5.500000 R1.125000
  X-1.125000 Y0.000000 Z-5.500000 R1.125000
G02 X-1.187500 Y0.000000 Z-5.500000 R0.031250
G03 X-1.250000 Y0.000000 Z-5.500000 R0.031250
  X1.250000 Y0.000000 Z-5.500000 R1.250000
  X-1.250000 Y0.000000 Z-5.500000 R1.250000
G02 X-1.312500 Y0.000000 Z-5.500000 R0.031250
G03 X-1.375000 Y0.000000 Z-5.500000 R0.031250
  X1.375000 Y0.000000 Z-5.500000 R1.375000
  X-1.375000 Y0.000000 Z-5.500000 R1.375000
  X-0.500000 Y0.000000 Z0.500000 R0.437500
(rapid to: no name)
G00 Z5
G00 X9.500000 Y0.000000
G00 Z0.750000
(no name)
G03 X10.500000 Y0.000000 Z0.625000 R0.500000
  X9.500000 Y0.000000 Z0.500000 R0.500000
  X10.500000 Y0.000000 Z0.375000 R0.500000
  X9.500000 Y0.000000 Z0.250000 R0.500000
  X10.500000 Y0.000000 Z0.125000 R0.500000
  X9.500000 Y0.000000 Z0.000000 R0.500000
  X10.500000 Y0.000000 Z-0.125000 R0.500000
  X9.500000 Y0.000000 Z-0.250000 R0.500000
  X10.500000 Y0.000000 Z-0.250000 R0.500000
  X9.500000 Y0.000000 Z-0.250000 R0.500000
G02 X9.375000 Y0.000000 Z-0.250000 R0.062500
G03 X9.250000 Y0.000000 Z-0.250000 R0.062500
  X10.750000 Y0.000000 Z-0.250000 R0.750000
  X9.250000 Y0.000000 Z-0.250000 R0.750000
G02 X9.125000 Y0.000000 Z-0.250000 R0.062500
G03 X9.000000 Y0.000000 Z-0.250000 R0.062500
  X11.000000 Y0.000000 Z-0.250000 R1.000000
  X9.000000 Y0.000000 Z-0.250000 R1.000000
G02 X8.875000 Y0.000000 Z-0.250000 R0.062500
G03 X8.750000 Y0.000000 Z-0.250000 R0.062500
  X11.250000 Y0.000000 Z-0.250000 R1.250000
  X8.750000 Y0.000000 Z-0.250000 R1.250000
  X9.125000 Y0.000000 Z0.000000 R0.187500
G02 X9.500000 Y0.000000 Z0.500000 R0.187500
G03 X10.500000 Y0.000000 Z0.375000 R0.500000
  X9.500000 Y0.000000 Z0.250000 R0.500000
  X10.500000 Y0.000000 Z0.125000 R0.500000
  X9.500000 Y0.000000 Z0.000000 R0.500000
  X10.500000 Y0.000000 Z-0.125000 R0.500000
  X9.500000 Y0.000000 Z-0.250000 R0.500000
  X10.500000 Y0.000000 Z-0.375000 R0.500000
  X9.500000 Y0.000000 Z-0.500000 R0.500000
  X10.500000 Y0.000000 Z-0.500000 R0.500000
  X9.500000 Y0.000000 Z-0.500000 R0.500000
G02 X9.375000 Y0.000000 Z-0.500000 R0.062500
G03 X9.250000 Y0.000000 Z-0.500000 R0.062500
  X10.750000 Y0.000000 Z-0.500000 R0.750000
  X9.250000 Y0.000000 Z-0.500000 R0.750000
G02 X9.125000 Y0.000000 Z-0.500000 R0.062500
G03 X9.000000 Y0.000000 Z-0.500000 R0.062500
  X11.000000 Y0.000000 Z-0.500000 R1.000000
  X9.000000 Y0.000000 Z-0.500000 R1.000000
G02 X8.875000 Y0.000000 Z-0.500000 R0.062500
G03 X8.750000 Y0.000000 Z-0.500000 R0.062500
  X11.250000 Y0.000000 Z-0.500000 R1.250000
  X8.750000 Y0.000000 Z-0.500000 R1.250000
  X9.125000 Y0.000000 Z-0.250000 R0.187500
G02 X9.500000 Y0.000000 Z0.250000 R0.187500
G03 X10.500000 Y0.000000 Z0.125000 R0.500000
  X9.500000 Y0.000000 Z0.000000 R0.500000
  X10.500000 Y0.000000 Z-0.125000 R0.500000
  X9.500000 Y0.000000 Z-0.250000 R0.500000
  X10.500000 Y0.000000 Z-0.375000 R0.500000
  X9.500000 Y0.000000 Z-0.500000 R0.500000
  X10.500000 Y0.000000 Z-0.625000 R0.500000
  X9.500000 Y0.000000 Z-0.750000 R0.500000
  X10.500000 Y0.000000 Z-0.750000 R0.500000
  X9.500000 Y0.000000 Z-0.750000 R0.500000
G02 X9.375000 Y0.000000 Z-0.750000 R0.062500
G03 X9.250000 Y0.000000 Z-0.750000 R0.062500
  X10.750000 Y0.000000 Z-0.750000 R0.750000
  X9.250000 Y0.000000 Z-0.750000 R0.750000
G02 X9.125000 Y0.000000 Z-0.750000 R0.062500
G03 X9.000000 Y0.000000 Z-0.750000 R0.062500
  X11.000000 Y0.000000 Z-0.750000 R1.000000
  X9.000000 Y0.000000 Z-0.750000 R1.000000
G02 X8.875000 Y0.000000 Z-0.750000 R0.062500
G03 X8.750000 Y0.000000 Z-0.750000 R0.062500
  X11.250000 Y0.000000 Z-0.750000 R1.250000
  X8.750000 Y0.000000 Z-0.750000 R1.250000
  X9.125000 Y0.000000 Z-0.500000 R0.187500
G02 X9.500000 Y0.000000 Z0.000000 R0.187500
G03 X10.500000 Y0.000000 Z-0.125000 R0.500000
  X9.500000 Y0.000000 Z-0.250000 R0.500000
  X10.500000 Y0.000000 Z-0.375000 R0.500000
  X9.500000 Y0.000000 Z-0.500000 R0.500000
  X10.500000 Y0.000000 Z-0.625000 R0.500000
  X9.500000 Y0.000000 Z-0.750000 R0.500000
  X10.500000 Y0.000000 Z-0.875000 R0.500000
  X9.500000 Y0.000000 Z-1.000000 R0.500000
  X10.500000 Y0.000000 Z-1.000000 R0.500000
  X9.500000 Y0.000000 Z-1.000000 R0.500000
G02 X9.375000 Y0.000000 Z-1.000000 R0.062500
G03 X9.250000 Y0.000000 Z-1.000000 R0.062500
  X10.750000 Y0.000000 Z-1.000000 R0.750000
  X9.250000 Y0.000000 Z-1.000000 R0.750000
G02 X9.125000 Y0.000000 Z-1.000000 R0.062500
G03 X9.000000 Y0.000000 Z-1.000000 R0.062500
  X11.000000 Y0.000000 Z-1.000000 R1.000000
  X9.000000 Y0.000000 Z-1.000000 R1.000000
G02 X8.875000 Y0.000000 Z-1.000000 R0.062500
G03 X8.750000 Y0.000000 Z-1.000000 R0.062500
  X11.250000 Y0.000000 Z-1.000000 R1.250000
  X8.750000 Y0.000000 Z-1.000000 R1.250000
  X9.125000 Y0.000000 Z-0.750000 R0.187500
G02 X9.500000 Y0.000000 Z-0.250000 R0.187500
G03 X10.500000 Y0.000000 Z-0.375000 R0.500000
  X9.500000 Y0.000000 Z-0.500000 R0.500000
  X10.500000 Y0.000000 Z-0.625000 R0.500000
  X9.500000 Y0.000000 Z-0.750000 R0.500000
  X10.500000 Y0.000000 Z-0.875000 R0.500000
  X9.500000 Y0.000000 Z-1.000000 R0.500000
  X10.500000 Y0.000000 Z-1.125000 R0.500000
  X9.500000 Y0.000000 Z-1.250000 R0.500000
  X10.500000 Y0.000000 Z-1.250000 R0.500000
  X9.500000 Y0.000000 Z-1.250000 R0.500000
G02 X9.375000 Y0.000000 Z-1.250000 R0.062500
G03 X9.250000 Y0.000000 Z-1.250000 R0.062500
  X10.750000 Y0.000000 Z-1.250000 R0.750000
  X9.250000 Y0.000000 Z-1.250000 R0.750000
G02 X9.125000 Y0.000000 Z-1.250000 R0.062500
G03 X9.000000 Y0.000000 Z-1.250000 R0.062500
  X11.000000 Y0.000000 Z-1.250000 R1.000000
  X9.000000 Y0.000000 Z-1.250000 R1.000000
G02 X8.875000 Y0.000000 Z-1.250000 R0.062500
G03 X8.750000 Y0.000000 Z-1.250000 R0.062500
  X11.250000 Y0.000000 Z-1.250000 R1.250000
  X8.750000 Y0.000000 Z-1.250000 R1.250000
  X9.125000 Y0.000000 Z-1.000000 R0.187500
G02 X9.500000 Y0.000000 Z-0.500000 R0.187500
G03 X10.500000 Y0.000000 Z-0.625000 R0.500000
  X9.500000 Y0.000000 Z-0.750000 R0.500000
  X10.500000 Y0.000000 Z-0.875000 R0.500000
  X9.500000 Y0.000000 Z-1.000000 R0.500000
  X10.500000 Y0.000000 Z-1.125000 R0.500000
  X9.500000 Y0.000000 Z-1.250000 R0.500000
  X10.500000 Y0.000000 Z-1.375000 R0.500000
  X9.500000 Y0.000000 Z-1.500000 R0.500000
  X10.500000 Y0.000000 Z-1.500000 R0.500000
  X9.500000 Y0.000000 Z-1.500000 R0.500000
G02 X9.375000 Y0.000000 Z-1.500000 R0.062500
G03 X9.250000 Y0.000000 Z-1.500000 R0.062500
  X10.750000 Y0.000000 Z-1.500000 R0.750000
  X9.250000 Y0.000000 Z-1.500000 R0.750000
G02 X9.125000 Y0.000000 Z-1.500000 R0.062500
G03 X9.000000 Y0.000000 Z-1.500000 R0.062500
  X11.000000 Y0.000000 Z-1.500000 R1.000000
  X9.000000 Y0.000000 Z-1.500000 R1.000000
G02 X8.875000 Y0.000000 Z-1.500000 R0.062500
G03 X8.750000 Y0.000000 Z-1.500000 R0.062500
  X11.250000 Y0.000000 Z-1.500000 R1.250000
  X8.750000 Y0.000000 Z-1.500000 R1.250000
  X9.125000 Y0.000000 Z-1.250000 R0.187500
G02 X9.500000 Y0.000000 Z-0.750000 R0.187500
G03 X10.500000 Y0.000000 Z-0.875000 R0.500000
  X9.500000 Y0.000000 Z-1.000000 R0.500000
  X10.500000 Y0.000000 Z-1.125000 R0.500000
  X9.500000 Y0.000000 Z-1.250000 R0.500000
  X10.500000 Y0.000000 Z-1.375000 R0.500000
  X9.500000 Y0.000000 Z-1.500000 R0.500000
  X10.500000 Y0.000000 Z-1.625000 R0.500000
  X9.500000 Y0.000000 Z-1.750000 R0.500000
  X10.500000 Y0.000000 Z-1.750000 R0.500000
  X9.500000 Y0.000000 Z-1.750000 R0.500000
G02 X9.375000 Y0.000000 Z-1.750000 R0.062500
G03 X9.250000 Y0.000000 Z-1.750000 R0.062500
  X10.750000 Y0.000000 Z-1.750000 R0.750000
  X9.250000 Y0.000000 Z-1.750000 R0.750000
G02 X9.125000 Y0.000000 Z-1.750000 R0.062500
G03 X9.000000 Y0.000000 Z-1.750000 R0.062500
  X11.000000 Y0.000000 Z-1.750000 R1.000000
  X9.000000 Y0.000000 Z-1.750000 R1.000000
G02 X8.875000 Y0.000000 Z-1.750000 R0.062500
G03 X8.750000 Y0.000000 Z-1.750000 R0.062500
  X11.250000 Y0.000000 Z-1.750000 R1.250000
  X8.750000 Y0.000000 Z-1.750000 R1.250000
  X9.125000 Y0.000000 Z-1.500000 R0.187500
G02 X9.500000 Y0.000000 Z-1.000000 R0.187500
G03 X10.500000 Y0.000000 Z-1.125000 R0.500000
  X9.500000 Y0.000000 Z-1.250000 R0.500000
  X10.500000 Y0.000000 Z-1.375000 R0.500000
  X9.500000 Y0.000000 Z-1.500000 R0.500000
  X10.500000 Y0.000000 Z-1.625000 R0.500000
  X9.500000 Y0.000000 Z-1.750000 R0.500000
  X10.500000 Y0.000000 Z-1.875000 R0.500000
  X9.500000 Y0.000000 Z-2.000000 R0.500000
  X10.500000 Y0.000000 Z-2.000000 R0.500000
  X9.500000 Y0.000000 Z-2.000000 R0.500000
G02 X9.375000 Y0.000000 Z-2.000000 R0.062500
G03 X9.250000 Y0.000000 Z-2.000000 R0.062500
  X10.750000 Y0.000000 Z-2.000000 R0.750000
  X9.250000 Y0.000000 Z-2.000000 R0.750000
G02 X9.125000 Y0.000000 Z-2.000000 R0.062500
G03 X9.000000 Y0.000000 Z-2.000000 R0.062500
  X11.000000 Y0.000000 Z-2.000000 R1.000000
  X9.000000 Y0.000000 Z-2.000000 R1.000000
G02 X8.875000 Y0.000000 Z-2.000000 R0.062500
G03 X8.750000 Y0.000000 Z-2.000000 R0.062500
  X11.250000 Y0.000000 Z-2.000000 R1.250000
  X8.750000 Y0.000000 Z-2.000000 R1.250000
  X9.125000 Y0.000000 Z-1.750000 R0.187500
G02 X9.500000 Y0.000000 Z-1.250000 R0.187500
G03 X10.500000 Y0.000000 Z-1.375000 R0.500000
  X9.500000 Y0.000000 Z-1.500000 R0.500000
  X10.500000 Y0.000000 Z-1.625000 R0.500000
  X9.500000 Y0.000000 Z-1.750000 R0.500000
  X10.500000 Y0.000000 Z-1.875000 R0.500000
  X9.500000 Y0.000000 Z-2.000000 R0.500000
  X10.500000 Y0.000000 Z-2.125000 R0.500000
  X9.500000 Y0.000000 Z-2.250000 R0.500000
  X10.500000 Y0.000000 Z-2.250000 R0.500000
  X9.500000 Y0.000000 Z-2.250000 R0.500000
G02 X9.375000 Y0.000000 Z-2.250000 R0.062500
G03 X9.250000 Y0.000000 Z-2.250000 R0.062500
  X10.750000 Y0.000000 Z-2.250000 R0.750000
  X9.250000 Y0.000000 Z-2.250000 R0.750000
G02 X9.125000 Y0.000000 Z-2.250000 R0.062500
G03 X9.000000 Y0.000000 Z-2.250000 R0.062500
  X11.000000 Y0.000000 Z-2.250000 R1.000000
  X9.000000 Y0.000000 Z-2.250000 R1.000000
G02 X8.875000 Y0.000000 Z-2.250000 R0.062500
G03 X8.750000 Y0.000000 Z-2.250000 R0.062500
  X11.250000 Y0.000000 Z-2.250000 R1.250000
  X8.750000 Y0.000000 Z-2.250000 R1.250000
  X9.125000 Y0.000000 Z-2.000000 R0.187500
G02 X9.500000 Y0.000000 Z-1.500000 R0.187500
G03 X10.500000 Y0.000000 Z-1.625000 R0.500000
  X9.500000 Y0.000000 Z-1.750000 R0.500000
  X10.500000 Y0.000000 Z-1.875000 R0.500000
  X9.500000 Y0.000000 Z-2.000000 R0.500000
  X10.500000 Y0.000000 Z-2.125000 R0.500000
  X9.500000 Y0.000000 Z-2.250000 R0.500000
  X10.500000 Y0.000000 Z-2.375000 R0.500000
  X9.500000 Y0.000000 Z-2.500000 R0.500000
  X10.500000 Y0.000000 Z-2.500000 R0.500000
  X9.500000 Y0.000000 Z-2.500000 R0.500000
G02 X9.375000 Y0.000000 Z-2.500000 R0.062500
G03 X9.250000 Y0.000000 Z-2.500000 R0.062500
  X10.750000 Y0.000000 Z-2.500000 R0.750000
  X9.250000 Y0.000000 Z-2.500000 R0.750000
G02 X9.125000 Y0.000000 Z-2.500000 R0.062500
G03 X9.000000 Y0.000000 Z-2.500000 R0.062500
  X11.000000 Y0.000000 Z-2.500000 R1.000000
  X9.000000 Y0.000000 Z-2.500000 R1.000000
G02 X8.875000 Y0.000000 Z-2.500000 R0.062500
G03 X8.750000 Y0.000000 Z-2.500000 R0.062500
  X11.250000 Y0.000000 Z-2.500000 R1.250000
  X8.750000 Y0.000000 Z-2.500000 R1.250000
  X9.125000 Y0.000000 Z-2.250000 R0.187500
G02 X9.500000 Y0.000000 Z-1.750000 R0.187500
G03 X10.500000 Y0.000000 Z-1.875000 R0.500000
  X9.500000 Y0.000000 Z-2.000000 R0.500000
  X10.500000 Y0.000000 Z-2.125000 R0.500000
  X9.500000 Y0.000000 Z-2.250000 R0.500000
  X10.500000 Y0.000000 Z-2.375000 R0.500000
  X9.500000 Y0.000000 Z-2.500000 R0.500000
  X10.500000 Y0.000000 Z-2.625000 R0.500000
  X9.500000 Y0.000000 Z-2.750000 R0.500000
  X10.500000 Y0.000000 Z-2.750000 R0.500000
  X9.500000 Y0.000000 Z-2.750000 R0.500000
G02 X9.375000 Y0.000000 Z-2.750000 R0.062500
G03 X9.250000 Y0.000000 Z-2.750000 R0.062500
  X10.750000 Y0.000000 Z-2.750000 R0.750000
  X9.250000 Y0.000000 Z-2.750000 R0.750000
G02 X9.125000 Y0.000000 Z-2.750000 R0.062500
G03 X9.000000 Y0.000000 Z-2.750000 R0.062500
  X11.000000 Y0.000000 Z-2.750000 R1.000000
  X9.000000 Y0.000000 Z-2.750000 R1.000000
G02 X8.875000 Y0.000000 Z-2.750000 R0.062500
G03 X8.750000 Y0.000000 Z-2.750000 R0.062500
  X11.250000 Y0.000000 Z-2.750000 R1.250000
  X8.750000 Y0.000000 Z-2.750000 R1.250000
  X9.125000 Y0.000000 Z-2.500000 R0.187500
G02 X9.500000 Y0.000000 Z-2.000000 R0.187500
G03 X10.500000 Y0.000000 Z-2.125000 R0.500000
  X9.500000 Y0.000000 Z-2.250000 R0.500000
  X10.500000 Y0.000000 Z-2.375000 R0.500000
  X9.500000 Y0.000000 Z-2.500000 R0.500000
  X10.500000 Y0.000000 Z-2.625000 R0.500000
  X9.500000 Y0.000000 Z-2.750000 R0.500000
  X10.500000 Y0.000000 Z-2.875000 R0.500000
  X9.500000 Y0.000000 Z-3.000000 R0.500000
  X10.500000 Y0.000000 Z-3.000000 R0.500000
  X9.500000 Y0.000000 Z-3.000000 R0.500000
G02 X9.375000 Y0.000000 Z-3.000000 R0.062500
G03 X9.250000 Y0.000000 Z-3.000000 R0.062500
  X10.750000 Y0.000000 Z-3.000000 R0.750000
  X9.250000 Y0.000000 Z-3.000000 R0.750000
G02 X9.125000 Y0.000000 Z-3.000000 R0.062500
G03 X9.000000 Y0.000000 Z-3.000000 R0.062500
  X11.000000 Y0.000000 Z-3.000000 R1.000000
  X9.000000 Y0.000000 Z-3.000000 R1.000000
G02 X8.875000 Y0.000000 Z-3.000000 R0.062500
G03 X8.750000 Y0.000000 Z-3.000000 R0.062500
  X11.250000 Y0.000000 Z-3.000000 R1.250000
  X8.750000 Y0.000000 Z-3.000000 R1.250000
  X9.125000 Y0.000000 Z-2.750000 R0.187500
G02 X9.500000 Y0.000000 Z-2.250000 R0.187500
G03 X10.500000 Y0.000000 Z-2.375000 R0.500000
  X9.500000 Y0.000000 Z-2.500000 R0.500000
  X10.500000 Y0.000000 Z-2.625000 R0.500000
  X9.500000 Y0.000000 Z-2.750000 R0.500000
  X10.500000 Y0.000000 Z-2.875000 R0.500000
  X9.500000 Y0.000000 Z-3.000000 R0.500000
  X10.500000 Y0.000000 Z-3.125000 R0.500000
  X9.500000 Y0.000000 Z-3.250000 R0.500000
  X10.500000 Y0.000000 Z-3.250000 R0.500000
  X9.500000 Y0.000000 Z-3.250000 R0.500000
G02 X9.375000 Y0.000000 Z-3.250000 R0.062500
G03 X9.250000 Y0.000000 Z-3.250000 R0.062500
  X10.750000 Y0.000000 Z-3.250000 R0.750000
  X9.250000 Y0.000000 Z-3.250000 R0.750000
G02 X9.125000 Y0.000000 Z-3.250000 R0.062500
G03 X9.000000 Y0.000000 Z-3.250000 R0.062500
  X11.000000 Y0.000000 Z-3.250000 R1.000000
  X9.000000 Y0.000000 Z-3.250000 R1.000000
G02 X8.875000 Y0.000000 Z-3.250000 R0.062500
G03 X8.750000 Y0.000000 Z-3.250000 R0.062500
  X11.250000 Y0.000000 Z-3.250000 R1.250000
  X8.750000 Y0.000000 Z-3.250000 R1.250000
  X9.125000 Y0.000000 Z-3.000000 R0.187500
G02 X9.500000 Y0.000000 Z-2.500000 R0.187500
G03 X10.500000 Y0.000000 Z-2.625000 R0.500000
  X9.500000 Y0.000000 Z-2.750000 R0.500000
  X10.500000 Y0.000000 Z-2.875000 R0.500000
  X9.500000 Y0.000000 Z-3.000000 R0.500000
  X10.500000 Y0.000000 Z-3.125000 R0.500000
  X9.500000 Y0.000000 Z-3.250000 R0.500000
  X10.500000 Y0.000000 Z-3.375000 R0.500000
  X9.500000 Y0.000000 Z-3.500000 R0.500000
  X10.500000 Y0.000000 Z-3.500000 R0.500000
  X9.500000 Y0.000000 Z-3.500000 R0.500000
G02 X9.375000 Y0.000000 Z-3.500000 R0.062500
G03 X9.250000 Y0.000000 Z-3.500000 R0.062500
  X10.750000 Y0.000000 Z-3.500000 R0.750000
  X9.250000 Y0.000000 Z-3.500000 R0.750000
G02 X9.125000 Y0.000000 Z-3.500000 R0.062500
G03 X9.000000 Y0.000000 Z-3.500000 R0.062500
  X11.000000 Y0.000000 Z-3.500000 R1.000000
  X9.000000 Y0.000000 Z-3.500000 R1.000000
G02 X8.875000 Y0.000000 Z-3.500000 R0.062500
G03 X8.750000 Y0.000000 Z-3.500000 R0.062500
  X11.250000 Y0.000000 Z-3.500000 R1.250000
  X8.750000 Y0.000000 Z-3.500000 R1.250000
  X9.125000 Y0.000000 Z-3.250000 R0.187500
G02 X9.500000 Y0.000000 Z-2.750000 R0.187500
G03 X10.500000 Y0.000000 Z-2.875000 R0.500000
  X9.500000 Y0.000000 Z-3.000000 R0.500000
  X10.500000 Y0.000000 Z-3.125000 R0.500000
  X9.500000 Y0.000000 Z-3.250000 R0.500000
  X10.500000 Y0.000000 Z-3.375000 R0.500000
  X9.500000 Y0.000000 Z-3.500000 R0.500000
  X10.500000 Y0.000000 Z-3.625000 R0.500000
  X9.500000 Y0.000000 Z-3.750000 R0.500000
  X10.500000 Y0.000000 Z-3.750000 R0.500000
  X9.500000 Y0.000000 Z-3.750000 R0.500000
G02 X9.375000 Y0.000000 Z-3.750000 R0.062500
G03 X9.250000 Y0.000000 Z-3.750000 R0.062500
  X10.750000 Y0.000000 Z-3.750000 R0.750000
  X9.250000 Y0.000000 Z-3.750000 R0.750000
G02 X9.125000 Y0.000000 Z-3.750000 R0.062500
G03 X9.000000 Y0.000000 Z-3.750000 R0.062500
  X11.000000 Y0.000000 Z-3.750000 R1.000000
  X9.000000 Y0.000000 Z-3.750000 R1.000000
G02 X8.875000 Y0.000000 Z-3.750000 R0.062500
G03 X8.750000 Y0.000000 Z-3.750000 R0.062500
  X11.250000 Y0.000000 Z-3.750000 R1.250000
  X8.750000 Y0.000000 Z-3.750000 R1.250000
  X9.125000 Y0.000000 Z-3.500000 R0.187500
G02 X9.500000 Y0.000000 Z-3.000000 R0.187500
G03 X10.500000 Y0.000000 Z-3.125000 R0.500000
  X9.500000 Y0.000000 Z-3.250000 R0.500000
  X10.500000 Y0.000000 Z-3.375000 R0.500000
  X9.500000 Y0.000000 Z-3.500000 R0.500000
  X10.500000 Y0.000000 Z-3.625000 R0.500000
  X9.500000 Y0.000000 Z-3.750000 R0.500000
  X10.500000 Y0.000000 Z-3.875000 R0.500000
  X9.500000 Y0.000000 Z-4.000000 R0.500000
  X10.500000 Y0.000000 Z-4.000000 R0.500000
  X9.500000 Y0.000000 Z-4.000000 R0.500000
G02 X9.375000 Y0.000000 Z-4.000000 R0.062500
G03 X9.250000 Y0.000000 Z-4.000000 R0.062500
  X10.750000 Y0.000000 Z-4.000000 R0.750000
  X9.250000 Y0.000000 Z-4.000000 R0.750000
G02 X9.125000 Y0.000000 Z-4.000000 R0.062500
G03 X9.000000 Y0.000000 Z-4.000000 R0.062500
  X11.000000 Y0.000000 Z-4.000000 R1.000000
  X9.000000 Y0.000000 Z-4.000000 R1.000000
G02 X8.875000 Y0.000000 Z-4.000000 R0.062500
G03 X8.750000 Y0.000000 Z-4.000000 R0.062500
  X11.250000 Y0.000000 Z-4.000000 R1.250000
  X8.750000 Y0.000000 Z-4.000000 R1.250000
  X9.125000 Y0.000000 Z-3.750000 R0.187500
G02 X9.500000 Y0.000000 Z-3.250000 R0.187500
G03 X10.500000 Y0.000000 Z-3.375000 R0.500000
  X9.500000 Y0.000000 Z-3.500000 R0.500000
  X10.500000 Y0.000000 Z-3.625000 R0.500000
  X9.500000 Y0.000000 Z-3.750000 R0.500000
  X10.500000 Y0.000000 Z-3.875000 R0.500000
  X9.500000 Y0.000000 Z-4.000000 R0.500000
  X10.500000 Y0.000000 Z-4.125000 R0.500000
  X9.500000 Y0.000000 Z-4.250000 R0.500000
  X10.500000 Y0.000000 Z-4.250000 R0.500000
  X9.500000 Y0.000000 Z-4.250000 R0.500000
G02 X9.375000 Y0.000000 Z-4.250000 R0.062500
G03 X9.250000 Y0.000000 Z-4.250000 R0.062500
  X10.750000 Y0.000000 Z-4.250000 R0.750000
  X9.250000 Y0.000000 Z-4.250000 R0.750000
G02 X9.125000 Y0.000000 Z-4.250000 R0.062500
G03 X9.000000 Y0.000000 Z-4.250000 R0.062500
  X11.000000 Y0.000000 Z-4.250000 R1.000000
  X9.000000 Y0.000000 Z-4.250000 R1.000000
G02 X8.875000 Y0.000000 Z-4.250000 R0.062500
G03 X8.750000 Y0.000000 Z-4.250000 R0.062500
  X11.250000 Y0.000000 Z-4.250000 R1.250000
  X8.750000 Y0.000000 Z-4.250000 R1.250000
  X9.125000 Y0.000000 Z-4.000000 R0.187500
G02 X9.500000 Y0.000000 Z-3.500000 R0.187500
G03 X10.500000 Y0.000000 Z-3.625000 R0.500000
  X9.500000 Y0.000000 Z-3.750000 R0.500000
  X10.500000 Y0.000000 Z-3.875000 R0.500000
  X9.500000 Y0.000000 Z-4.000000 R0.500000
  X10.500000 Y0.000000 Z-4.125000 R0.500000
  X9.500000 Y0.000000 Z-4.250000 R0.500000
  X10.500000 Y0.000000 Z-4.375000 R0.500000
  X9.500000 Y0.000000 Z-4.500000 R0.500000
  X10.500000 Y0.000000 Z-4.500000 R0.500000
  X9.500000 Y0.000000 Z-4.500000 R0.500000
G02 X9.375000 Y0.000000 Z-4.500000 R0.062500
G03 X9.250000 Y0.000000 Z-4.500000 R0.062500
  X10.750000 Y0.000000 Z-4.500000 R0.750000
  X9.250000 Y0.000000 Z-4.500000 R0.750000
G02 X9.125000 Y0.000000 Z-4.500000 R0.062500
G03 X9.000000 Y0.000000 Z-4.500000 R0.062500
  X11.000000 Y0.000000 Z-4.500000 R1.000000
  X9.000000 Y0.000000 Z-4.500000 R1.000000
G02 X8.875000 Y0.000000 Z-4.500000 R0.062500
G03 X8.750000 Y0.000000 Z-4.500000 R0.062500
  X11.250000 Y0.000000 Z-4.500000 R1.250000
  X8.750000 Y0.000000 Z-4.500000 R1.250000
  X9.125000 Y0.000000 Z-4.250000 R0.187500
G02 X9.500000 Y0.000000 Z-3.750000 R0.187500
G03 X10.500000 Y0.000000 Z-3.875000 R0.500000
  X9.500000 Y0.000000 Z-4.000000 R0.500000
  X10.500000 Y0.000000 Z-4.125000 R0.500000
  X9.500000 Y0.000000 Z-4.250000 R0.500000
  X10.500000 Y0.000000 Z-4.375000 R0.500000
  X9.500000 Y0.000000 Z-4.500000 R0.500000
  X10.500000 Y0.000000 Z-4.625000 R0.500000
  X9.500000 Y0.000000 Z-4.750000 R0.500000
  X10.500000 Y0.000000 Z-4.750000 R0.500000
  X9.500000 Y0.000000 Z-4.750000 R0.500000
G02 X9.375000 Y0.000000 Z-4.750000 R0.062500
G03 X9.250000 Y0.000000 Z-4.750000 R0.062500
  X10.750000 Y0.000000 Z-4.750000 R0.750000
  X9.250000 Y0.000000 Z-4.750000 R0.750000
G02 X9.125000 Y0.000000 Z-4.750000 R0.062500
G03 X9.000000 Y0.000000 Z-4.750000 R0.062500
  X11.000000 Y0.000000 Z-4.750000 R1.000000
  X9.000000 Y0.000000 Z-4.750000 R1.000000
G02 X8.875000 Y0.000000 Z-4.750000 R0.062500
G03 X8.750000 Y0.000000 Z-4.750000 R0.062500
  X11.250000 Y0.000000 Z-4.750000 R1.250000
  X8.750000 Y0.000000 Z-4.750000 R1.250000
  X9.125000 Y0.000000 Z-4.500000 R0.187500
G02 X9.500000 Y0.000000 Z-4.000000 R0.187500
G03 X10.500000 Y0.000000 Z-4.125000 R0.500000
  X9.500000 Y0.000000 Z-4.250000 R0.500000
  X10.500000 Y0.000000 Z-4.375000 R0.500000
  X9.500000 Y0.000000 Z-4.500000 R0.500000
  X10.500000 Y0.000000 Z-4.625000 R0.500000
  X9.500000 Y0.000000 Z-4.750000 R0.500000
  X10.500000 Y0.000000 Z-4.875000 R0.500000
  X9.500000 Y0.000000 Z-5.000000 R0.500000
  X10.500000 Y0.000000 Z-5.000000 R0.500000
  X9.500000 Y0.000000 Z-5.000000 R0.500000
G02 X9.375000 Y0.000000 Z-5.000000 R0.062500
G03 X9.250000 Y0.000000 Z-5.000000 R0.062500
  X10.750000 Y0.000000 Z-5.000000 R0.750000
  X9.250000 Y0.000000 Z-5.000000 R0.750000
G02 X9.125000 Y0.000000 Z-5.000000 R0.062500
G03 X9.000000 Y0.000000 Z-5.000000 R0.062500
  X11.000000 Y0.000000 Z-5.000000 R1.000000
  X9.000000 Y0.000000 Z-5.000000 R1.000000
G02 X8.875000 Y0.000000 Z-5.000000 R0.062500
G03 X8.750000 Y0.000000 Z-5.000000 R0.062500
  X11.250000 Y0.000000 Z-5.000000 R1.250000
  X8.750000 Y0.000000 Z-5.000000 R1.250000
  X9.125000 Y0.000000 Z-4.750000 R0.187500
G02 X9.500000 Y0.000000 Z-4.250000 R0.187500
G03 X10.500000 Y0.000000 Z-4.375000 R0.500000
  X9.500000 Y0.000000 Z-4.500000 R0.500000
  X10.500000 Y0.000000 Z-4.625000 R0.500000
  X9.500000 Y0.000000 Z-4.750000 R0.500000
  X10.500000 Y0.000000 Z-4.875000 R0.500000
  X9.500000 Y0.000000 Z-5.000000 R0.500000
  X10.500000 Y0.000000 Z-5.125000 R0.500000
  X9.500000 Y0.000000 Z-5.250000 R0.500000
  X10.500000 Y0.000000 Z-5.250000 R0.500000
  X9.500000 Y0.000000 Z-5.250000 R0.500000
G02 X9.375000 Y0.000000 Z-5.250000 R0.062500
G03 X9.250000 Y0.000000 Z-5.250000 R0.062500
  X10.750000 Y0.000000 Z-5.250000 R0.750000
  X9.250000 Y0.000000 Z-5.250000 R0.750000
G02 X9.125000 Y0.000000 Z-5.250000 R0.062500
G03 X9.000000 Y0.000000 Z-5.250000 R0.062500
  X11.000000 Y0.000000 Z-5.250000 R1.000000
  X9.000000 Y0.000000 Z-5.250000 R1.000000
G02 X8.875000 Y0.000000 Z-5.250000 R0.062500
G03 X8.750000 Y0.000000 Z-5.250000 R0.062500
  X11.250000 Y0.000000 Z-5.250000 R1.250000
  X8.750000 Y0.000000 Z-5.250000 R1.250000
  X9.125000 Y0.000000 Z-5.000000 R0.187500
G02 X9.500000 Y0.000000 Z-4.500000 R0.187500
G03 X10.500000 Y0.000000 Z-4.625000 R0.500000
  X9.500000 Y0.000000 Z-4.750000 R0.500000
  X10.500000 Y0.000000 Z-4.875000 R0.500000
  X9.500000 Y0.000000 Z-5.000000 R0.500000
  X10.500000 Y0.000000 Z-5.125000 R0.500000
  X9.500000 Y0.000000 Z-5.250000 R0.500000
  X10.500000 Y0.000000 Z-5.375000 R0.500000
  X9.500000 Y0.000000 Z-5.500000 R0.500000
  X10.500000 Y0.000000 Z-5.500000 R0.500000
  X9.500000 Y0.000000 Z-5.500000 R0.500000
G02 X9.375000 Y0.000000 Z-5.500000 R0.062500
G03 X9.250000 Y0.000000 Z-5.500000 R0.062500
  X10.750000 Y0.000000 Z-5.500000 R0.750000
  X9.250000 Y0.000000 Z-5.500000 R0.750000
G02 X9.125000 Y0.000000 Z-5.500000 R0.062500
G03 X9.000000 Y0.000000 Z-5.500000 R0.062500
  X11.000000 Y0.000000 Z-5.500000 R1.000000
  X9.000000 Y0.000000 Z-5.500000 R1.000000
G02 X8.875000 Y0.000000 Z-5.500000 R0.062500
G03 X8.750000 Y0.000000 Z-5.500000 R0.062500
  X11.250000 Y0.000000 Z-5.500000 R1.250000
  X8.750000 Y0.000000 Z-5.500000 R1.250000
  X9.500000 Y0.000000 Z0.750000 R0.375000
(END)
G00 Z5

M02
