G21       (units are millimeters)
G94       (feedrate in 'units' per minute)
G17       (working in/on xy-plane)
G64 P0.05 (LinuxCNC, continuous mode with 'p' as tolerance)

G54       (use first WCS)

(DEBUG,CHECK WCS NOW!)
M0        (pause and display message)
G4 P1     (wait for 1 second)

T1 M6     (select first tool)
S8000 M03
G04 P3    (wait for 3 seconds)

G43 H1    (set tool offset)

(DEBUG,CHECK TOOL OFFSET NOW!)
M0        (pause and display message)
G4 P1     (wait for 1 second)

F900

(rapid to: no name)
G00 Z5
G00 X14.635919 Y-1.873033
G00 Z0.000000
(no name)
G01 X18.543677 Y-7.492132 
  X16.960962 Y-10.598385 
  X14.240240 Y-2.649596 
  X13.715724 Y-3.345653 
  X14.862897 Y-13.382612 
  X12.313230 Y-15.760215 
  X13.078307 Y-3.940054 
  X12.347358 Y-4.414738 
  X9.389431 Y-17.658952 
  X6.180340 Y-19.021130 
  X11.545085 Y-4.755283 
  X10.695866 Y-4.951340 
  X2.783462 Y-19.805361 
  X-0.697990 Y-19.987817 
  X9.825503 Y-4.996954 
  X8.960442 Y-4.890738 
  X-4.158234 Y-19.562952 
  X-7.492132 Y-18.543677 
  X8.126967 Y-4.635919 
  X7.350404 Y-4.240240 
  X-10.598385 Y-16.960962 
  X-13.382612 Y-14.862897 
  X6.654347 Y-3.715724 
  X6.059946 Y-3.078307 
  X-15.760215 Y-12.313230 
  X-17.658952 Y-9.389431 
  X5.585262 Y-2.347358 
  X5.244717 Y-1.545085 
  X-19.021130 Y-6.180340 
  X-19.805361 Y-2.783462 
  X5.048660 Y-0.695866 
  X5.003046 Y0.174497 
  X-19.987817 Y0.697990 
  X-19.562952 Y4.158234 
  X5.109262 Y1.039558 
(rapid to: no name)
G00 Z5
G00 X-20.000000 Y30.000000
G00 Z0.000000
(no name)
G01 X-15.000000  
  X-15.227884 Y27.395277 
  X-20.151922 Y28.263518 
  X-20.603074 Y26.579799 
  X-15.904611 Y24.869698 
  X-17.009619 Y22.500000 
  X-21.339746 Y25.000000 
  X-22.339556 Y23.572124 
  X-18.509333 Y20.358186 
  X-20.358186 Y18.509333 
  X-23.572124 Y22.339556 
  X-25.000000 Y21.339746 
  X-22.500000 Y17.009619 
  X-24.869698 Y15.904611 
  X-26.579799 Y20.603074 
  X-28.263518 Y20.151922 
  X-27.395277 Y15.227884 
  X-30.000000 Y15.000000 
   Y20.000000 
  X-31.736482 Y20.151922 
  X-32.604723 Y15.227884 
  X-35.130302 Y15.904611 
  X-33.420201 Y20.603074 
  X-35.000000 Y21.339746 
  X-37.500000 Y17.009619 
  X-39.641814 Y18.509333 
  X-36.427876 Y22.339556 
  X-37.660444 Y23.572124 
  X-41.490667 Y20.358186 
  X-42.990381 Y22.500000 
  X-38.660254 Y25.000000 
  X-39.396926 Y26.579799 
  X-44.095389 Y24.869698 
  X-44.772116 Y27.395277 
  X-39.848078 Y28.263518 
  X-40.000000 Y30.000000 
  X-45.000000 Y30.000000 
  X-44.772116 Y32.604723 
  X-39.848078 Y31.736482 
  X-39.396926 Y33.420201 
  X-44.095389 Y35.130302 
  X-42.990381 Y37.500000 
  X-38.660254 Y35.000000 
  X-37.660444 Y36.427876 
  X-41.490667 Y39.641814 
  X-39.641814 Y41.490667 
  X-36.427876 Y37.660444 
  X-35.000000 Y38.660254 
  X-37.500000 Y42.990381 
  X-35.130302 Y44.095389 
  X-33.420201 Y39.396926 
  X-31.736482 Y39.848078 
  X-32.604723 Y44.772116 
  X-30.000000 Y45.000000 
   Y40.000000 
  X-28.263518 Y39.848078 
  X-27.395277 Y44.772116 
  X-24.869698 Y44.095389 
  X-26.579799 Y39.396926 
  X-25.000000 Y38.660254 
  X-22.500000 Y42.990381 
  X-20.358186 Y41.490667 
  X-23.572124 Y37.660444 
  X-22.339556 Y36.427876 
  X-18.509333 Y39.641814 
  X-17.009619 Y37.500000 
  X-21.339746 Y35.000000 
  X-20.603074 Y33.420201 
  X-15.904611 Y35.130302 
  X-15.227884 Y32.604723 
  X-20.151922 Y31.736482 
(rapid to: no name)
G00 Z5
G00 X10.000000 Y30.000000
G00 Z0.000000
(no name)
G01 X15.000000  Z10.000000
  X14.772116 Y27.395277 
  X9.848078 Y28.263518 Z0.000000
  X9.396926 Y26.579799 
  X14.095389 Y24.869698 Z10.000000
  X12.990381 Y22.500000 
  X8.660254 Y25.000000 Z0.000000
  X7.660444 Y23.572124 
  X11.490667 Y20.358186 Z10.000000
  X9.641814 Y18.509333 
  X6.427876 Y22.339556 Z0.000000
  X5.000000 Y21.339746 
  X7.500000 Y17.009619 Z10.000000
  X5.130302 Y15.904611 
  X3.420201 Y20.603074 Z0.000000
  X1.736482 Y20.151922 
  X2.604723 Y15.227884 Z10.000000
  X0.000000 Y15.000000 
  X0.000000 Y20.000000 Z0.000000
  X-1.736482 Y20.151922 
  X-2.604723 Y15.227884 Z10.000000
  X-5.130302 Y15.904611 
  X-3.420201 Y20.603074 Z0.000000
  X-5.000000 Y21.339746 
  X-7.500000 Y17.009619 Z10.000000
  X-9.641814 Y18.509333 
  X-6.427876 Y22.339556 Z0.000000
  X-7.660444 Y23.572124 
  X-11.490667 Y20.358186 Z10.000000
  X-12.990381 Y22.500000 
  X-8.660254 Y25.000000 Z0.000000
  X-9.396926 Y26.579799 
  X-14.095389 Y24.869698 Z10.000000
  X-14.772116 Y27.395277 
  X-9.848078 Y28.263518 Z0.000000
  X-10.000000 Y30.000000 
  X-15.000000 Y30.000000 Z10.000000
  X-14.772116 Y32.604723 
  X-9.848078 Y31.736482 Z0.000000
  X-9.396926 Y33.420201 
  X-14.095389 Y35.130302 Z10.000000
  X-12.990381 Y37.500000 
  X-8.660254 Y35.000000 Z0.000000
  X-7.660444 Y36.427876 
  X-11.490667 Y39.641814 Z10.000000
  X-9.641814 Y41.490667 
  X-6.427876 Y37.660444 Z0.000000
  X-5.000000 Y38.660254 
  X-7.500000 Y42.990381 Z10.000000
  X-5.130302 Y44.095389 
  X-3.420201 Y39.396926 Z0.000000
  X-1.736482 Y39.848078 
  X-2.604723 Y44.772116 Z10.000000
  X-0.000000 Y45.000000 
  X-0.000000 Y40.000000 Z0.000000
  X1.736482 Y39.848078 
  X2.604723 Y44.772116 Z10.000000
  X5.130302 Y44.095389 
  X3.420201 Y39.396926 Z0.000000
  X5.000000 Y38.660254 
  X7.500000 Y42.990381 Z10.000000
  X9.641814 Y41.490667 
  X6.427876 Y37.660444 Z0.000000
  X7.660444 Y36.427876 
  X11.490667 Y39.641814 Z10.000000
  X12.990381 Y37.500000 
  X8.660254 Y35.000000 Z0.000000
  X9.396926 Y33.420201 
  X14.095389 Y35.130302 Z10.000000
  X14.772116 Y32.604723 
  X9.848078 Y31.736482 Z0.000000
(rapid to: no name)
G00 Z5
G00 X40.000000 Y30.000000
G00 Z0.000000
(no name)
G01 X35.000000  Z-10.000000
  X34.924039 Y29.131759 
  X39.848078 Y28.263518 Z0.000000
  X39.396926 Y26.579799 
  X34.698463 Y28.289899 Z-10.000000
  X34.330127 Y27.500000 
  X38.660254 Y25.000000 Z0.000000
  X37.660444 Y23.572124 
  X33.830222 Y26.786062 Z-10.000000
  X33.213938 Y26.169778 
  X36.427876 Y22.339556 Z0.000000
  X35.000000 Y21.339746 
  X32.500000 Y25.669873 Z-10.000000
  X31.710101 Y25.301537 
  X33.420201 Y20.603074 Z0.000000
  X31.736482 Y20.151922 
  X30.868241 Y25.075961 Z-10.000000
  X30.000000 Y25.000000 
   Y20.000000 Z0.000000
  X28.263518 Y20.151922 
  X29.131759 Y25.075961 Z-10.000000
  X28.289899 Y25.301537 
  X26.579799 Y20.603074 Z0.000000
  X25.000000 Y21.339746 
  X27.500000 Y25.669873 Z-10.000000
  X26.786062 Y26.169778 
  X23.572124 Y22.339556 Z0.000000
  X22.339556 Y23.572124 
  X26.169778 Y26.786062 Z-10.000000
  X25.669873 Y27.500000 
  X21.339746 Y25.000000 Z0.000000
  X20.603074 Y26.579799 
  X25.301537 Y28.289899 Z-10.000000
  X25.075961 Y29.131759 
  X20.151922 Y28.263518 Z0.000000
  X20.000000 Y30.000000 
  X25.000000  Z-10.000000
  X25.075961 Y30.868241 
  X20.151922 Y31.736482 Z0.000000
  X20.603074 Y33.420201 
  X25.301537 Y31.710101 Z-10.000000
  X25.669873 Y32.500000 
  X21.339746 Y35.000000 Z0.000000
  X22.339556 Y36.427876 
  X26.169778 Y33.213938 Z-10.000000
  X26.786062 Y33.830222 
  X23.572124 Y37.660444 Z0.000000
  X25.000000 Y38.660254 
  X27.500000 Y34.330127 Z-10.000000
  X28.289899 Y34.698463 
  X26.579799 Y39.396926 Z0.000000
  X28.263518 Y39.848078 
  X29.131759 Y34.924039 Z-10.000000
  X30.000000 Y35.000000 
  X30.000000 Y40.000000 Z0.000000
  X31.736482 Y39.848078 
  X30.868241 Y34.924039 Z-10.000000
  X31.710101 Y34.698463 
  X33.420201 Y39.396926 Z0.000000
  X35.000000 Y38.660254 
  X32.500000 Y34.330127 Z-10.000000
  X33.213938 Y33.830222 
  X36.427876 Y37.660444 Z0.000000
  X37.660444 Y36.427876 
  X33.830222 Y33.213938 Z-10.000000
  X34.330127 Y32.500000 
  X38.660254 Y35.000000 Z0.000000
  X39.396926 Y33.420201 
  X34.698463 Y31.710101 Z-10.000000
  X34.924039 Y30.868241 
  X39.848078 Y31.736482 Z0.000000
(rapid to: no name)
G00 Z5
G00 X-20.000000 Y-30.000000
G00 Z0.000000
(no name)
G01 X-15.000000  
  X-20.151922 Y-31.736482 
  X-15.227884 Y-32.604723 
  X-20.603074 Y-33.420201 
  X-15.904611 Y-35.130302 
  X-21.339746 Y-35.000000 
  X-17.009619 Y-37.500000 
  X-22.339556 Y-36.427876 
  X-18.509333 Y-39.641814 
  X-23.572124 Y-37.660444 
  X-20.358186 Y-41.490667 
  X-25.000000 Y-38.660254 
  X-22.500000 Y-42.990381 
  X-26.579799 Y-39.396926 
  X-24.869698 Y-44.095389 
  X-28.263518 Y-39.848078 
  X-27.395277 Y-44.772116 
  X-30.000000 Y-40.000000 
   Y-45.000000 
  X-31.736482 Y-39.848078 
  X-32.604723 Y-44.772116 
  X-33.420201 Y-39.396926 
  X-35.130302 Y-44.095389 
  X-35.000000 Y-38.660254 
  X-37.500000 Y-42.990381 
  X-36.427876 Y-37.660444 
  X-39.641814 Y-41.490667 
  X-37.660444 Y-36.427876 
  X-41.490667 Y-39.641814 
  X-38.660254 Y-35.000000 
  X-42.990381 Y-37.500000 
  X-39.396926 Y-33.420201 
  X-44.095389 Y-35.130302 
  X-39.848078 Y-31.736482 
  X-44.772116 Y-32.604723 
  X-40.000000 Y-30.000000 
  X-45.000000 Y-30.000000 
  X-39.848078 Y-28.263518 
  X-44.772116 Y-27.395277 
  X-39.396926 Y-26.579799 
  X-44.095389 Y-24.869698 
  X-38.660254 Y-25.000000 
  X-42.990381 Y-22.500000 
  X-37.660444 Y-23.572124 
  X-41.490667 Y-20.358186 
  X-36.427876 Y-22.339556 
  X-39.641814 Y-18.509333 
  X-35.000000 Y-21.339746 
  X-37.500000 Y-17.009619 
  X-33.420201 Y-20.603074 
  X-35.130302 Y-15.904611 
  X-31.736482 Y-20.151922 
  X-32.604723 Y-15.227884 
  X-30.000000 Y-20.000000 
   Y-15.000000 
  X-28.263518 Y-20.151922 
  X-27.395277 Y-15.227884 
  X-26.579799 Y-20.603074 
  X-24.869698 Y-15.904611 
  X-25.000000 Y-21.339746 
  X-22.500000 Y-17.009619 
  X-23.572124 Y-22.339556 
  X-20.358186 Y-18.509333 
  X-22.339556 Y-23.572124 
  X-18.509333 Y-20.358186 
  X-21.339746 Y-25.000000 
  X-17.009619 Y-22.500000 
  X-20.603074 Y-26.579799 
  X-15.904611 Y-24.869698 
  X-20.151922 Y-28.263518 
  X-15.227884 Y-27.395277 
(rapid to: no name)
G00 Z5
G00 X10.000000 Y-30.000000
G00 Z0.000000
(no name)
G01 X7.500000  Z5.000000
  X9.848078 Y-31.736482 Z0.000000
  X7.386058 Y-31.302361 Z5.000000
  X9.396926 Y-33.420201 Z0.000000
  X7.047695 Y-32.565151 Z5.000000
  X8.660254 Y-35.000000 Z0.000000
  X6.495191 Y-33.750000 Z5.000000
  X7.660444 Y-36.427876 Z0.000000
  X5.745333 Y-34.820907 Z5.000000
  X6.427876 Y-37.660444 Z0.000000
  X4.820907 Y-35.745333 Z5.000000
  X5.000000 Y-38.660254 Z0.000000
  X3.750000 Y-36.495191 Z5.000000
  X3.420201 Y-39.396926 Z0.000000
  X2.565151 Y-37.047695 Z5.000000
  X1.736482 Y-39.848078 Z0.000000
  X1.302361 Y-37.386058 Z5.000000
  X0.000000 Y-40.000000 Z0.000000
  X0.000000 Y-37.500000 Z5.000000
  X-1.736482 Y-39.848078 Z0.000000
  X-1.302361 Y-37.386058 Z5.000000
  X-3.420201 Y-39.396926 Z0.000000
  X-2.565151 Y-37.047695 Z5.000000
  X-5.000000 Y-38.660254 Z0.000000
  X-3.750000 Y-36.495191 Z5.000000
  X-6.427876 Y-37.660444 Z0.000000
  X-4.820907 Y-35.745333 Z5.000000
  X-7.660444 Y-36.427876 Z0.000000
  X-5.745333 Y-34.820907 Z5.000000
  X-8.660254 Y-35.000000 Z0.000000
  X-6.495191 Y-33.750000 Z5.000000
  X-9.396926 Y-33.420201 Z0.000000
  X-7.047695 Y-32.565151 Z5.000000
  X-9.848078 Y-31.736482 Z0.000000
  X-7.386058 Y-31.302361 Z5.000000
  X-10.000000 Y-30.000000 Z0.000000
  X-7.500000  Z5.000000
  X-9.848078 Y-28.263518 Z0.000000
  X-7.386058 Y-28.697639 Z5.000000
  X-9.396926 Y-26.579799 Z0.000000
  X-7.047695 Y-27.434849 Z5.000000
  X-8.660254 Y-25.000000 Z0.000000
  X-6.495191 Y-26.250000 Z5.000000
  X-7.660444 Y-23.572124 Z0.000000
  X-5.745333 Y-25.179093 Z5.000000
  X-6.427876 Y-22.339556 Z0.000000
  X-4.820907 Y-24.254667 Z5.000000
  X-5.000000 Y-21.339746 Z0.000000
  X-3.750000 Y-23.504809 Z5.000000
  X-3.420201 Y-20.603074 Z0.000000
  X-2.565151 Y-22.952305 Z5.000000
  X-1.736482 Y-20.151922 Z0.000000
  X-1.302361 Y-22.613942 Z5.000000
  X-0.000000 Y-20.000000 Z0.000000
  X-0.000000 Y-22.500000 Z5.000000
  X1.736482 Y-20.151922 Z0.000000
  X1.302361 Y-22.613942 Z5.000000
  X3.420201 Y-20.603074 Z0.000000
  X2.565151 Y-22.952305 Z5.000000
  X5.000000 Y-21.339746 Z0.000000
  X3.750000 Y-23.504809 Z5.000000
  X6.427876 Y-22.339556 Z0.000000
  X4.820907 Y-24.254667 Z5.000000
  X7.660444 Y-23.572124 Z0.000000
  X5.745333 Y-25.179093 Z5.000000
  X8.660254 Y-25.000000 Z0.000000
  X6.495191 Y-26.250000 Z5.000000
  X9.396926 Y-26.579799 Z0.000000
  X7.047695 Y-27.434849 Z5.000000
  X9.848078 Y-28.263518 Z0.000000
  X7.386058 Y-28.697639 Z5.000000
(rapid to: no name)
G00 Z5
G00 X40.000000 Y-30.000000
G00 Z0.000000
(no name)
G01 X35.000000  Z-5.000000
  X35.024735 Y-30.008860 Z-4.642857
  X35.098940 Y-30.035438 Z-4.285714
  X35.222616 Y-30.079736 Z-3.928571
  X35.395761 Y-30.141754 Z-3.571429
  X35.618377 Y-30.221490 Z-3.214286
  X35.890463 Y-30.318946 Z-2.857143
  X36.212019 Y-30.434120 Z-2.500000
  X36.583046 Y-30.567014 Z-2.142857
  X37.003542 Y-30.717628 Z-1.785714
  X37.473509 Y-30.885960 Z-1.428571
  X37.992946 Y-31.072012 Z-1.071429
  X38.561853 Y-31.275783 Z-0.714286
  X39.180230 Y-31.497273 Z-0.357143
  X39.848078 Y-31.736482 Z0.000000
  X34.924039 Y-30.868241 Z-5.000000
  X34.946860 Y-30.881261 Z-4.642857
  X35.015322 Y-30.920322 Z-4.285714
  X35.129426 Y-30.985423 Z-3.928571
  X35.289172 Y-31.076564 Z-3.571429
  X35.494560 Y-31.193746 Z-3.214286
  X35.745590 Y-31.336968 Z-2.857143
  X36.042261 Y-31.506231 Z-2.500000
  X36.384573 Y-31.701534 Z-2.142857
  X36.772528 Y-31.922878 Z-1.785714
  X37.206124 Y-32.170262 Z-1.428571
  X37.685362 Y-32.443686 Z-1.071429
  X38.210242 Y-32.743151 Z-0.714286
  X38.780763 Y-33.068656 Z-0.357143
  X39.396926 Y-33.420201 Z0.000000
  X34.698463 Y-31.710101 Z-5.000000
  X34.718676 Y-31.726886 Z-4.642857
  X34.779316 Y-31.777242 Z-4.285714
  X34.880382 Y-31.861168 Z-3.928571
  X35.021875 Y-31.978664 Z-3.571429
  X35.203794 Y-32.129731 Z-3.214286
  X35.426139 Y-32.314368 Z-2.857143
  X35.688911 Y-32.532576 Z-2.500000
  X35.992109 Y-32.784354 Z-2.142857
  X36.335734 Y-33.069702 Z-1.785714
  X36.719785 Y-33.388621 Z-1.428571
  X37.144263 Y-33.741110 Z-1.071429
  X37.609167 Y-34.127170 Z-0.714286
  X38.114497 Y-34.546800 Z-0.357143
  X38.660254 Y-35.000000 Z0.000000
  X34.330127 Y-32.500000 Z-5.000000
  X34.347118 Y-32.520040 Z-4.642857
  X34.398093 Y-32.580161 Z-4.285714
  X34.483050 Y-32.680362 Z-3.928571
  X34.601990 Y-32.820643 Z-3.571429
  X34.754912 Y-33.001005 Z-3.214286
  X34.941818 Y-33.221447 Z-2.857143
  X35.162706 Y-33.481969 Z-2.500000
  X35.417578 Y-33.782572 Z-2.142857
  X35.706432 Y-34.123255 Z-1.785714
  X36.029269 Y-34.504018 Z-1.428571
  X36.386088 Y-34.924862 Z-1.071429
  X36.776891 Y-35.385787 Z-0.714286
  X37.201676 Y-35.886791 Z-0.357143
  X37.660444 Y-36.427876 Z0.000000
  X33.830222 Y-33.213938 Z-5.000000
  X33.843476 Y-33.236624 Z-4.642857
  X33.883236 Y-33.304683 Z-4.285714
  X33.949502 Y-33.418114 Z-3.928571
  X34.042276 Y-33.576918 Z-3.571429
  X34.161556 Y-33.781094 Z-3.214286
  X34.307342 Y-34.030643 Z-2.857143
  X34.479636 Y-34.325565 Z-2.500000
  X34.678436 Y-34.665858 Z-2.142857
  X34.903742 Y-35.051525 Z-1.785714
  X35.155556 Y-35.482564 Z-1.428571
  X35.433876 Y-35.958975 Z-1.071429
  X35.738703 Y-36.480759 Z-0.714286
  X36.070036 Y-37.047915 Z-0.357143
  X36.427876 Y-37.660444 Z0.000000
  X33.213938 Y-33.830222 Z-5.000000
  X33.223051 Y-33.854865 Z-4.642857
  X33.250388 Y-33.928794 Z-4.285714
  X33.295951 Y-34.052009 Z-3.928571
  X33.359739 Y-34.224511 Z-3.571429
  X33.441752 Y-34.446298 Z-3.214286
  X33.541990 Y-34.717371 Z-2.857143
  X33.660454 Y-35.037730 Z-2.500000
  X33.797142 Y-35.407375 Z-2.142857
  X33.952055 Y-35.826307 Z-1.785714
  X34.125194 Y-36.294524 Z-1.428571
  X34.316558 Y-36.812028 Z-1.071429
  X34.526147 Y-37.378817 Z-0.714286
  X34.753961 Y-37.994893 Z-0.357143
  X35.000000 Y-38.660254 Z0.000000
  X32.500000 Y-34.330127 Z-5.000000
  X32.504695 Y-34.355978 Z-4.642857
  X32.518780 Y-34.433531 Z-4.285714
  X32.542254 Y-34.562786 Z-3.928571
  X32.575118 Y-34.743743 Z-3.571429
  X32.617373 Y-34.976402 Z-3.214286
  X32.669017 Y-35.260764 Z-2.857143
  X32.730050 Y-35.596827 Z-2.500000
  X32.800474 Y-35.984592 Z-2.142857
  X32.880287 Y-36.424059 Z-1.785714
  X32.969491 Y-36.915229 Z-1.428571
  X33.068084 Y-37.458100 Z-1.071429
  X33.176066 Y-38.052673 Z-0.714286
  X33.293439 Y-38.698949 Z-0.357143
  X33.420201 Y-39.396926 Z0.000000
  X31.710101 Y-34.698463 Z-5.000000
  X31.710235 Y-34.724737 Z-4.642857
  X31.710639 Y-34.803557 Z-4.285714
  X31.711312 Y-34.934925 Z-3.928571
  X31.712254 Y-35.118840 Z-3.571429
  X31.713466 Y-35.355302 Z-3.214286
  X31.714946 Y-35.644311 Z-2.857143
  X31.716696 Y-35.985867 Z-2.500000
  X31.718715 Y-36.379970 Z-2.142857
  X31.721003 Y-36.826620 Z-1.785714
  X31.723560 Y-37.325817 Z-1.428571
  X31.726387 Y-37.877562 Z-1.071429
  X31.729483 Y-38.481853 Z-0.714286
  X31.732848 Y-39.138692 Z-0.357143
  X31.736482 Y-39.848078 Z0.000000
  X30.868241 Y-34.924039 Z-5.000000
  X30.863811 Y-34.949937 Z-4.642857
  X30.850522 Y-35.027630 Z-4.285714
  X30.828373 Y-35.157119 Z-3.928571
  X30.797364 Y-35.338403 Z-3.571429
  X30.757496 Y-35.571483 Z-3.214286
  X30.708768 Y-35.856358 Z-2.857143
  X30.651181 Y-36.193029 Z-2.500000
  X30.584734 Y-36.581495 Z-2.142857
  X30.509427 Y-37.021757 Z-1.785714
  X30.425261 Y-37.513815 Z-1.428571
  X30.332235 Y-38.057668 Z-1.071429
  X30.230350 Y-38.653316 Z-0.714286
  X30.119605 Y-39.300760 Z-0.357143
  X30.000000 Y-40.000000 Z0.000000
   Y-35.000000 Z-5.000000
  X29.991140 Y-35.024735 Z-4.642857
  X29.964562 Y-35.098940 Z-4.285714
  X29.920264 Y-35.222616 Z-3.928571
  X29.858246 Y-35.395761 Z-3.571429
  X29.778510 Y-35.618377 Z-3.214286
  X29.681054 Y-35.890463 Z-2.857143
  X29.565880 Y-36.212019 Z-2.500000
  X29.432986 Y-36.583046 Z-2.142857
  X29.282372 Y-37.003542 Z-1.785714
  X29.114040 Y-37.473509 Z-1.428571
  X28.927988 Y-37.992946 Z-1.071429
  X28.724217 Y-38.561853 Z-0.714286
  X28.502727 Y-39.180230 Z-0.357143
  X28.263518 Y-39.848078 Z0.000000
  X29.131759 Y-34.924039 Z-5.000000
  X29.118739 Y-34.946860 Z-4.642857
  X29.079678 Y-35.015322 Z-4.285714
  X29.014577 Y-35.129426 Z-3.928571
  X28.923436 Y-35.289172 Z-3.571429
  X28.806254 Y-35.494560 Z-3.214286
  X28.663032 Y-35.745590 Z-2.857143
  X28.493769 Y-36.042261 Z-2.500000
  X28.298466 Y-36.384573 Z-2.142857
  X28.077122 Y-36.772528 Z-1.785714
  X27.829738 Y-37.206124 Z-1.428571
  X27.556314 Y-37.685362 Z-1.071429
  X27.256849 Y-38.210242 Z-0.714286
  X26.931344 Y-38.780763 Z-0.357143
  X26.579799 Y-39.396926 Z0.000000
  X28.289899 Y-34.698463 Z-5.000000
  X28.273114 Y-34.718676 Z-4.642857
  X28.222758 Y-34.779316 Z-4.285714
  X28.138832 Y-34.880382 Z-3.928571
  X28.021336 Y-35.021875 Z-3.571429
  X27.870269 Y-35.203794 Z-3.214286
  X27.685632 Y-35.426139 Z-2.857143
  X27.467424 Y-35.688911 Z-2.500000
  X27.215646 Y-35.992109 Z-2.142857
  X26.930298 Y-36.335734 Z-1.785714
  X26.611379 Y-36.719785 Z-1.428571
  X26.258890 Y-37.144263 Z-1.071429
  X25.872830 Y-37.609167 Z-0.714286
  X25.453200 Y-38.114497 Z-0.357143
  X25.000000 Y-38.660254 Z0.000000
  X27.500000 Y-34.330127 Z-5.000000
  X27.479960 Y-34.347118 Z-4.642857
  X27.419839 Y-34.398093 Z-4.285714
  X27.319638 Y-34.483050 Z-3.928571
  X27.179357 Y-34.601990 Z-3.571429
  X26.998995 Y-34.754912 Z-3.214286
  X26.778553 Y-34.941818 Z-2.857143
  X26.518031 Y-35.162706 Z-2.500000
  X26.217428 Y-35.417578 Z-2.142857
  X25.876745 Y-35.706432 Z-1.785714
  X25.495982 Y-36.029269 Z-1.428571
  X25.075138 Y-36.386088 Z-1.071429
  X24.614213 Y-36.776891 Z-0.714286
  X24.113209 Y-37.201676 Z-0.357143
  X23.572124 Y-37.660444 Z0.000000
  X26.786062 Y-33.830222 Z-5.000000
  X26.763376 Y-33.843476 Z-4.642857
  X26.695317 Y-33.883236 Z-4.285714
  X26.581886 Y-33.949502 Z-3.928571
  X26.423082 Y-34.042276 Z-3.571429
  X26.218906 Y-34.161556 Z-3.214286
  X25.969357 Y-34.307342 Z-2.857143
  X25.674435 Y-34.479636 Z-2.500000
  X25.334142 Y-34.678436 Z-2.142857
  X24.948475 Y-34.903742 Z-1.785714
  X24.517436 Y-35.155556 Z-1.428571
  X24.041025 Y-35.433876 Z-1.071429
  X23.519241 Y-35.738703 Z-0.714286
  X22.952085 Y-36.070036 Z-0.357143
  X22.339556 Y-36.427876 Z0.000000
  X26.169778 Y-33.213938 Z-5.000000
  X26.145135 Y-33.223051 Z-4.642857
  X26.071206 Y-33.250388 Z-4.285714
  X25.947991 Y-33.295951 Z-3.928571
  X25.775489 Y-33.359739 Z-3.571429
  X25.553702 Y-33.441752 Z-3.214286
  X25.282629 Y-33.541990 Z-2.857143
  X24.962270 Y-33.660454 Z-2.500000
  X24.592625 Y-33.797142 Z-2.142857
  X24.173693 Y-33.952055 Z-1.785714
  X23.705476 Y-34.125194 Z-1.428571
  X23.187972 Y-34.316558 Z-1.071429
  X22.621183 Y-34.526147 Z-0.714286
  X22.005107 Y-34.753961 Z-0.357143
  X21.339746 Y-35.000000 Z0.000000
  X25.669873 Y-32.500000 Z-5.000000
  X25.644022 Y-32.504695 Z-4.642857
  X25.566469 Y-32.518780 Z-4.285714
  X25.437214 Y-32.542254 Z-3.928571
  X25.256257 Y-32.575118 Z-3.571429
  X25.023598 Y-32.617373 Z-3.214286
  X24.739236 Y-32.669017 Z-2.857143
  X24.403173 Y-32.730050 Z-2.500000
  X24.015408 Y-32.800474 Z-2.142857
  X23.575941 Y-32.880287 Z-1.785714
  X23.084771 Y-32.969491 Z-1.428571
  X22.541900 Y-33.068084 Z-1.071429
  X21.947327 Y-33.176066 Z-0.714286
  X21.301051 Y-33.293439 Z-0.357143
  X20.603074 Y-33.420201 Z0.000000
  X25.301537 Y-31.710101 Z-5.000000
  X25.275263 Y-31.710235 Z-4.642857
  X25.196443 Y-31.710639 Z-4.285714
  X25.065075 Y-31.711312 Z-3.928571
  X24.881160 Y-31.712254 Z-3.571429
  X24.644698 Y-31.713466 Z-3.214286
  X24.355689 Y-31.714946 Z-2.857143
  X24.014133 Y-31.716696 Z-2.500000
  X23.620030 Y-31.718715 Z-2.142857
  X23.173380 Y-31.721003 Z-1.785714
  X22.674183 Y-31.723560 Z-1.428571
  X22.122438 Y-31.726387 Z-1.071429
  X21.518147 Y-31.729483 Z-0.714286
  X20.861308 Y-31.732848 Z-0.357143
  X20.151922 Y-31.736482 Z0.000000
  X25.075961 Y-30.868241 Z-5.000000
  X25.050063 Y-30.863811 Z-4.642857
  X24.972370 Y-30.850522 Z-4.285714
  X24.842881 Y-30.828373 Z-3.928571
  X24.661597 Y-30.797364 Z-3.571429
  X24.428517 Y-30.757496 Z-3.214286
  X24.143642 Y-30.708768 Z-2.857143
  X23.806971 Y-30.651181 Z-2.500000
  X23.418505 Y-30.584734 Z-2.142857
  X22.978243 Y-30.509427 Z-1.785714
  X22.486185 Y-30.425261 Z-1.428571
  X21.942332 Y-30.332235 Z-1.071429
  X21.346684 Y-30.230350 Z-0.714286
  X20.699240 Y-30.119605 Z-0.357143
  X20.000000 Y-30.000000 Z0.000000
  X25.000000  Z-5.000000
  X24.975265 Y-29.991140 Z-4.642857
  X24.901060 Y-29.964562 Z-4.285714
  X24.777384 Y-29.920264 Z-3.928571
  X24.604239 Y-29.858246 Z-3.571429
  X24.381623 Y-29.778510 Z-3.214286
  X24.109537 Y-29.681054 Z-2.857143
  X23.787981 Y-29.565880 Z-2.500000
  X23.416954 Y-29.432986 Z-2.142857
  X22.996458 Y-29.282372 Z-1.785714
  X22.526491 Y-29.114040 Z-1.428571
  X22.007054 Y-28.927988 Z-1.071429
  X21.438147 Y-28.724217 Z-0.714286
  X20.819770 Y-28.502727 Z-0.357143
  X20.151922 Y-28.263518 Z0.000000
  X25.075961 Y-29.131759 Z-5.000000
  X25.053140 Y-29.118739 Z-4.642857
  X24.984678 Y-29.079678 Z-4.285714
  X24.870574 Y-29.014577 Z-3.928571
  X24.710828 Y-28.923436 Z-3.571429
  X24.505440 Y-28.806254 Z-3.214286
  X24.254410 Y-28.663032 Z-2.857143
  X23.957739 Y-28.493769 Z-2.500000
  X23.615427 Y-28.298466 Z-2.142857
  X23.227472 Y-28.077122 Z-1.785714
  X22.793876 Y-27.829738 Z-1.428571
  X22.314638 Y-27.556314 Z-1.071429
  X21.789758 Y-27.256849 Z-0.714286
  X21.219237 Y-26.931344 Z-0.357143
  X20.603074 Y-26.579799 Z0.000000
  X25.301537 Y-28.289899 Z-5.000000
  X25.281324 Y-28.273114 Z-4.642857
  X25.220684 Y-28.222758 Z-4.285714
  X25.119618 Y-28.138832 Z-3.928571
  X24.978125 Y-28.021336 Z-3.571429
  X24.796206 Y-27.870269 Z-3.214286
  X24.573861 Y-27.685632 Z-2.857143
  X24.311089 Y-27.467424 Z-2.500000
  X24.007891 Y-27.215646 Z-2.142857
  X23.664266 Y-26.930298 Z-1.785714
  X23.280215 Y-26.611379 Z-1.428571
  X22.855737 Y-26.258890 Z-1.071429
  X22.390833 Y-25.872830 Z-0.714286
  X21.885503 Y-25.453200 Z-0.357143
  X21.339746 Y-25.000000 Z0.000000
  X25.669873 Y-27.500000 Z-5.000000
  X25.652882 Y-27.479960 Z-4.642857
  X25.601907 Y-27.419839 Z-4.285714
  X25.516950 Y-27.319638 Z-3.928571
  X25.398010 Y-27.179357 Z-3.571429
  X25.245088 Y-26.998995 Z-3.214286
  X25.058182 Y-26.778553 Z-2.857143
  X24.837294 Y-26.518031 Z-2.500000
  X24.582422 Y-26.217428 Z-2.142857
  X24.293568 Y-25.876745 Z-1.785714
  X23.970731 Y-25.495982 Z-1.428571
  X23.613912 Y-25.075138 Z-1.071429
  X23.223109 Y-24.614213 Z-0.714286
  X22.798324 Y-24.113209 Z-0.357143
  X22.339556 Y-23.572124 Z0.000000
  X26.169778 Y-26.786062 Z-5.000000
  X26.156524 Y-26.763376 Z-4.642857
  X26.116764 Y-26.695317 Z-4.285714
  X26.050498 Y-26.581886 Z-3.928571
  X25.957724 Y-26.423082 Z-3.571429
  X25.838444 Y-26.218906 Z-3.214286
  X25.692658 Y-25.969357 Z-2.857143
  X25.520364 Y-25.674435 Z-2.500000
  X25.321564 Y-25.334142 Z-2.142857
  X25.096258 Y-24.948475 Z-1.785714
  X24.844444 Y-24.517436 Z-1.428571
  X24.566124 Y-24.041025 Z-1.071429
  X24.261297 Y-23.519241 Z-0.714286
  X23.929964 Y-22.952085 Z-0.357143
  X23.572124 Y-22.339556 Z0.000000
  X26.786062 Y-26.169778 Z-5.000000
  X26.776949 Y-26.145135 Z-4.642857
  X26.749612 Y-26.071206 Z-4.285714
  X26.704049 Y-25.947991 Z-3.928571
  X26.640261 Y-25.775489 Z-3.571429
  X26.558248 Y-25.553702 Z-3.214286
  X26.458010 Y-25.282629 Z-2.857143
  X26.339546 Y-24.962270 Z-2.500000
  X26.202858 Y-24.592625 Z-2.142857
  X26.047945 Y-24.173693 Z-1.785714
  X25.874806 Y-23.705476 Z-1.428571
  X25.683442 Y-23.187972 Z-1.071429
  X25.473853 Y-22.621183 Z-0.714286
  X25.246039 Y-22.005107 Z-0.357143
  X25.000000 Y-21.339746 Z0.000000
  X27.500000 Y-25.669873 Z-5.000000
  X27.495305 Y-25.644022 Z-4.642857
  X27.481220 Y-25.566469 Z-4.285714
  X27.457746 Y-25.437214 Z-3.928571
  X27.424882 Y-25.256257 Z-3.571429
  X27.382627 Y-25.023598 Z-3.214286
  X27.330983 Y-24.739236 Z-2.857143
  X27.269950 Y-24.403173 Z-2.500000
  X27.199526 Y-24.015408 Z-2.142857
  X27.119713 Y-23.575941 Z-1.785714
  X27.030509 Y-23.084771 Z-1.428571
  X26.931916 Y-22.541900 Z-1.071429
  X26.823934 Y-21.947327 Z-0.714286
  X26.706561 Y-21.301051 Z-0.357143
  X26.579799 Y-20.603074 Z0.000000
  X28.289899 Y-25.301537 Z-5.000000
  X28.289765 Y-25.275263 Z-4.642857
  X28.289361 Y-25.196443 Z-4.285714
  X28.288688 Y-25.065075 Z-3.928571
  X28.287746 Y-24.881160 Z-3.571429
  X28.286534 Y-24.644698 Z-3.214286
  X28.285054 Y-24.355689 Z-2.857143
  X28.283304 Y-24.014133 Z-2.500000
  X28.281285 Y-23.620030 Z-2.142857
  X28.278997 Y-23.173380 Z-1.785714
  X28.276440 Y-22.674183 Z-1.428571
  X28.273613 Y-22.122438 Z-1.071429
  X28.270517 Y-21.518147 Z-0.714286
  X28.267152 Y-20.861308 Z-0.357143
  X28.263518 Y-20.151922 Z0.000000
  X29.131759 Y-25.075961 Z-5.000000
  X29.136189 Y-25.050063 Z-4.642857
  X29.149478 Y-24.972370 Z-4.285714
  X29.171627 Y-24.842881 Z-3.928571
  X29.202636 Y-24.661597 Z-3.571429
  X29.242504 Y-24.428517 Z-3.214286
  X29.291232 Y-24.143642 Z-2.857143
  X29.348819 Y-23.806971 Z-2.500000
  X29.415266 Y-23.418505 Z-2.142857
  X29.490573 Y-22.978243 Z-1.785714
  X29.574739 Y-22.486185 Z-1.428571
  X29.667765 Y-21.942332 Z-1.071429
  X29.769650 Y-21.346684 Z-0.714286
  X29.880395 Y-20.699240 Z-0.357143
  X30.000000 Y-20.000000 Z0.000000
  X30.000000 Y-25.000000 Z-5.000000
  X30.008860 Y-24.975265 Z-4.642857
  X30.035438 Y-24.901060 Z-4.285714
  X30.079736 Y-24.777384 Z-3.928571
  X30.141754 Y-24.604239 Z-3.571429
  X30.221490 Y-24.381623 Z-3.214286
  X30.318946 Y-24.109537 Z-2.857143
  X30.434120 Y-23.787981 Z-2.500000
  X30.567014 Y-23.416954 Z-2.142857
  X30.717628 Y-22.996458 Z-1.785714
  X30.885960 Y-22.526491 Z-1.428571
  X31.072012 Y-22.007054 Z-1.071429
  X31.275783 Y-21.438147 Z-0.714286
  X31.497273 Y-20.819770 Z-0.357143
  X31.736482 Y-20.151922 Z0.000000
  X30.868241 Y-25.075961 Z-5.000000
  X30.881261 Y-25.053140 Z-4.642857
  X30.920322 Y-24.984678 Z-4.285714
  X30.985423 Y-24.870574 Z-3.928571
  X31.076564 Y-24.710828 Z-3.571429
  X31.193746 Y-24.505440 Z-3.214286
  X31.336968 Y-24.254410 Z-2.857143
  X31.506231 Y-23.957739 Z-2.500000
  X31.701534 Y-23.615427 Z-2.142857
  X31.922878 Y-23.227472 Z-1.785714
  X32.170262 Y-22.793876 Z-1.428571
  X32.443686 Y-22.314638 Z-1.071429
  X32.743151 Y-21.789758 Z-0.714286
  X33.068656 Y-21.219237 Z-0.357143
  X33.420201 Y-20.603074 Z0.000000
  X31.710101 Y-25.301537 Z-5.000000
  X31.726886 Y-25.281324 Z-4.642857
  X31.777242 Y-25.220684 Z-4.285714
  X31.861168 Y-25.119618 Z-3.928571
  X31.978664 Y-24.978125 Z-3.571429
  X32.129731 Y-24.796206 Z-3.214286
  X32.314368 Y-24.573861 Z-2.857143
  X32.532576 Y-24.311089 Z-2.500000
  X32.784354 Y-24.007891 Z-2.142857
  X33.069702 Y-23.664266 Z-1.785714
  X33.388621 Y-23.280215 Z-1.428571
  X33.741110 Y-22.855737 Z-1.071429
  X34.127170 Y-22.390833 Z-0.714286
  X34.546800 Y-21.885503 Z-0.357143
  X35.000000 Y-21.339746 Z0.000000
  X32.500000 Y-25.669873 Z-5.000000
  X32.520040 Y-25.652882 Z-4.642857
  X32.580161 Y-25.601907 Z-4.285714
  X32.680362 Y-25.516950 Z-3.928571
  X32.820643 Y-25.398010 Z-3.571429
  X33.001005 Y-25.245088 Z-3.214286
  X33.221447 Y-25.058182 Z-2.857143
  X33.481969 Y-24.837294 Z-2.500000
  X33.782572 Y-24.582422 Z-2.142857
  X34.123255 Y-24.293568 Z-1.785714
  X34.504018 Y-23.970731 Z-1.428571
  X34.924862 Y-23.613912 Z-1.071429
  X35.385787 Y-23.223109 Z-0.714286
  X35.886791 Y-22.798324 Z-0.357143
  X36.427876 Y-22.339556 Z0.000000
  X33.213938 Y-26.169778 Z-5.000000
  X33.236624 Y-26.156524 Z-4.642857
  X33.304683 Y-26.116764 Z-4.285714
  X33.418114 Y-26.050498 Z-3.928571
  X33.576918 Y-25.957724 Z-3.571429
  X33.781094 Y-25.838444 Z-3.214286
  X34.030643 Y-25.692658 Z-2.857143
  X34.325565 Y-25.520364 Z-2.500000
  X34.665858 Y-25.321564 Z-2.142857
  X35.051525 Y-25.096258 Z-1.785714
  X35.482564 Y-24.844444 Z-1.428571
  X35.958975 Y-24.566124 Z-1.071429
  X36.480759 Y-24.261297 Z-0.714286
  X37.047915 Y-23.929964 Z-0.357143
  X37.660444 Y-23.572124 Z0.000000
  X33.830222 Y-26.786062 Z-5.000000
  X33.854865 Y-26.776949 Z-4.642857
  X33.928794 Y-26.749612 Z-4.285714
  X34.052009 Y-26.704049 Z-3.928571
  X34.224511 Y-26.640261 Z-3.571429
  X34.446298 Y-26.558248 Z-3.214286
  X34.717371 Y-26.458010 Z-2.857143
  X35.037730 Y-26.339546 Z-2.500000
  X35.407375 Y-26.202858 Z-2.142857
  X35.826307 Y-26.047945 Z-1.785714
  X36.294524 Y-25.874806 Z-1.428571
  X36.812028 Y-25.683442 Z-1.071429
  X37.378817 Y-25.473853 Z-0.714286
  X37.994893 Y-25.246039 Z-0.357143
  X38.660254 Y-25.000000 Z0.000000
  X34.330127 Y-27.500000 Z-5.000000
  X34.355978 Y-27.495305 Z-4.642857
  X34.433531 Y-27.481220 Z-4.285714
  X34.562786 Y-27.457746 Z-3.928571
  X34.743743 Y-27.424882 Z-3.571429
  X34.976402 Y-27.382627 Z-3.214286
  X35.260764 Y-27.330983 Z-2.857143
  X35.596827 Y-27.269950 Z-2.500000
  X35.984592 Y-27.199526 Z-2.142857
  X36.424059 Y-27.119713 Z-1.785714
  X36.915229 Y-27.030509 Z-1.428571
  X37.458100 Y-26.931916 Z-1.071429
  X38.052673 Y-26.823934 Z-0.714286
  X38.698949 Y-26.706561 Z-0.357143
  X39.396926 Y-26.579799 Z0.000000
  X34.698463 Y-28.289899 Z-5.000000
  X34.724737 Y-28.289765 Z-4.642857
  X34.803557 Y-28.289361 Z-4.285714
  X34.934925 Y-28.288688 Z-3.928571
  X35.118840 Y-28.287746 Z-3.571429
  X35.355302 Y-28.286534 Z-3.214286
  X35.644311 Y-28.285054 Z-2.857143
  X35.985867 Y-28.283304 Z-2.500000
  X36.379970 Y-28.281285 Z-2.142857
  X36.826620 Y-28.278997 Z-1.785714
  X37.325817 Y-28.276440 Z-1.428571
  X37.877562 Y-28.273613 Z-1.071429
  X38.481853 Y-28.270517 Z-0.714286
  X39.138692 Y-28.267152 Z-0.357143
  X39.848078 Y-28.263518 Z0.000000
  X34.924039 Y-29.131759 Z-5.000000
(rapid to: no name)
G00 Z5
G00 X80.000000 Y-30.000000
G00 Z0.000000
(no name)
G01 X85.000000  Z-5.000000
  X84.973715 Y-30.008860 Z-4.642857
  X84.894859 Y-30.035438 Z-4.285714
  X84.763432 Y-30.079736 Z-3.928571
  X84.579435 Y-30.141754 Z-3.571429
  X84.342867 Y-30.221490 Z-3.214286
  X84.053729 Y-30.318946 Z-2.857143
  X83.712019 Y-30.434120 Z-2.500000
  X83.317740 Y-30.567014 Z-2.142857
  X82.870889 Y-30.717628 Z-1.785714
  X82.371468 Y-30.885960 Z-1.428571
  X81.819476 Y-31.072012 Z-1.071429
  X81.214914 Y-31.275783 Z-0.714286
  X80.557781 Y-31.497273 Z-0.357143
  X79.848078 Y-31.736482 Z0.000000
  X84.772116 Y-32.604723 Z-5.000000
  X84.744692 Y-32.608883 Z-4.642857
  X84.662419 Y-32.621365 Z-4.285714
  X84.525296 Y-32.642168 Z-3.928571
  X84.333325 Y-32.671292 Z-3.571429
  X84.086505 Y-32.708738 Z-3.214286
  X83.784836 Y-32.754504 Z-2.857143
  X83.428319 Y-32.808592 Z-2.500000
  X83.016952 Y-32.871001 Z-2.142857
  X82.550737 Y-32.941732 Z-1.785714
  X82.029672 Y-33.020783 Z-1.428571
  X81.453759 Y-33.108156 Z-1.071429
  X80.822997 Y-33.203850 Z-0.714286
  X80.137386 Y-33.307865 Z-0.357143
  X79.396926 Y-33.420201 Z0.000000
  X84.095389 Y-35.130302 Z-5.000000
  X84.067659 Y-35.129637 Z-4.642857
  X83.984468 Y-35.127643 Z-4.285714
  X83.845817 Y-35.124319 Z-3.928571
  X83.651705 Y-35.119665 Z-3.571429
  X83.402132 Y-35.113682 Z-3.214286
  X83.097099 Y-35.106369 Z-2.857143
  X82.736605 Y-35.097727 Z-2.500000
  X82.320651 Y-35.087755 Z-2.142857
  X81.849236 Y-35.076453 Z-1.785714
  X81.322361 Y-35.063821 Z-1.428571
  X80.740025 Y-35.049861 Z-1.071429
  X80.102229 Y-35.034570 Z-0.714286
  X79.408972 Y-35.017950 Z-0.357143
  X78.660254 Y-35.000000 Z0.000000
  X82.990381 Y-37.500000 Z-5.000000
  X82.963188 Y-37.494530 Z-4.642857
  X82.881607 Y-37.478120 Z-4.285714
  X82.745639 Y-37.450770 Z-3.928571
  X82.555284 Y-37.412480 Z-3.571429
  X82.310542 Y-37.363250 Z-3.214286
  X82.011413 Y-37.303079 Z-2.857143
  X81.657897 Y-37.231969 Z-2.500000
  X81.249994 Y-37.149919 Z-2.142857
  X80.787703 Y-37.056928 Z-1.785714
  X80.271026 Y-36.952998 Z-1.428571
  X79.699961 Y-36.838128 Z-1.071429
  X79.074509 Y-36.712317 Z-0.714286
  X78.394670 Y-36.575567 Z-0.357143
  X77.660444 Y-36.427876 Z0.000000
  X81.490667 Y-39.641814 Z-5.000000
  X81.464836 Y-39.631705 Z-4.642857
  X81.387344 Y-39.601378 Z-4.285714
  X81.258192 Y-39.550833 Z-3.928571
  X81.077378 Y-39.480070 Z-3.571429
  X80.844903 Y-39.389088 Z-3.214286
  X80.560766 Y-39.277889 Z-2.857143
  X80.224969 Y-39.146472 Z-2.500000
  X79.837511 Y-38.994836 Z-2.142857
  X79.398391 Y-38.822983 Z-1.785714
  X78.907610 Y-38.630911 Z-1.428571
  X78.365168 Y-38.418622 Z-1.071429
  X77.771065 Y-38.186114 Z-0.714286
  X77.125301 Y-37.933388 Z-0.357143
  X76.427876 Y-37.660444 Z0.000000
  X79.641814 Y-41.490667 Z-5.000000
  X79.618131 Y-41.476226 Z-4.642857
  X79.547083 Y-41.432903 Z-4.285714
  X79.428670 Y-41.360699 Z-3.928571
  X79.262891 Y-41.259613 Z-3.571429
  X79.049746 Y-41.129645 Z-3.214286
  X78.789236 Y-40.970795 Z-2.857143
  X78.481361 Y-40.783063 Z-2.500000
  X78.126120 Y-40.566450 Z-2.142857
  X77.723513 Y-40.320955 Z-1.785714
  X77.273542 Y-40.046579 Z-1.428571
  X76.776204 Y-39.743320 Z-1.071429
  X76.231502 Y-39.411180 Z-0.714286
  X75.639434 Y-39.050158 Z-0.357143
  X75.000000 Y-38.660254 Z0.000000
  X77.500000 Y-42.990381 Z-5.000000
  X77.479185 Y-42.972047 Z-4.642857
  X77.416739 Y-42.917045 Z-4.285714
  X77.312662 Y-42.825375 Z-3.928571
  X77.166955 Y-42.697038 Z-3.571429
  X76.979618 Y-42.532032 Z-3.214286
  X76.750649 Y-42.330359 Z-2.857143
  X76.480050 Y-42.092017 Z-2.500000
  X76.167821 Y-41.817008 Z-2.142857
  X75.813961 Y-41.505331 Z-1.785714
  X75.418470 Y-41.156986 Z-1.428571
  X74.981349 Y-40.771973 Z-1.071429
  X74.502597 Y-40.350292 Z-0.714286
  X73.982215 Y-39.891943 Z-0.357143
  X73.420201 Y-39.396926 Z0.000000
  X75.130302 Y-44.095389 Z-5.000000
  X75.112987 Y-44.073719 Z-4.642857
  X75.061041 Y-44.008709 Z-4.285714
  X74.974463 Y-43.900360 Z-3.928571
  X74.853256 Y-43.748670 Z-3.571429
  X74.697417 Y-43.553640 Z-3.214286
  X74.506947 Y-43.315271 Z-2.857143
  X74.281847 Y-43.033561 Z-2.500000
  X74.022116 Y-42.708512 Z-2.142857
  X73.727754 Y-42.340123 Z-1.785714
  X73.398761 Y-41.928394 Z-1.428571
  X73.035138 Y-41.473324 Z-1.071429
  X72.636883 Y-40.974915 Z-0.714286
  X72.203998 Y-40.433166 Z-0.357143
  X71.736482 Y-39.848078 Z0.000000
  X72.604723 Y-44.772116 Z-5.000000
  X72.591433 Y-44.747769 Z-4.642857
  X72.551565 Y-44.674726 Z-4.285714
  X72.485118 Y-44.552989 Z-3.928571
  X72.392092 Y-44.382556 Z-3.571429
  X72.272488 Y-44.163428 Z-3.214286
  X72.126304 Y-43.895605 Z-2.857143
  X71.953542 Y-43.579087 Z-2.500000
  X71.754201 Y-43.213874 Z-2.142857
  X71.528281 Y-42.799966 Z-1.785714
  X71.275783 Y-42.337363 Z-1.428571
  X70.996705 Y-41.826065 Z-1.071429
  X70.691049 Y-41.266072 Z-0.714286
  X70.358814 Y-40.657383 Z-0.357143
  X70.000000 Y-40.000000 Z0.000000
   Y-45.000000 Z-5.000000
  X69.991140 Y-44.973715 Z-4.642857
  X69.964562 Y-44.894859 Z-4.285714
  X69.920264 Y-44.763432 Z-3.928571
  X69.858246 Y-44.579435 Z-3.571429
  X69.778510 Y-44.342867 Z-3.214286
  X69.681054 Y-44.053729 Z-2.857143
  X69.565880 Y-43.712019 Z-2.500000
  X69.432986 Y-43.317740 Z-2.142857
  X69.282372 Y-42.870889 Z-1.785714
  X69.114040 Y-42.371468 Z-1.428571
  X68.927988 Y-41.819476 Z-1.071429
  X68.724217 Y-41.214914 Z-0.714286
  X68.502727 Y-40.557781 Z-0.357143
  X68.263518 Y-39.848078 Z0.000000
  X67.395277 Y-44.772116 Z-5.000000
  X67.391117 Y-44.744692 Z-4.642857
  X67.378635 Y-44.662419 Z-4.285714
  X67.357832 Y-44.525296 Z-3.928571
  X67.328708 Y-44.333325 Z-3.571429
  X67.291262 Y-44.086505 Z-3.214286
  X67.245496 Y-43.784836 Z-2.857143
  X67.191408 Y-43.428319 Z-2.500000
  X67.128999 Y-43.016952 Z-2.142857
  X67.058268 Y-42.550737 Z-1.785714
  X66.979217 Y-42.029672 Z-1.428571
  X66.891844 Y-41.453759 Z-1.071429
  X66.796150 Y-40.822997 Z-0.714286
  X66.692135 Y-40.137386 Z-0.357143
  X66.579799 Y-39.396926 Z0.000000
  X64.869698 Y-44.095389 Z-5.000000
  X64.870363 Y-44.067659 Z-4.642857
  X64.872357 Y-43.984468 Z-4.285714
  X64.875681 Y-43.845817 Z-3.928571
  X64.880335 Y-43.651705 Z-3.571429
  X64.886318 Y-43.402132 Z-3.214286
  X64.893631 Y-43.097099 Z-2.857143
  X64.902273 Y-42.736605 Z-2.500000
  X64.912245 Y-42.320651 Z-2.142857
  X64.923547 Y-41.849236 Z-1.785714
  X64.936179 Y-41.322361 Z-1.428571
  X64.950139 Y-40.740025 Z-1.071429
  X64.965430 Y-40.102229 Z-0.714286
  X64.982050 Y-39.408972 Z-0.357143
  X65.000000 Y-38.660254 Z0.000000
  X62.500000 Y-42.990381 Z-5.000000
  X62.505470 Y-42.963188 Z-4.642857
  X62.521880 Y-42.881607 Z-4.285714
  X62.549230 Y-42.745639 Z-3.928571
  X62.587520 Y-42.555284 Z-3.571429
  X62.636750 Y-42.310542 Z-3.214286
  X62.696921 Y-42.011413 Z-2.857143
  X62.768031 Y-41.657897 Z-2.500000
  X62.850081 Y-41.249994 Z-2.142857
  X62.943072 Y-40.787703 Z-1.785714
  X63.047002 Y-40.271026 Z-1.428571
  X63.161872 Y-39.699961 Z-1.071429
  X63.287683 Y-39.074509 Z-0.714286
  X63.424433 Y-38.394670 Z-0.357143
  X63.572124 Y-37.660444 Z0.000000
  X60.358186 Y-41.490667 Z-5.000000
  X60.368295 Y-41.464836 Z-4.642857
  X60.398622 Y-41.387344 Z-4.285714
  X60.449167 Y-41.258192 Z-3.928571
  X60.519930 Y-41.077378 Z-3.571429
  X60.610912 Y-40.844903 Z-3.214286
  X60.722111 Y-40.560766 Z-2.857143
  X60.853528 Y-40.224969 Z-2.500000
  X61.005164 Y-39.837511 Z-2.142857
  X61.177017 Y-39.398391 Z-1.785714
  X61.369089 Y-38.907610 Z-1.428571
  X61.581378 Y-38.365168 Z-1.071429
  X61.813886 Y-37.771065 Z-0.714286
  X62.066612 Y-37.125301 Z-0.357143
  X62.339556 Y-36.427876 Z0.000000
  X58.509333 Y-39.641814 Z-5.000000
  X58.523774 Y-39.618131 Z-4.642857
  X58.567097 Y-39.547083 Z-4.285714
  X58.639301 Y-39.428670 Z-3.928571
  X58.740387 Y-39.262891 Z-3.571429
  X58.870355 Y-39.049746 Z-3.214286
  X59.029205 Y-38.789236 Z-2.857143
  X59.216937 Y-38.481361 Z-2.500000
  X59.433550 Y-38.126120 Z-2.142857
  X59.679045 Y-37.723513 Z-1.785714
  X59.953421 Y-37.273542 Z-1.428571
  X60.256680 Y-36.776204 Z-1.071429
  X60.588820 Y-36.231502 Z-0.714286
  X60.949842 Y-35.639434 Z-0.357143
  X61.339746 Y-35.000000 Z0.000000
  X57.009619 Y-37.500000 Z-5.000000
  X57.027953 Y-37.479185 Z-4.642857
  X57.082955 Y-37.416739 Z-4.285714
  X57.174625 Y-37.312662 Z-3.928571
  X57.302962 Y-37.166955 Z-3.571429
  X57.467968 Y-36.979618 Z-3.214286
  X57.669641 Y-36.750649 Z-2.857143
  X57.907983 Y-36.480050 Z-2.500000
  X58.182992 Y-36.167821 Z-2.142857
  X58.494669 Y-35.813961 Z-1.785714
  X58.843014 Y-35.418470 Z-1.428571
  X59.228027 Y-34.981349 Z-1.071429
  X59.649708 Y-34.502597 Z-0.714286
  X60.108057 Y-33.982215 Z-0.357143
  X60.603074 Y-33.420201 Z0.000000
  X55.904611 Y-35.130302 Z-5.000000
  X55.926281 Y-35.112987 Z-4.642857
  X55.991291 Y-35.061041 Z-4.285714
  X56.099640 Y-34.974463 Z-3.928571
  X56.251330 Y-34.853256 Z-3.571429
  X56.446360 Y-34.697417 Z-3.214286
  X56.684729 Y-34.506947 Z-2.857143
  X56.966439 Y-34.281847 Z-2.500000
  X57.291488 Y-34.022116 Z-2.142857
  X57.659877 Y-33.727754 Z-1.785714
  X58.071606 Y-33.398761 Z-1.428571
  X58.526676 Y-33.035138 Z-1.071429
  X59.025085 Y-32.636883 Z-0.714286
  X59.566834 Y-32.203998 Z-0.357143
  X60.151922 Y-31.736482 Z0.000000
  X55.227884 Y-32.604723 Z-5.000000
  X55.252231 Y-32.591433 Z-4.642857
  X55.325274 Y-32.551565 Z-4.285714
  X55.447011 Y-32.485118 Z-3.928571
  X55.617444 Y-32.392092 Z-3.571429
  X55.836572 Y-32.272488 Z-3.214286
  X56.104395 Y-32.126304 Z-2.857143
  X56.420913 Y-31.953542 Z-2.500000
  X56.786126 Y-31.754201 Z-2.142857
  X57.200034 Y-31.528281 Z-1.785714
  X57.662637 Y-31.275783 Z-1.428571
  X58.173935 Y-30.996705 Z-1.071429
  X58.733928 Y-30.691049 Z-0.714286
  X59.342617 Y-30.358814 Z-0.357143
  X60.000000 Y-30.000000 Z0.000000
  X55.000000 Y-30.000000 Z-5.000000
  X55.026285 Y-29.991140 Z-4.642857
  X55.105141 Y-29.964562 Z-4.285714
  X55.236568 Y-29.920264 Z-3.928571
  X55.420565 Y-29.858246 Z-3.571429
  X55.657133 Y-29.778510 Z-3.214286
  X55.946271 Y-29.681054 Z-2.857143
  X56.287981 Y-29.565880 Z-2.500000
  X56.682260 Y-29.432986 Z-2.142857
  X57.129111 Y-29.282372 Z-1.785714
  X57.628532 Y-29.114040 Z-1.428571
  X58.180524 Y-28.927988 Z-1.071429
  X58.785086 Y-28.724217 Z-0.714286
  X59.442219 Y-28.502727 Z-0.357143
  X60.151922 Y-28.263518 Z0.000000
  X55.227884 Y-27.395277 Z-5.000000
  X55.255308 Y-27.391117 Z-4.642857
  X55.337581 Y-27.378635 Z-4.285714
  X55.474704 Y-27.357832 Z-3.928571
  X55.666675 Y-27.328708 Z-3.571429
  X55.913495 Y-27.291262 Z-3.214286
  X56.215164 Y-27.245496 Z-2.857143
  X56.571681 Y-27.191408 Z-2.500000
  X56.983048 Y-27.128999 Z-2.142857
  X57.449263 Y-27.058268 Z-1.785714
  X57.970328 Y-26.979217 Z-1.428571
  X58.546241 Y-26.891844 Z-1.071429
  X59.177003 Y-26.796150 Z-0.714286
  X59.862614 Y-26.692135 Z-0.357143
  X60.603074 Y-26.579799 Z0.000000
  X55.904611 Y-24.869698 Z-5.000000
  X55.932341 Y-24.870363 Z-4.642857
  X56.015532 Y-24.872357 Z-4.285714
  X56.154183 Y-24.875681 Z-3.928571
  X56.348295 Y-24.880335 Z-3.571429
  X56.597868 Y-24.886318 Z-3.214286
  X56.902901 Y-24.893631 Z-2.857143
  X57.263395 Y-24.902273 Z-2.500000
  X57.679349 Y-24.912245 Z-2.142857
  X58.150764 Y-24.923547 Z-1.785714
  X58.677639 Y-24.936179 Z-1.428571
  X59.259975 Y-24.950139 Z-1.071429
  X59.897771 Y-24.965430 Z-0.714286
  X60.591028 Y-24.982050 Z-0.357143
  X61.339746 Y-25.000000 Z0.000000
  X57.009619 Y-22.500000 Z-5.000000
  X57.036812 Y-22.505470 Z-4.642857
  X57.118393 Y-22.521880 Z-4.285714
  X57.254361 Y-22.549230 Z-3.928571
  X57.444716 Y-22.587520 Z-3.571429
  X57.689458 Y-22.636750 Z-3.214286
  X57.988587 Y-22.696921 Z-2.857143
  X58.342103 Y-22.768031 Z-2.500000
  X58.750006 Y-22.850081 Z-2.142857
  X59.212297 Y-22.943072 Z-1.785714
  X59.728974 Y-23.047002 Z-1.428571
  X60.300039 Y-23.161872 Z-1.071429
  X60.925491 Y-23.287683 Z-0.714286
  X61.605330 Y-23.424433 Z-0.357143
  X62.339556 Y-23.572124 Z0.000000
  X58.509333 Y-20.358186 Z-5.000000
  X58.535164 Y-20.368295 Z-4.642857
  X58.612656 Y-20.398622 Z-4.285714
  X58.741808 Y-20.449167 Z-3.928571
  X58.922622 Y-20.519930 Z-3.571429
  X59.155097 Y-20.610912 Z-3.214286
  X59.439234 Y-20.722111 Z-2.857143
  X59.775031 Y-20.853528 Z-2.500000
  X60.162489 Y-21.005164 Z-2.142857
  X60.601609 Y-21.177017 Z-1.785714
  X61.092390 Y-21.369089 Z-1.428571
  X61.634832 Y-21.581378 Z-1.071429
  X62.228935 Y-21.813886 Z-0.714286
  X62.874699 Y-22.066612 Z-0.357143
  X63.572124 Y-22.339556 Z0.000000
  X60.358186 Y-18.509333 Z-5.000000
  X60.381869 Y-18.523774 Z-4.642857
  X60.452917 Y-18.567097 Z-4.285714
  X60.571330 Y-18.639301 Z-3.928571
  X60.737109 Y-18.740387 Z-3.571429
  X60.950254 Y-18.870355 Z-3.214286
  X61.210764 Y-19.029205 Z-2.857143
  X61.518639 Y-19.216937 Z-2.500000
  X61.873880 Y-19.433550 Z-2.142857
  X62.276487 Y-19.679045 Z-1.785714
  X62.726458 Y-19.953421 Z-1.428571
  X63.223796 Y-20.256680 Z-1.071429
  X63.768498 Y-20.588820 Z-0.714286
  X64.360566 Y-20.949842 Z-0.357143
  X65.000000 Y-21.339746 Z0.000000
  X62.500000 Y-17.009619 Z-5.000000
  X62.520815 Y-17.027953 Z-4.642857
  X62.583261 Y-17.082955 Z-4.285714
  X62.687338 Y-17.174625 Z-3.928571
  X62.833045 Y-17.302962 Z-3.571429
  X63.020382 Y-17.467968 Z-3.214286
  X63.249351 Y-17.669641 Z-2.857143
  X63.519950 Y-17.907983 Z-2.500000
  X63.832179 Y-18.182992 Z-2.142857
  X64.186039 Y-18.494669 Z-1.785714
  X64.581530 Y-18.843014 Z-1.428571
  X65.018651 Y-19.228027 Z-1.071429
  X65.497403 Y-19.649708 Z-0.714286
  X66.017785 Y-20.108057 Z-0.357143
  X66.579799 Y-20.603074 Z0.000000
  X64.869698 Y-15.904611 Z-5.000000
  X64.887013 Y-15.926281 Z-4.642857
  X64.938959 Y-15.991291 Z-4.285714
  X65.025537 Y-16.099640 Z-3.928571
  X65.146744 Y-16.251330 Z-3.571429
  X65.302583 Y-16.446360 Z-3.214286
  X65.493053 Y-16.684729 Z-2.857143
  X65.718153 Y-16.966439 Z-2.500000
  X65.977884 Y-17.291488 Z-2.142857
  X66.272246 Y-17.659877 Z-1.785714
  X66.601239 Y-18.071606 Z-1.428571
  X66.964862 Y-18.526676 Z-1.071429
  X67.363117 Y-19.025085 Z-0.714286
  X67.796002 Y-19.566834 Z-0.357143
  X68.263518 Y-20.151922 Z0.000000
  X67.395277 Y-15.227884 Z-5.000000
  X67.408567 Y-15.252231 Z-4.642857
  X67.448435 Y-15.325274 Z-4.285714
  X67.514882 Y-15.447011 Z-3.928571
  X67.607908 Y-15.617444 Z-3.571429
  X67.727512 Y-15.836572 Z-3.214286
  X67.873696 Y-16.104395 Z-2.857143
  X68.046458 Y-16.420913 Z-2.500000
  X68.245799 Y-16.786126 Z-2.142857
  X68.471719 Y-17.200034 Z-1.785714
  X68.724217 Y-17.662637 Z-1.428571
  X69.003295 Y-18.173935 Z-1.071429
  X69.308951 Y-18.733928 Z-0.714286
  X69.641186 Y-19.342617 Z-0.357143
  X70.000000 Y-20.000000 Z0.000000
   Y-15.000000 Z-5.000000
  X70.008860 Y-15.026285 Z-4.642857
  X70.035438 Y-15.105141 Z-4.285714
  X70.079736 Y-15.236568 Z-3.928571
  X70.141754 Y-15.420565 Z-3.571429
  X70.221490 Y-15.657133 Z-3.214286
  X70.318946 Y-15.946271 Z-2.857143
  X70.434120 Y-16.287981 Z-2.500000
  X70.567014 Y-16.682260 Z-2.142857
  X70.717628 Y-17.129111 Z-1.785714
  X70.885960 Y-17.628532 Z-1.428571
  X71.072012 Y-18.180524 Z-1.071429
  X71.275783 Y-18.785086 Z-0.714286
  X71.497273 Y-19.442219 Z-0.357143
  X71.736482 Y-20.151922 Z0.000000
  X72.604723 Y-15.227884 Z-5.000000
  X72.608883 Y-15.255308 Z-4.642857
  X72.621365 Y-15.337581 Z-4.285714
  X72.642168 Y-15.474704 Z-3.928571
  X72.671292 Y-15.666675 Z-3.571429
  X72.708738 Y-15.913495 Z-3.214286
  X72.754504 Y-16.215164 Z-2.857143
  X72.808592 Y-16.571681 Z-2.500000
  X72.871001 Y-16.983048 Z-2.142857
  X72.941732 Y-17.449263 Z-1.785714
  X73.020783 Y-17.970328 Z-1.428571
  X73.108156 Y-18.546241 Z-1.071429
  X73.203850 Y-19.177003 Z-0.714286
  X73.307865 Y-19.862614 Z-0.357143
  X73.420201 Y-20.603074 Z0.000000
  X75.130302 Y-15.904611 Z-5.000000
  X75.129637 Y-15.932341 Z-4.642857
  X75.127643 Y-16.015532 Z-4.285714
  X75.124319 Y-16.154183 Z-3.928571
  X75.119665 Y-16.348295 Z-3.571429
  X75.113682 Y-16.597868 Z-3.214286
  X75.106369 Y-16.902901 Z-2.857143
  X75.097727 Y-17.263395 Z-2.500000
  X75.087755 Y-17.679349 Z-2.142857
  X75.076453 Y-18.150764 Z-1.785714
  X75.063821 Y-18.677639 Z-1.428571
  X75.049861 Y-19.259975 Z-1.071429
  X75.034570 Y-19.897771 Z-0.714286
  X75.017950 Y-20.591028 Z-0.357143
  X75.000000 Y-21.339746 Z0.000000
  X77.500000 Y-17.009619 Z-5.000000
  X77.494530 Y-17.036812 Z-4.642857
  X77.478120 Y-17.118393 Z-4.285714
  X77.450770 Y-17.254361 Z-3.928571
  X77.412480 Y-17.444716 Z-3.571429
  X77.363250 Y-17.689458 Z-3.214286
  X77.303079 Y-17.988587 Z-2.857143
  X77.231969 Y-18.342103 Z-2.500000
  X77.149919 Y-18.750006 Z-2.142857
  X77.056928 Y-19.212297 Z-1.785714
  X76.952998 Y-19.728974 Z-1.428571
  X76.838128 Y-20.300039 Z-1.071429
  X76.712317 Y-20.925491 Z-0.714286
  X76.575567 Y-21.605330 Z-0.357143
  X76.427876 Y-22.339556 Z0.000000
  X79.641814 Y-18.509333 Z-5.000000
  X79.631705 Y-18.535164 Z-4.642857
  X79.601378 Y-18.612656 Z-4.285714
  X79.550833 Y-18.741808 Z-3.928571
  X79.480070 Y-18.922622 Z-3.571429
  X79.389088 Y-19.155097 Z-3.214286
  X79.277889 Y-19.439234 Z-2.857143
  X79.146472 Y-19.775031 Z-2.500000
  X78.994836 Y-20.162489 Z-2.142857
  X78.822983 Y-20.601609 Z-1.785714
  X78.630911 Y-21.092390 Z-1.428571
  X78.418622 Y-21.634832 Z-1.071429
  X78.186114 Y-22.228935 Z-0.714286
  X77.933388 Y-22.874699 Z-0.357143
  X77.660444 Y-23.572124 Z0.000000
  X81.490667 Y-20.358186 Z-5.000000
  X81.476226 Y-20.381869 Z-4.642857
  X81.432903 Y-20.452917 Z-4.285714
  X81.360699 Y-20.571330 Z-3.928571
  X81.259613 Y-20.737109 Z-3.571429
  X81.129645 Y-20.950254 Z-3.214286
  X80.970795 Y-21.210764 Z-2.857143
  X80.783063 Y-21.518639 Z-2.500000
  X80.566450 Y-21.873880 Z-2.142857
  X80.320955 Y-22.276487 Z-1.785714
  X80.046579 Y-22.726458 Z-1.428571
  X79.743320 Y-23.223796 Z-1.071429
  X79.411180 Y-23.768498 Z-0.714286
  X79.050158 Y-24.360566 Z-0.357143
  X78.660254 Y-25.000000 Z0.000000
  X82.990381 Y-22.500000 Z-5.000000
  X82.972047 Y-22.520815 Z-4.642857
  X82.917045 Y-22.583261 Z-4.285714
  X82.825375 Y-22.687338 Z-3.928571
  X82.697038 Y-22.833045 Z-3.571429
  X82.532032 Y-23.020382 Z-3.214286
  X82.330359 Y-23.249351 Z-2.857143
  X82.092017 Y-23.519950 Z-2.500000
  X81.817008 Y-23.832179 Z-2.142857
  X81.505331 Y-24.186039 Z-1.785714
  X81.156986 Y-24.581530 Z-1.428571
  X80.771973 Y-25.018651 Z-1.071429
  X80.350292 Y-25.497403 Z-0.714286
  X79.891943 Y-26.017785 Z-0.357143
  X79.396926 Y-26.579799 Z0.000000
  X84.095389 Y-24.869698 Z-5.000000
  X84.073719 Y-24.887013 Z-4.642857
  X84.008709 Y-24.938959 Z-4.285714
  X83.900360 Y-25.025537 Z-3.928571
  X83.748670 Y-25.146744 Z-3.571429
  X83.553640 Y-25.302583 Z-3.214286
  X83.315271 Y-25.493053 Z-2.857143
  X83.033561 Y-25.718153 Z-2.500000
  X82.708512 Y-25.977884 Z-2.142857
  X82.340123 Y-26.272246 Z-1.785714
  X81.928394 Y-26.601239 Z-1.428571
  X81.473324 Y-26.964862 Z-1.071429
  X80.974915 Y-27.363117 Z-0.714286
  X80.433166 Y-27.796002 Z-0.357143
  X79.848078 Y-28.263518 Z0.000000
  X84.772116 Y-27.395277 Z-5.000000
(rapid to: no name)
G00 Z5
G00 X-29.500000 Y0.000000
G00 Z0.000000
(no name)
G01 X-29.400000  Z0.200000
  X-29.497615 Y-0.128258 Z0.100000
  X-29.530154 Y-0.171010 Z0.000000
  X-29.436184 Y-0.205212 Z0.200000
  X-29.571779 Y-0.292348 Z0.100000
  X-29.616978 Y-0.321394 Z0.000000
  X-29.540373 Y-0.385673 Z0.200000
  X-29.697593 Y-0.421178 Z0.100000
  X-29.750000 Y-0.433013 Z0.000000
  X-29.700000 Y-0.519615 Z0.200000
  X-29.859882 Y-0.499207 Z0.100000
  X-29.913176 Y-0.492404 Z0.000000
  X-29.895811 Y-0.590885 Z0.200000
  X-30.039071 Y-0.517024 Z0.100000
  X-30.086824 Y-0.492404 Z0.000000
  X-30.104189 Y-0.590885 Z0.200000
  X-30.213547 Y-0.472481 Z0.100000
  X-30.250000 Y-0.433013 Z0.000000
  X-30.300000 Y-0.519615 Z0.200000
  X-30.362267 Y-0.370949 Z0.100000
  X-30.383022 Y-0.321394 Z0.000000
  X-30.459627 Y-0.385673 Z0.200000
  X-30.467291 Y-0.224676 Z0.100000
  X-30.469846 Y-0.171010 Z0.000000
  X-30.563816 Y-0.205212 Z0.200000
  X-30.515954 Y-0.051303 Z0.100000
  X-30.500000 Y-0.000000 Z0.000000
  X-30.600000 Y-0.000000 Z0.200000
  X-30.502385 Y0.128258 Z0.100000
  X-30.469846 Y0.171010 Z0.000000
  X-30.563816 Y0.205212 Z0.200000
  X-30.428221 Y0.292348 Z0.100000
  X-30.383022 Y0.321394 Z0.000000
  X-30.459627 Y0.385673 Z0.200000
  X-30.302407 Y0.421178 Z0.100000
  X-30.250000 Y0.433013 Z0.000000
  X-30.300000 Y0.519615 Z0.200000
  X-30.140118 Y0.499207 Z0.100000
  X-30.086824 Y0.492404 Z0.000000
  X-30.104189 Y0.590885 Z0.200000
  X-29.960929 Y0.517024 Z0.100000
  X-29.913176 Y0.492404 Z0.000000
  X-29.895811 Y0.590885 Z0.200000
  X-29.786453 Y0.472481 Z0.100000
  X-29.750000 Y0.433013 Z0.000000
  X-29.700000 Y0.519615 Z0.200000
  X-29.637733 Y0.370949 Z0.100000
  X-29.616978 Y0.321394 Z0.000000
  X-29.540373 Y0.385673 Z0.200000
  X-29.532709 Y0.224676 Z0.100000
  X-29.530154 Y0.171010 Z0.000000
  X-29.436184 Y0.205212 Z0.200000
(rapid to: no name)
G00 Z5
G00 X40.000000 Y0.000000
G00 Z0.000000
(no name)
G01 X46.000000 Y5.000000 Z10.000000
  X45.552467 Y4.429309 Z9.655172
  X45.120637 Y3.878641 Z9.310345
  X44.704510 Y3.347999 Z8.965517
  X44.304086 Y2.837380 Z8.620690
  X43.919364 Y2.346786 Z8.275862
  X43.550346 Y1.876215 Z7.931034
  X43.197031 Y1.425670 Z7.586207
  X42.859418 Y0.995148 Z7.241379
  X42.537508 Y0.584651 Z6.896552
  X42.231302 Y0.194178 Z6.551724
  X41.940798 Y-0.176271 Z6.206897
  X41.665997 Y-0.526696 Z5.862069
  X41.406899 Y-0.857096 Z5.517241
  X41.163504 Y-1.167472 Z5.172414
  X40.935811 Y-1.457824 Z4.827586
  X40.723822 Y-1.728151 Z4.482759
  X40.527536 Y-1.978455 Z4.137931
  X40.346952 Y-2.208734 Z3.793103
  X40.182072 Y-2.418988 Z3.448276
  X40.032894 Y-2.609219 Z3.103448
  X39.899419 Y-2.779425 Z2.758621
  X39.781648 Y-2.929607 Z2.413793
  X39.679579 Y-3.059765 Z2.068966
  X39.593213 Y-3.169898 Z1.724138
  X39.522549 Y-3.260007 Z1.379310
  X39.467589 Y-3.330092 Z1.034483
  X39.428332 Y-3.380153 Z0.689655
  X39.404778 Y-3.410189 Z0.344828
  X39.396926 Y-3.420201 Z0.000000
  X45.336619 Y1.237778 Z10.000000
  X44.816355 Y0.718228 Z9.655172
  X44.314346 Y0.216906 Z9.310345
  X43.830592 Y-0.266185 Z8.965517
  X43.365092 Y-0.731046 Z8.620690
  X42.917848 Y-1.177678 Z8.275862
  X42.488859 Y-1.606079 Z7.931034
  X42.078124 Y-2.016251 Z7.586207
  X41.685644 Y-2.408193 Z7.241379
  X41.311419 Y-2.781905 Z6.896552
  X40.955449 Y-3.137387 Z6.551724
  X40.617734 Y-3.474639 Z6.206897
  X40.298274 Y-3.793662 Z5.862069
  X39.997068 Y-4.094455 Z5.517241
  X39.714118 Y-4.377017 Z5.172414
  X39.449422 Y-4.641350 Z4.827586
  X39.202981 Y-4.887453 Z4.482759
  X38.974795 Y-5.115326 Z4.137931
  X38.764864 Y-5.324970 Z3.793103
  X38.573188 Y-5.516383 Z3.448276
  X38.399767 Y-5.689567 Z3.103448
  X38.244600 Y-5.844521 Z2.758621
  X38.107689 Y-5.981245 Z2.413793
  X37.989032 Y-6.099739 Z2.068966
  X37.888630 Y-6.200003 Z1.724138
  X37.806483 Y-6.282037 Z1.379310
  X37.742591 Y-6.345842 Z1.034483
  X37.696954 Y-6.391416 Z0.689655
  X37.669572 Y-6.418761 Z0.344828
  X37.660444 Y-6.427876 Z0.000000
  X43.426489 Y-2.070664 Z10.000000
  X42.855371 Y-2.517283 Z9.655172
  X42.304293 Y-2.948231 Z9.310345
  X41.773254 Y-3.363508 Z8.965517
  X41.262254 Y-3.763115 Z8.620690
  X40.771293 Y-4.147051 Z8.275862
  X40.300372 Y-4.515316 Z7.931034
  X39.849489 Y-4.867910 Z7.586207
  X39.418646 Y-5.204833 Z7.241379
  X39.007843 Y-5.526085 Z6.896552
  X38.617078 Y-5.831667 Z6.551724
  X38.246352 Y-6.121577 Z6.206897
  X37.895666 Y-6.395817 Z5.862069
  X37.565019 Y-6.654386 Z5.517241
  X37.254411 Y-6.897284 Z5.172414
  X36.963843 Y-7.124511 Z4.827586
  X36.693313 Y-7.336068 Z4.482759
  X36.442823 Y-7.531953 Z4.137931
  X36.212372 Y-7.712168 Z3.793103
  X36.001961 Y-7.876712 Z3.448276
  X35.811588 Y-8.025585 Z3.103448
  X35.641255 Y-8.158787 Z2.758621
  X35.490961 Y-8.276318 Z2.413793
  X35.360706 Y-8.378179 Z2.068966
  X35.250490 Y-8.464368 Z1.724138
  X35.160314 Y-8.534887 Z1.379310
  X35.090176 Y-8.589735 Z1.034483
  X35.040078 Y-8.628912 Z0.689655
  X35.010020 Y-8.652419 Z0.344828
  X35.000000 Y-8.660254 Z0.000000
  X40.500000 Y-4.526279 Z10.000000
  X39.885212 Y-4.899620 Z9.642857
  X39.292781 Y-5.259384 Z9.285714
  X38.722705 Y-5.605573 Z8.928571
  X38.174985 Y-5.938185 Z8.571429
  X37.649621 Y-6.257221 Z8.214286
  X37.146613 Y-6.562682 Z7.857143
  X36.665961 Y-6.854566 Z7.500000
  X36.207665 Y-7.132874 Z7.142857
  X35.771724 Y-7.397607 Z6.785714
  X35.358140 Y-7.648763 Z6.428571
  X34.966911 Y-7.886343 Z6.071429
  X34.598039 Y-8.110348 Z5.714286
  X34.251522 Y-8.320776 Z5.357143
  X33.927361 Y-8.517628 Z5.000000
  X33.625556 Y-8.700904 Z4.642857
  X33.346108 Y-8.870604 Z4.285714
  X33.089015 Y-9.026729 Z3.928571
  X32.854277 Y-9.169277 Z3.571429
  X32.641896 Y-9.298249 Z3.214286
  X32.451871 Y-9.413645 Z2.857143
  X32.284202 Y-9.515465 Z2.500000
  X32.138888 Y-9.603709 Z2.142857
  X32.015931 Y-9.678377 Z1.785714
  X31.915329 Y-9.739469 Z1.428571
  X31.837083 Y-9.786985 Z1.071429
  X31.781194 Y-9.820925 Z0.714286
  X31.747660 Y-9.841290 Z0.357143
  X31.736482 Y-9.848078 Z0.000000
  X36.910130 Y-5.832885 Z10.000000
  X36.281501 Y-6.124799 Z9.629630
  X35.676594 Y-6.405697 Z9.259259
  X35.095409 Y-6.675580 Z8.888889
  X34.537946 Y-6.934447 Z8.518519
  X34.004204 Y-7.182298 Z8.148148
  X33.494185 Y-7.419134 Z7.777778
  X33.007887 Y-7.644954 Z7.407407
  X32.545311 Y-7.859759 Z7.037037
  X32.106457 Y-8.063548 Z6.666667
  X31.691325 Y-8.256321 Z6.296296
  X31.299914 Y-8.438079 Z5.925926
  X30.932226 Y-8.608821 Z5.555556
  X30.588259 Y-8.768547 Z5.185185
  X30.268014 Y-8.917258 Z4.814815
  X29.971491 Y-9.054953 Z4.444444
  X29.698690 Y-9.181633 Z4.074074
  X29.449610 Y-9.297297 Z3.703704
  X29.224253 Y-9.401945 Z3.333333
  X29.022617 Y-9.495578 Z2.962963
  X28.844703 Y-9.578195 Z2.592593
  X28.690511 Y-9.649796 Z2.222222
  X28.560041 Y-9.710382 Z1.851852
  X28.453293 Y-9.759953 Z1.481481
  X28.370267 Y-9.798507 Z1.111111
  X28.310962 Y-9.826046 Z0.740741
  X28.275379 Y-9.842570 Z0.370370
  X28.263518 Y-9.848078 Z0.000000
  X33.089870 Y-5.832885 Z10.000000
  X32.479540 Y-6.046193 Z9.615385
  X31.893144 Y-6.251135 Z9.230769
  X31.330682 Y-6.447713 Z8.846154
  X30.792155 Y-6.635925 Z8.461538
  X30.277563 Y-6.815772 Z8.076923
  X29.786905 Y-6.987255 Z7.692308
  X29.320182 Y-7.150372 Z7.307692
  X28.877393 Y-7.305125 Z6.923077
  X28.458539 Y-7.451512 Z6.538462
  X28.063619 Y-7.589535 Z6.153846
  X27.692634 Y-7.719192 Z5.769231
  X27.345584 Y-7.840484 Z5.384615
  X27.022468 Y-7.953412 Z5.000000
  X26.723286 Y-8.057974 Z4.615385
  X26.448039 Y-8.154172 Z4.230769
  X26.196726 Y-8.242004 Z3.846154
  X25.969348 Y-8.321472 Z3.461538
  X25.765905 Y-8.392574 Z3.076923
  X25.586396 Y-8.455312 Z2.692308
  X25.430821 Y-8.509684 Z2.307692
  X25.299182 Y-8.555692 Z1.923077
  X25.191476 Y-8.593334 Z1.538462
  X25.107705 Y-8.622612 Z1.153846
  X25.047869 Y-8.643524 Z0.769231
  X25.011967 Y-8.656072 Z0.384615
  X25.000000 Y-8.660254 Z0.000000
  X29.500000 Y-4.526279 Z10.000000
  X28.915728 Y-4.681444 Z9.583333
  X28.356318 Y-4.830007 Z9.166667
  X27.821771 Y-4.971966 Z8.750000
  X27.312086 Y-5.107323 Z8.333333
  X26.827265 Y-5.236077 Z7.916667
  X26.367306 Y-5.358228 Z7.500000
  X25.932209 Y-5.473776 Z7.083333
  X25.521975 Y-5.582722 Z6.666667
  X25.136604 Y-5.685065 Z6.250000
  X24.776096 Y-5.780805 Z5.833333
  X24.440450 Y-5.869942 Z5.416667
  X24.129667 Y-5.952477 Z5.000000
  X23.843746 Y-6.028409 Z4.583333
  X23.582688 Y-6.097738 Z4.166667
  X23.346493 Y-6.160464 Z3.750000
  X23.135161 Y-6.216588 Z3.333333
  X22.948691 Y-6.266108 Z2.916667
  X22.787083 Y-6.309026 Z2.500000
  X22.650339 Y-6.345342 Z2.083333
  X22.538457 Y-6.375054 Z1.666667
  X22.451438 Y-6.398164 Z1.250000
  X22.389281 Y-6.414671 Z0.833333
  X22.351987 Y-6.424575 Z0.416667
  X22.339556 Y-6.427876 Z0.000000
  X26.573511 Y-2.070664 Z10.000000
  X26.065629 Y-2.185464 Z9.565217
  X25.580319 Y-2.295161 Z9.130435
  X25.117582 Y-2.399757 Z8.695652
  X24.677418 Y-2.499250 Z8.260870
  X24.259826 Y-2.593641 Z7.826087
  X23.864806 Y-2.682930 Z7.391304
  X23.492359 Y-2.767117 Z6.956522
  X23.142485 Y-2.846201 Z6.521739
  X22.815183 Y-2.920184 Z6.086957
  X22.510454 Y-2.989064 Z5.652174
  X22.228297 Y-3.052841 Z5.217391
  X21.968713 Y-3.111517 Z4.782609
  X21.731701 Y-3.165090 Z4.347826
  X21.517262 Y-3.213561 Z3.913043
  X21.325395 Y-3.256930 Z3.478261
  X21.156101 Y-3.295197 Z3.043478
  X21.009380 Y-3.328361 Z2.608696
  X20.885231 Y-3.356424 Z2.173913
  X20.783654 Y-3.379384 Z1.739130
  X20.704650 Y-3.397241 Z1.304348
  X20.648219 Y-3.409997 Z0.869565
  X20.614360 Y-3.417650 Z0.434783
  X20.603074 Y-3.420201 Z0.000000
  X24.663381 Y1.237778 Z10.000000
  X24.249073 Y1.127811 Z9.545455
  X23.854034 Y1.022957 Z9.090909
  X23.478266 Y0.923219 Z8.636364
  X23.121768 Y0.828595 Z8.181818
  X22.784540 Y0.739087 Z7.727273
  X22.466582 Y0.654693 Z7.272727
  X22.167894 Y0.575414 Z6.818182
  X21.888477 Y0.501249 Z6.363636
  X21.628329 Y0.432199 Z5.909091
  X21.387452 Y0.368265 Z5.454545
  X21.165845 Y0.309445 Z5.000000
  X20.963509 Y0.255739 Z4.545455
  X20.780442 Y0.207149 Z4.090909
  X20.616645 Y0.163673 Z3.636364
  X20.472119 Y0.125312 Z3.181818
  X20.346863 Y0.092066 Z2.727273
  X20.240877 Y0.063935 Z2.272727
  X20.154161 Y0.040918 Z1.818182
  X20.086716 Y0.023017 Z1.363636
  X20.038540 Y0.010230 Z0.909091
  X20.009635 Y0.002557 Z0.454545
  X20.000000 Y-0.000000 Z0.000000
  X24.000000 Y5.000000 Z10.000000
  X23.684186 Y4.853125 Z9.523810
  X23.383778 Y4.713415 Z9.047619
  X23.098775 Y4.580870 Z8.571429
  X22.829177 Y4.455489 Z8.095238
  X22.574986 Y4.337273 Z7.619048
  X22.336199 Y4.226221 Z7.142857
  X22.112819 Y4.122334 Z6.666667
  X21.904844 Y4.025612 Z6.190476
  X21.712274 Y3.936054 Z5.714286
  X21.535110 Y3.853661 Z5.238095
  X21.373352 Y3.778432 Z4.761905
  X21.226999 Y3.710369 Z4.285714
  X21.096052 Y3.649469 Z3.809524
  X20.980510 Y3.595735 Z3.333333
  X20.880374 Y3.549165 Z2.857143
  X20.795643 Y3.509759 Z2.380952
  X20.726318 Y3.477518 Z1.904762
  X20.672399 Y3.452442 Z1.428571
  X20.633885 Y3.434531 Z0.952381
  X20.610777 Y3.423784 Z0.476190
  X20.603074 Y3.420201 Z0.000000
  X24.663381 Y8.762222 Z10.000000
  X24.447334 Y8.545196 Z9.523810
  X24.241826 Y8.338758 Z9.047619
  X24.046856 Y8.142905 Z8.571429
  X23.862425 Y7.957640 Z8.095238
  X23.688534 Y7.782961 Z7.619048
  X23.525181 Y7.618869 Z7.142857
  X23.372367 Y7.465363 Z6.666667
  X23.230092 Y7.322444 Z6.190476
  X23.098356 Y7.190111 Z5.714286
  X22.977159 Y7.068365 Z5.238095
  X22.866500 Y6.957206 Z4.761905
  X22.766381 Y6.856633 Z4.285714
  X22.676800 Y6.766647 Z3.809524
  X22.597758 Y6.687248 Z3.333333
  X22.529256 Y6.618435 Z2.857143
  X22.471292 Y6.560209 Z2.380952
  X22.423867 Y6.512569 Z1.904762
  X22.386981 Y6.475516 Z1.428571
  X22.360633 Y6.449049 Z0.952381
  X22.344825 Y6.433169 Z0.476190
  X22.339556 Y6.427876 Z0.000000
  X26.573511 Y12.070664 Z10.000000
  X26.427221 Y11.753596 Z9.523810
  X26.288067 Y11.451995 Z9.047619
  X26.156049 Y11.165861 Z8.571429
  X26.031167 Y10.895194 Z8.095238
  X25.913421 Y10.639993 Z7.619048
  X25.802812 Y10.400259 Z7.142857
  X25.699338 Y10.175992 Z6.666667
  X25.603001 Y9.967191 Z6.190476
  X25.513800 Y9.773857 Z5.714286
  X25.431734 Y9.595990 Z5.238095
  X25.356805 Y9.433590 Z4.761905
  X25.289012 Y9.286656 Z4.285714
  X25.228355 Y9.155189 Z3.809524
  X25.174835 Y9.039188 Z3.333333
  X25.128450 Y8.938655 Z2.857143
  X25.089201 Y8.853588 Z2.380952
  X25.057089 Y8.783988 Z1.904762
  X25.032112 Y8.729854 Z1.428571
  X25.014272 Y8.691187 Z0.952381
  X25.003568 Y8.667987 Z0.476190
  X25.000000 Y8.660254 Z0.000000
  X29.500000 Y14.526279 Z10.000000
  X29.390147 Y14.110654 Z9.545455
  X29.285404 Y13.714360 Z9.090909
  X29.185770 Y13.337398 Z8.636364
  X29.091246 Y12.979766 Z8.181818
  X29.001831 Y12.641467 Z7.727273
  X28.917525 Y12.322498 Z7.272727
  X28.838329 Y12.022861 Z6.818182
  X28.764242 Y11.742556 Z6.363636
  X28.695265 Y11.481582 Z5.909091
  X28.631397 Y11.239939 Z5.454545
  X28.572639 Y11.017628 Z5.000000
  X28.518990 Y10.814648 Z4.545455
  X28.470450 Y10.631000 Z4.090909
  X28.427020 Y10.466683 Z3.636364
  X28.388699 Y10.321697 Z3.181818
  X28.355488 Y10.196043 Z2.727273
  X28.327386 Y10.089720 Z2.272727
  X28.304394 Y10.002729 Z1.818182
  X28.286511 Y9.935069 Z1.363636
  X28.273737 Y9.886740 Z0.909091
  X28.266073 Y9.857743 Z0.454545
  X28.263518 Y9.848078 Z0.000000
  X33.089870 Y15.832885 Z10.000000
  X32.974742 Y15.323781 Z9.565217
  X32.864732 Y14.837303 Z9.130435
  X32.759838 Y14.373452 Z8.695652
  X32.660061 Y13.932228 Z8.260870
  X32.565400 Y13.513631 Z7.826087
  X32.475856 Y13.117661 Z7.391304
  X32.391430 Y12.744317 Z6.956522
  X32.312120 Y12.393601 Z6.521739
  X32.237926 Y12.065511 Z6.086957
  X32.168850 Y11.760048 Z5.652174
  X32.104890 Y11.477212 Z5.217391
  X32.046047 Y11.217003 Z4.782609
  X31.992321 Y10.979421 Z4.347826
  X31.943711 Y10.764466 Z3.913043
  X31.900219 Y10.572137 Z3.478261
  X31.861843 Y10.402436 Z3.043478
  X31.828584 Y10.255361 Z2.608696
  X31.800442 Y10.130913 Z2.173913
  X31.777416 Y10.029093 Z1.739130
  X31.759507 Y9.949898 Z1.304348
  X31.746715 Y9.893331 Z0.869565
  X31.739040 Y9.859391 Z0.434783
  X31.736482 Y9.848078 Z0.000000
  X36.910130 Y15.832885 Z10.000000
  X36.754269 Y15.247618 Z9.583333
  X36.605040 Y14.687257 Z9.166667
  X36.462443 Y14.151800 Z8.750000
  X36.326479 Y13.641248 Z8.333333
  X36.197147 Y13.155601 Z7.916667
  X36.074448 Y12.694859 Z7.500000
  X35.958381 Y12.259022 Z7.083333
  X35.848947 Y11.848090 Z6.666667
  X35.746145 Y11.462063 Z6.250000
  X35.649975 Y11.100941 Z5.833333
  X35.560437 Y10.764724 Z5.416667
  X35.477532 Y10.453412 Z5.000000
  X35.401260 Y10.167005 Z4.583333
  X35.331620 Y9.905503 Z4.166667
  X35.268612 Y9.668905 Z3.750000
  X35.212237 Y9.457213 Z3.333333
  X35.162494 Y9.270426 Z2.916667
  X35.119383 Y9.108543 Z2.500000
  X35.082905 Y8.971566 Z2.083333
  X35.053059 Y8.859494 Z1.666667
  X35.029846 Y8.772326 Z1.250000
  X35.013265 Y8.710064 Z0.833333
  X35.003316 Y8.672707 Z0.416667
  X35.000000 Y8.660254 Z0.000000
  X40.500000 Y14.526279 Z10.000000
  X40.285773 Y13.915305 Z9.615385
  X40.079947 Y13.328291 Z9.230769
  X39.882523 Y12.765236 Z8.846154
  X39.693499 Y12.226141 Z8.461538
  X39.512876 Y11.711006 Z8.076923
  X39.340655 Y11.219831 Z7.692308
  X39.176834 Y10.752615 Z7.307692
  X39.021415 Y10.309359 Z6.923077
  X38.874396 Y9.890063 Z6.538462
  X38.735779 Y9.494727 Z6.153846
  X38.605563 Y9.123351 Z5.769231
  X38.483748 Y8.775934 Z5.384615
  X38.370333 Y8.452477 Z5.000000
  X38.265320 Y8.152980 Z4.615385
  X38.168708 Y7.877442 Z4.230769
  X38.080497 Y7.625865 Z3.846154
  X38.000687 Y7.398247 Z3.461538
  X37.929278 Y7.194589 Z3.076923
  X37.866270 Y7.014891 Z2.692308
  X37.811663 Y6.859152 Z2.307692
  X37.765458 Y6.727373 Z1.923077
  X37.727653 Y6.619554 Z1.538462
  X37.698249 Y6.535695 Z1.153846
  X37.677247 Y6.475796 Z0.769231
  X37.664645 Y6.439856 Z0.384615
  X37.660444 Y6.427876 Z0.000000
  X43.426489 Y12.070664 Z10.000000
  X43.133530 Y11.441755 Z9.629630
  X42.851627 Y10.836579 Z9.259259
  X42.580778 Y10.255135 Z8.888889
  X42.320985 Y9.697423 Z8.518519
  X42.072246 Y9.163444 Z8.148148
  X41.834563 Y8.653197 Z7.777778
  X41.607935 Y8.166683 Z7.407407
  X41.392361 Y7.703901 Z7.037037
  X41.187843 Y7.264851 Z6.666667
  X40.994380 Y6.849534 Z6.296296
  X40.811972 Y6.457950 Z5.925926
  X40.640618 Y6.090097 Z5.555556
  X40.480320 Y5.745977 Z5.185185
  X40.331077 Y5.425590 Z4.814815
  X40.192889 Y5.128935 Z4.444444
  X40.065756 Y4.856012 Z4.074074
  X39.949678 Y4.606822 Z3.703704
  X39.844655 Y4.381364 Z3.333333
  X39.750688 Y4.179638 Z2.962963
  X39.667775 Y4.001645 Z2.592593
  X39.595917 Y3.847385 Z2.222222
  X39.535114 Y3.716857 Z1.851852
  X39.485367 Y3.610061 Z1.481481
  X39.446674 Y3.526997 Z1.111111
  X39.419036 Y3.467666 Z0.740741
  X39.402454 Y3.432068 Z0.370370
  X39.396926 Y3.420201 Z0.000000
  X45.336619 Y8.762222 Z10.000000
(rapid to: no name)
G00 Z5
G00 X-15.000000 Y-70.000000
G00 Z0.000000
(no name)
G01 X-20.000000  Z-10.000000
G03 X-20.603074 Y-73.420201 Z-10.000000 R1.736482
G01 X-15.904611 Y-75.130302 Z0.000000
  X-18.509333 Y-79.641814 
  X-22.339556 Y-76.427876 Z-10.000000
G03 X-25.000000 Y-78.660254 Z-10.000000 R1.736482
G01 X-22.500000 Y-82.990381 Z0.000000
  X-27.395277 Y-84.772116 
  X-28.263518 Y-79.848078 Z-10.000000
G03 X-31.736482 Y-79.848078 Z-10.000000 R1.736482
G01 X-32.604723 Y-84.772116 Z0.000000
  X-37.500000 Y-82.990381 
  X-35.000000 Y-78.660254 Z-10.000000
G03 X-37.660444 Y-76.427876 Z-10.000000 R1.736482
G01 X-41.490667 Y-79.641814 Z0.000000
  X-44.095389 Y-75.130302 
  X-39.396926 Y-73.420201 Z-10.000000
G03 X-40.000000 Y-70.000000 Z-10.000000 R1.736482
G01 X-45.000000  Z0.000000
  X-44.095389 Y-64.869698 
  X-39.396926 Y-66.579799 Z-10.000000
G03 X-37.660444 Y-63.572124 Z-10.000000 R1.736482
G01 X-41.490667 Y-60.358186 Z0.000000
  X-37.500000 Y-57.009619 
  X-35.000000 Y-61.339746 Z-10.000000
G03 X-31.736482 Y-60.151922 Z-10.000000 R1.736482
G01 X-32.604723 Y-55.227884 Z0.000000
  X-27.395277  
  X-28.263518 Y-60.151922 Z-10.000000
G03 X-25.000000 Y-61.339746 Z-10.000000 R1.736482
G01 X-22.500000 Y-57.009619 Z0.000000
  X-18.509333 Y-60.358186 
  X-22.339556 Y-63.572124 Z-10.000000
G03 X-20.603074 Y-66.579799 Z-10.000000 R1.736482
G01 X-15.904611 Y-64.869698 Z0.000000
(rapid to: no name)
G00 Z5
G00 X10.000000 Y-70.000000
G00 Z0.000000
(no name)
G01 X15.000000  Z-10.000000
G02 X14.095389 Y-75.130302 Z-10.000000 R2.604723
G01 X9.396926 Y-73.420201 Z0.000000
  X7.660444 Y-76.427876 
  X11.490667 Y-79.641814 Z-10.000000
G02 X7.500000 Y-82.990381 Z-10.000000 R2.604723
G01 X5.000000 Y-78.660254 Z0.000000
  X1.736482 Y-79.848078 
  X2.604723 Y-84.772116 Z-10.000000
G02 X-2.604723 Y-84.772116 Z-10.000000 R2.604723
G01 X-1.736482 Y-79.848078 Z0.000000
  X-5.000000 Y-78.660254 
  X-7.500000 Y-82.990381 Z-10.000000
G02 X-11.490667 Y-79.641814 Z-10.000000 R2.604723
G01 X-7.660444 Y-76.427876 Z0.000000
  X-9.396926 Y-73.420201 
  X-14.095389 Y-75.130302 Z-10.000000
G02 X-15.000000 Y-70.000000 Z-10.000000 R2.604723
G01 X-10.000000  Z0.000000
  X-9.396926 Y-66.579799 
  X-14.095389 Y-64.869698 Z-10.000000
G02 X-11.490667 Y-60.358186 Z-10.000000 R2.604723
G01 X-7.660444 Y-63.572124 Z0.000000
  X-5.000000 Y-61.339746 
  X-7.500000 Y-57.009619 Z-10.000000
G02 X-2.604723 Y-55.227884 Z-10.000000 R2.604723
G01 X-1.736482 Y-60.151922 Z0.000000
  X1.736482  
  X2.604723 Y-55.227884 Z-10.000000
G02 X7.500000 Y-57.009619 Z-10.000000 R2.604723
G01 X5.000000 Y-61.339746 Z0.000000
  X7.660444 Y-63.572124 
  X11.490667 Y-60.358186 Z-10.000000
G02 X14.095389 Y-64.869698 Z-10.000000 R2.604723
G01 X9.396926 Y-66.579799 Z0.000000
(rapid to: no name)
G00 Z5
G00 X50.000000 Y-70.000000
G00 Z0.000000
(no name)
G01 X55.000000  Z-10.000000
G02 X54.095389 Y-75.130302 Z-10.000000 R2.604723
G01 X49.396926 Y-73.420201 Z0.000000
  X47.660444 Y-76.427876 
  X51.490667 Y-79.641814 Z-10.000000
G02 X47.500000 Y-82.990381 Z-10.000000 R2.604723
G01 X45.000000 Y-78.660254 Z0.000000
  X41.736482 Y-79.848078 
  X42.604723 Y-84.772116 Z-10.000000
G02 X37.395277 Y-84.772116 Z-10.000000 R2.604723
G01 X38.263518 Y-79.848078 Z0.000000
  X35.000000 Y-78.660254 
  X32.500000 Y-82.990381 Z-10.000000
G02 X28.509333 Y-79.641814 Z-10.000000 R2.604723
G01 X32.339556 Y-76.427876 Z0.000000
  X30.603074 Y-73.420201 
  X25.904611 Y-75.130302 Z-10.000000
G02 X25.000000 Y-70.000000 Z-10.000000 R2.604723
G01 X30.000000  Z0.000000
  X30.603074 Y-66.579799 
  X25.904611 Y-64.869698 Z-10.000000
G02 X28.509333 Y-60.358186 Z-10.000000 R2.604723
G01 X32.339556 Y-63.572124 Z0.000000
  X35.000000 Y-61.339746 
  X32.500000 Y-57.009619 Z-10.000000
G02 X37.395277 Y-55.227884 Z-10.000000 R2.604723
G01 X38.263518 Y-60.151922 Z0.000000
  X41.736482  
  X42.604723 Y-55.227884 Z-10.000000
G02 X47.500000 Y-57.009619 Z-10.000000 R2.604723
G01 X45.000000 Y-61.339746 Z0.000000
  X47.660444 Y-63.572124 
  X51.490667 Y-60.358186 Z-10.000000
G02 X54.095389 Y-64.869698 Z-10.000000 R2.604723
G01 X49.396926 Y-66.579799 Z0.000000
(rapid to: no name)
G00 Z5
G00 X50.000000 Y-70.000000
G00 Z0.000000
(no name)
G01 X45.000000  Z-10.000000
G03 X44.698463 Y-71.710101 Z-10.000000 R0.868241
G01 X49.396926 Y-73.420201 Z0.000000
  X47.660444 Y-76.427876 
  X43.830222 Y-73.213938 Z-10.000000
G03 X42.500000 Y-74.330127 Z-10.000000 R0.868241
G01 X45.000000 Y-78.660254 Z0.000000
  X41.736482 Y-79.848078 
  X40.868241 Y-74.924039 Z-10.000000
G03 X39.131759 Y-74.924039 Z-10.000000 R0.868241
G01 X38.263518 Y-79.848078 Z0.000000
  X35.000000 Y-78.660254 
  X37.500000 Y-74.330127 Z-10.000000
G03 X36.169778 Y-73.213938 Z-10.000000 R0.868241
G01 X32.339556 Y-76.427876 Z0.000000
  X30.603074 Y-73.420201 
  X35.301537 Y-71.710101 Z-10.000000
G03 X35.000000 Y-70.000000 Z-10.000000 R0.868241
G01 X30.000000 Y-70.000000 Z0.000000
  X30.603074 Y-66.579799 
  X35.301537 Y-68.289899 Z-10.000000
G03 X36.169778 Y-66.786062 Z-10.000000 R0.868241
G01 X32.339556 Y-63.572124 Z0.000000
  X35.000000 Y-61.339746 
  X37.500000 Y-65.669873 Z-10.000000
G03 X39.131759 Y-65.075961 Z-10.000000 R0.868241
G01 X38.263518 Y-60.151922 Z0.000000
  X41.736482  
  X40.868241 Y-65.075961 Z-10.000000
G03 X42.500000 Y-65.669873 Z-10.000000 R0.868241
G01 X45.000000 Y-61.339746 Z0.000000
  X47.660444 Y-63.572124 
  X43.830222 Y-66.786062 Z-10.000000
G03 X44.698463 Y-68.289899 Z-10.000000 R0.868241
G01 X49.396926 Y-66.579799 Z0.000000
(rapid to: no name)
G00 Z5
G00 X-15.000000 Y70.000000
G00 Z0.000000
(no name)
G01 X-20.000000  Z-10.000000
G03 X-20.603074 Y66.579799 Z-10.000000 R1.736482
G01 X-15.904611 Y64.869698 Z0.000000
G03 X-18.509333 Y60.358186 Z0.000000 R2.604723
G01 X-22.339556 Y63.572124 Z-10.000000
G03 X-25.000000 Y61.339746 Z-10.000000 R1.736482
G01 X-22.500000 Y57.009619 Z0.000000
G03 X-27.395277 Y55.227884 Z0.000000 R2.604723
G01 X-28.263518 Y60.151922 Z-10.000000
G03 X-31.736482 Y60.151922 Z-10.000000 R1.736482
G01 X-32.604723 Y55.227884 Z0.000000
G03 X-37.500000 Y57.009619 Z0.000000 R2.604723
G01 X-35.000000 Y61.339746 Z-10.000000
G03 X-37.660444 Y63.572124 Z-10.000000 R1.736482
G01 X-41.490667 Y60.358186 Z0.000000
G03 X-44.095389 Y64.869698 Z0.000000 R2.604723
G01 X-39.396926 Y66.579799 Z-10.000000
G03 X-40.000000 Y70.000000 Z-10.000000 R1.736482
G01 X-45.000000  Z0.000000
G03 X-44.095389 Y75.130302 Z0.000000 R2.604723
G01 X-39.396926 Y73.420201 Z-10.000000
G03 X-37.660444 Y76.427876 Z-10.000000 R1.736482
G01 X-41.490667 Y79.641814 Z0.000000
G03 X-37.500000 Y82.990381 Z0.000000 R2.604723
G01 X-35.000000 Y78.660254 Z-10.000000
G03 X-31.736482 Y79.848078 Z-10.000000 R1.736482
G01 X-32.604723 Y84.772116 Z0.000000
G03 X-27.395277 Y84.772116 Z0.000000 R2.604723
G01 X-28.263518 Y79.848078 Z-10.000000
G03 X-25.000000 Y78.660254 Z-10.000000 R1.736482
G01 X-22.500000 Y82.990381 Z0.000000
G03 X-18.509333 Y79.641814 Z0.000000 R2.604723
G01 X-22.339556 Y76.427876 Z-10.000000
G03 X-20.603074 Y73.420201 Z-10.000000 R1.736482
G01 X-15.904611 Y75.130302 Z0.000000
(rapid to: no name)
G00 Z5
G00 X10.000000 Y70.000000
G00 Z0.000000
(no name)
G01 X15.000000  Z-10.000000
G02 X14.095389 Y64.869698 Z-10.000000 R2.604723
G01 X9.396926 Y66.579799 Z0.000000
G02 X7.660444 Y63.572124 Z0.000000 R1.736482
G01 X11.490667 Y60.358186 Z-10.000000
G02 X7.500000 Y57.009619 Z-10.000000 R2.604723
G01 X5.000000 Y61.339746 Z0.000000
G02 X1.736482 Y60.151922 Z0.000000 R1.736482
G01 X2.604723 Y55.227884 Z-10.000000
G02 X-2.604723 Y55.227884 Z-10.000000 R2.604723
G01 X-1.736482 Y60.151922 Z0.000000
G02 X-5.000000 Y61.339746 Z0.000000 R1.736482
G01 X-7.500000 Y57.009619 Z-10.000000
G02 X-11.490667 Y60.358186 Z-10.000000 R2.604723
G01 X-7.660444 Y63.572124 Z0.000000
G02 X-9.396926 Y66.579799 Z0.000000 R1.736482
G01 X-14.095389 Y64.869698 Z-10.000000
G02 X-15.000000 Y70.000000 Z-10.000000 R2.604723
G01 X-10.000000  Z0.000000
G02 X-9.396926 Y73.420201 Z0.000000 R1.736482
G01 X-14.095389 Y75.130302 Z-10.000000
G02 X-11.490667 Y79.641814 Z-10.000000 R2.604723
G01 X-7.660444 Y76.427876 Z0.000000
G02 X-5.000000 Y78.660254 Z0.000000 R1.736482
G01 X-7.500000 Y82.990381 Z-10.000000
G02 X-2.604723 Y84.772116 Z-10.000000 R2.604723
G01 X-1.736482 Y79.848078 Z0.000000
G02 X1.736482 Y79.848078 Z0.000000 R1.736482
G01 X2.604723 Y84.772116 Z-10.000000
G02 X7.500000 Y82.990381 Z-10.000000 R2.604723
G01 X5.000000 Y78.660254 Z0.000000
G02 X7.660444 Y76.427876 Z0.000000 R1.736482
G01 X11.490667 Y79.641814 Z-10.000000
G02 X14.095389 Y75.130302 Z-10.000000 R2.604723
G01 X9.396926 Y73.420201 Z0.000000
(rapid to: no name)
G00 Z5
G00 X50.000000 Y70.000000
G00 Z0.000000
(no name)
G01 X55.000000  Z-10.000000
G02 X54.095389 Y64.869698 Z-10.000000 R2.604723
G01 X49.396926 Y66.579799 Z0.000000
G02 X47.660444 Y63.572124 Z0.000000 R1.736482
G01 X51.490667 Y60.358186 Z-10.000000
G02 X47.500000 Y57.009619 Z-10.000000 R2.604723
G01 X45.000000 Y61.339746 Z0.000000
G02 X41.736482 Y60.151922 Z0.000000 R1.736482
G01 X42.604723 Y55.227884 Z-10.000000
G02 X37.395277 Y55.227884 Z-10.000000 R2.604723
G01 X38.263518 Y60.151922 Z0.000000
G02 X35.000000 Y61.339746 Z0.000000 R1.736482
G01 X32.500000 Y57.009619 Z-10.000000
G02 X28.509333 Y60.358186 Z-10.000000 R2.604723
G01 X32.339556 Y63.572124 Z0.000000
G02 X30.603074 Y66.579799 Z0.000000 R1.736482
G01 X25.904611 Y64.869698 Z-10.000000
G02 X25.000000 Y70.000000 Z-10.000000 R2.604723
G01 X30.000000  Z0.000000
G02 X30.603074 Y73.420201 Z0.000000 R1.736482
G01 X25.904611 Y75.130302 Z-10.000000
G02 X28.509333 Y79.641814 Z-10.000000 R2.604723
G01 X32.339556 Y76.427876 Z0.000000
G02 X35.000000 Y78.660254 Z0.000000 R1.736482
G01 X32.500000 Y82.990381 Z-10.000000
G02 X37.395277 Y84.772116 Z-10.000000 R2.604723
G01 X38.263518 Y79.848078 Z0.000000
G02 X41.736482 Y79.848078 Z0.000000 R1.736482
G01 X42.604723 Y84.772116 Z-10.000000
G02 X47.500000 Y82.990381 Z-10.000000 R2.604723
G01 X45.000000 Y78.660254 Z0.000000
G02 X47.660444 Y76.427876 Z0.000000 R1.736482
G01 X51.490667 Y79.641814 Z-10.000000
G02 X54.095389 Y75.130302 Z-10.000000 R2.604723
G01 X49.396926 Y73.420201 Z0.000000
(rapid to: no name)
G00 Z5
G00 X80.000000 Y70.000000
G00 Z0.000000
(no name)
G01 X75.000000  Z-10.000000
G03 X74.698463 Y68.289899 Z-10.000000 R0.868241
G01 X79.396926 Y66.579799 Z0.000000
G03 X77.660444 Y63.572124 Z0.000000 R1.736482
G01 X73.830222 Y66.786062 Z-10.000000
G03 X72.500000 Y65.669873 Z-10.000000 R0.868241
G01 X75.000000 Y61.339746 Z0.000000
G03 X71.736482 Y60.151922 Z0.000000 R1.736482
G01 X70.868241 Y65.075961 Z-10.000000
G03 X69.131759 Y65.075961 Z-10.000000 R0.868241
G01 X68.263518 Y60.151922 Z0.000000
G03 X65.000000 Y61.339746 Z0.000000 R1.736482
G01 X67.500000 Y65.669873 Z-10.000000
G03 X66.169778 Y66.786062 Z-10.000000 R0.868241
G01 X62.339556 Y63.572124 Z0.000000
G03 X60.603074 Y66.579799 Z0.000000 R1.736482
G01 X65.301537 Y68.289899 Z-10.000000
G03 X65.000000 Y70.000000 Z-10.000000 R0.868241
G01 X60.000000 Y70.000000 Z0.000000
G03 X60.603074 Y73.420201 Z0.000000 R1.736482
G01 X65.301537 Y71.710101 Z-10.000000
G03 X66.169778 Y73.213938 Z-10.000000 R0.868241
G01 X62.339556 Y76.427876 Z0.000000
G03 X65.000000 Y78.660254 Z0.000000 R1.736482
G01 X67.500000 Y74.330127 Z-10.000000
G03 X69.131759 Y74.924039 Z-10.000000 R0.868241
G01 X68.263518 Y79.848078 Z0.000000
G03 X71.736482 Y79.848078 Z0.000000 R1.736482
G01 X70.868241 Y74.924039 Z-10.000000
G03 X72.500000 Y74.330127 Z-10.000000 R0.868241
G01 X75.000000 Y78.660254 Z0.000000
G03 X77.660444 Y76.427876 Z0.000000 R1.736482
G01 X73.830222 Y73.213938 Z-10.000000
G03 X74.698463 Y71.710101 Z-10.000000 R0.868241
G01 X79.396926 Y73.420201 Z0.000000
(rapid to: no name)
G00 Z5
G00 X72.500000 Y25.000000
G00 Z0.000000
(no name)
G01 X85.000000  
G02 X84.772116 Y22.395277 Z0.000000 R1.307336
G01 X72.462019 Y24.565880 
G02 X72.349232 Y24.144950 Z0.000000 R0.217890
G01 X84.095389 Y19.869698 
G02 X82.990381 Y17.500000 Z0.000000 R1.307336
G01 X72.165064 Y23.750000 
G02 X71.915111 Y23.393031 Z0.000000 R0.217890
G01 X81.490667 Y15.358186 
G02 X79.641814 Y13.509333 Z0.000000 R1.307336
G01 X71.606969 Y23.084889 
G02 X71.250000 Y22.834936 Z0.000000 R0.217890
G01 X77.500000 Y12.009619 
G02 X75.130302 Y10.904611 Z0.000000 R1.307336
G01 X70.855050 Y22.650768 
G02 X70.434120 Y22.537981 Z0.000000 R0.217890
G01 X72.604723 Y10.227884 
G02 X70.000000 Y10.000000 Z0.000000 R1.307336
G01  Y22.500000 
G02 X69.565880 Y22.537981 Z0.000000 R0.217889
G01 X67.395277 Y10.227884 
G02 X64.869698 Y10.904611 Z0.000000 R1.307336
G01 X69.144950 Y22.650768 
G02 X68.750000 Y22.834936 Z0.000000 R0.217890
G01 X62.500000 Y12.009619 
G02 X60.358186 Y13.509333 Z0.000000 R1.307336
G01 X68.393031 Y23.084889 
G02 X68.084889 Y23.393031 Z0.000000 R0.217890
G01 X58.509333 Y15.358186 
G02 X57.009619 Y17.500000 Z0.000000 R1.307336
G01 X67.834936 Y23.750000 
G02 X67.650768 Y24.144950 Z0.000000 R0.217890
G01 X55.904611 Y19.869698 
G02 X55.227884 Y22.395277 Z0.000000 R1.307336
G01 X67.537981 Y24.565880 
G02 X67.500000 Y25.000000 Z0.000000 R0.217889
G01 X55.000000 Y25.000000 
G02 X55.227884 Y27.604723 Z0.000000 R1.307336
G01 X67.537981 Y25.434120 
G02 X67.650768 Y25.855050 Z0.000000 R0.217890
G01 X55.904611 Y30.130302 
G02 X57.009619 Y32.500000 Z0.000000 R1.307336
G01 X67.834936 Y26.250000 
G02 X68.084889 Y26.606969 Z0.000000 R0.217890
G01 X58.509333 Y34.641814 
G02 X60.358186 Y36.490667 Z0.000000 R1.307336
G01 X68.393031 Y26.915111 
G02 X68.750000 Y27.165064 Z0.000000 R0.217890
G01 X62.500000 Y37.990381 
G02 X64.869698 Y39.095389 Z0.000000 R1.307336
G01 X69.144950 Y27.349232 
G02 X69.565880 Y27.462019 Z0.000000 R0.217890
G01 X67.395277 Y39.772116 
G02 X70.000000 Y40.000000 Z0.000000 R1.307336
G01  Y27.500000 
G02 X70.434120 Y27.462019 Z0.000000 R0.217889
G01 X72.604723 Y39.772116 
G02 X75.130302 Y39.095389 Z0.000000 R1.307336
G01 X70.855050 Y27.349232 
G02 X71.250000 Y27.165064 Z0.000000 R0.217890
G01 X77.500000 Y37.990381 
G02 X79.641814 Y36.490667 Z0.000000 R1.307336
G01 X71.606969 Y26.915111 
G02 X71.915111 Y26.606969 Z0.000000 R0.217890
G01 X81.490667 Y34.641814 
G02 X82.990381 Y32.500000 Z0.000000 R1.307336
G01 X72.165064 Y26.250000 
G02 X72.349232 Y25.855050 Z0.000000 R0.217890
G01 X84.095389 Y30.130302 
G02 X84.772116 Y27.604723 Z0.000000 R1.307336
G01 X72.462019 Y25.434120 
(END)
G00 Z5

M02
